;FLAVOR:Marlin
;TIME:1722
;Filament used: 1.35345m
;Layer height: 0.2
;Generated with Cura_SteamEngine 3.4.1
M190 S70
M104 S210
M109 S210
M82 ;absolute extrusion mode
G28 ;Home
G1 Z15.0 F6000 ;Move the platform down 15mm
;Prime the extruder
G92 E0
G1 F200 E3
G92 E0
G92 E0
G1 F2400 E-5
;LAYER_COUNT:188
;LAYER:0
M107
M204 S5000
M205 X30 Y30
G0 F3600 X91.184 Y78.556 Z0.2
M204 S500
M205 X20 Y20
;TYPE:SKIRT
G1 F2400 E0
G1 F1800 X91.684 Y78.044 E0.0238
G1 X92.237 Y77.59 E0.0476
G1 X92.837 Y77.201 E0.07138
G1 X93.477 Y76.882 E0.09517
G1 X94.149 Y76.636 E0.11897
G1 X94.843 Y76.466 E0.14273
G1 X95.553 Y76.375 E0.16654
G1 X96.011 Y76.359 E0.18178
G1 X115.994 Y76.36 E0.84642
G1 X116.708 Y76.4 E0.87021
G1 X117.414 Y76.519 E0.89402
G1 X118.101 Y76.717 E0.9178
G1 X118.762 Y76.99 E0.94158
G1 X119.389 Y77.335 E0.96539
G1 X119.973 Y77.747 E0.98916
G1 X120.508 Y78.223 E1.01298
G1 X121.036 Y78.818 E1.03943
G1 X123.004 Y81.336 E1.14573
G1 X126.473 Y85.388 E1.32314
G1 X130.139 Y89.208 E1.49924
G1 X134.039 Y92.839 E1.67647
G1 X136.734 Y95.129 E1.79409
G1 X137.252 Y95.621 E1.81786
G1 X137.712 Y96.169 E1.84165
G1 X138.108 Y96.765 E1.86545
G1 X138.436 Y97.401 E1.88925
G1 X138.69 Y98.069 E1.91302
G1 X138.868 Y98.762 E1.93682
G1 X138.968 Y99.47 E1.9606
G1 X138.99 Y100.006 E1.97844
G1 X138.99 Y119.996 E2.64331
G1 X138.95 Y120.71 E2.6671
G1 X138.831 Y121.415 E2.69088
G1 X138.633 Y122.103 E2.71469
G1 X138.36 Y122.764 E2.73848
G1 X138.109 Y123.237 E2.75629
G1 X137.18 Y124.82 E2.81734
G1 X134.638 Y129.526 E2.99523
G1 X132.397 Y134.304 E3.17076
G1 X130.384 Y139.31 E3.35022
G1 X129.553 Y141.669 E3.4334
G1 X127.986 Y146.783 E3.6113
G1 X126.803 Y151.536 E3.77421
G1 X126.591 Y152.219 E3.798
G1 X126.305 Y152.875 E3.8218
G1 X125.948 Y153.494 E3.84557
G1 X125.523 Y154.07 E3.86937
G1 X125.037 Y154.594 E3.89314
G1 X124.496 Y155.062 E3.91694
G1 X123.905 Y155.466 E3.94075
G1 X123.274 Y155.801 E3.96451
G1 X122.608 Y156.064 E3.98832
G1 X121.918 Y156.251 E4.0121
G1 X121.211 Y156.36 E4.0359
G1 X120.592 Y156.39 E4.05651
G1 X75.409 Y156.391 E5.5593
G1 X74.695 Y156.351 E5.58308
G1 X73.99 Y156.232 E5.60687
G1 X73.302 Y156.034 E5.63068
G1 X72.641 Y155.761 E5.65446
G1 X72.014 Y155.417 E5.67825
G1 X71.43 Y155.004 E5.70204
G1 X70.896 Y154.529 E5.72581
G1 X70.418 Y153.997 E5.7496
G1 X70.002 Y153.415 E5.77339
G1 X69.654 Y152.79 E5.79718
G1 X69.377 Y152.13 E5.82099
G1 X69.176 Y151.444 E5.84477
G1 X69.053 Y150.739 E5.86857
G1 X69.009 Y149.991 E5.89349
G1 X69.01 Y130.003 E6.55829
G1 X69.05 Y129.289 E6.58208
G1 X69.169 Y128.583 E6.60589
G1 X69.367 Y127.896 E6.62967
G1 X69.64 Y127.235 E6.65346
G1 X69.85 Y126.833 E6.66854
G1 X72.128 Y122.838 E6.8215
G1 X74.513 Y118.106 E6.99775
G1 X76.656 Y113.181 E7.17639
G1 X77.59 Y110.761 E7.26267
G1 X78.452 Y108.315 E7.34893
G1 X80.016 Y103.211 E7.52648
G1 X81.204 Y98.447 E7.68978
G1 X81.416 Y97.764 E7.71357
G1 X81.702 Y97.109 E7.73734
G1 X81.926 Y96.704 E7.75273
G1 X83.669 Y93.798 E7.86544
G1 X86.206 Y89.097 E8.04311
G1 X88.474 Y84.258 E8.22086
G1 X89.477 Y81.864 E8.30719
G1 X89.484 Y81.842 E8.30795
G1 X90.07 Y80.379 E8.36037
G1 X90.373 Y79.731 E8.38416
G1 X90.746 Y79.121 E8.40795
G1 X91.184 Y78.556 E8.43172
M204 S5000
M205 X30 Y30
G0 F3600 X91.53 Y78.769
M204 S500
M205 X20 Y20
G1 F1800 X92.019 Y78.279 E8.45475
G1 X92.562 Y77.849 E8.47778
G1 X93.151 Y77.485 E8.50081
G1 X93.778 Y77.19 E8.52386
G1 X94.434 Y76.97 E8.54687
G1 X95.112 Y76.827 E8.56992
G1 X96.011 Y76.759 E8.59991
G1 X115.994 Y76.76 E9.26454
G1 X116.686 Y76.8 E9.2876
G1 X117.368 Y76.919 E9.31062
G1 X118.032 Y77.117 E9.33367
G1 X118.668 Y77.389 E9.35668
G1 X119.269 Y77.733 E9.37971
G1 X119.827 Y78.144 E9.40276
G1 X120.333 Y78.616 E9.42577
G1 X120.721 Y79.065 E9.44551
G1 X122.691 Y81.584 E9.55187
G1 X126.172 Y85.651 E9.72992
G1 X129.86 Y89.495 E9.9071
G1 X133.767 Y93.132 E10.08464
G1 X136.475 Y95.433 E10.20283
G1 X136.976 Y95.912 E10.22589
G1 X137.418 Y96.444 E10.24889
G1 X137.797 Y97.024 E10.27194
G1 X138.106 Y97.644 E10.29498
G1 X138.341 Y98.295 E10.318
G1 X138.5 Y98.97 E10.34106
G1 X138.58 Y99.657 E10.36406
G1 X138.59 Y100.006 E10.37568
G1 X138.59 Y119.996 E11.04055
G1 X138.55 Y120.687 E11.06357
G1 X138.431 Y121.37 E11.08663
G1 X138.233 Y122.033 E11.10964
G1 X137.961 Y122.67 E11.13268
G1 X137.764 Y123.034 E11.14644
G1 X136.835 Y124.616 E11.20746
G1 X134.285 Y129.338 E11.38596
G1 X132.028 Y134.149 E11.5627
G1 X130.013 Y139.161 E11.74237
G1 X129.173 Y141.546 E11.82647
G1 X127.593 Y146.701 E12.0058
G1 X126.414 Y151.439 E12.16819
G1 X126.209 Y152.1 E12.19121
G1 X125.928 Y152.733 E12.21425
G1 X125.576 Y153.33 E12.2373
G1 X125.158 Y153.882 E12.26033
G1 X124.679 Y154.382 E12.28336
G1 X124.146 Y154.824 E12.30639
G1 X123.565 Y155.201 E12.32942
G1 X122.945 Y155.509 E12.35245
G1 X122.293 Y155.744 E12.3755
G1 X121.619 Y155.901 E12.39852
G1 X120.592 Y155.99 E12.4328
G1 X75.409 Y155.991 E13.9356
G1 X74.718 Y155.951 E13.95862
G1 X74.036 Y155.832 E13.98164
G1 X73.372 Y155.635 E14.00468
G1 X72.735 Y155.362 E14.02773
G1 X72.134 Y155.018 E14.05076
G1 X71.576 Y154.607 E14.07381
G1 X71.07 Y154.135 E14.09683
G1 X70.621 Y153.607 E14.11988
G1 X70.237 Y153.032 E14.14288
G1 X69.921 Y152.415 E14.16593
G1 X69.678 Y151.767 E14.18895
G1 X69.511 Y151.095 E14.21198
G1 X69.423 Y150.408 E14.23502
G1 X69.409 Y149.991 E14.2489
G1 X69.41 Y130.003 E14.9137
G1 X69.45 Y129.311 E14.93675
G1 X69.569 Y128.629 E14.95978
G1 X69.767 Y127.965 E14.98283
G1 X70.198 Y127.031 E15.01704
G1 X72.477 Y123.034 E15.17007
G1 X74.88 Y118.267 E15.34763
G1 X77.022 Y113.345 E15.52616
G1 X77.976 Y110.871 E15.61436
G1 X78.823 Y108.467 E15.69913
G1 X80.403 Y103.31 E15.87852
G1 X81.592 Y98.544 E16.0419
G1 X81.798 Y97.883 E16.06493
G1 X82.079 Y97.25 E16.08796
G1 X82.269 Y96.91 E16.10092
G1 X84.016 Y93.998 E16.21386
G1 X86.56 Y89.285 E16.392
G1 X88.843 Y84.413 E16.57095
G1 X89.844 Y82.024 E16.6571
G1 X89.855 Y81.991 E16.65826
G1 X90.441 Y80.528 E16.71067
G1 X90.735 Y79.901 E16.73371
G1 X91.1 Y79.312 E16.75675
G1 X91.53 Y78.769 E16.77979
M204 S5000
M205 X30 Y30
G0 F3600 X91.874 Y78.985
M204 S500
M205 X20 Y20
G1 F1800 X92.354 Y78.518 E16.80207
G1 X92.886 Y78.112 E16.82432
G1 X93.462 Y77.773 E16.84655
G1 X94.075 Y77.504 E16.86882
G1 X94.715 Y77.311 E16.89105
G1 X95.374 Y77.195 E16.91331
G1 X96.011 Y77.159 E16.93453
G1 X115.994 Y77.16 E17.59917
G1 X116.662 Y77.2 E17.62142
G1 X117.32 Y77.319 E17.64366
G1 X117.96 Y77.516 E17.66594
G1 X118.571 Y77.788 E17.68818
G1 X119.146 Y78.131 E17.71045
G1 X119.675 Y78.54 E17.73269
G1 X120.152 Y79.009 E17.75494
G1 X120.406 Y79.311 E17.76806
G1 X122.386 Y81.844 E17.875
G1 X125.879 Y85.923 E18.05361
G1 X129.572 Y89.774 E18.23107
G1 X133.507 Y93.436 E18.40986
G1 X136.216 Y95.738 E18.5281
G1 X136.699 Y96.201 E18.55035
G1 X137.123 Y96.718 E18.57259
G1 X137.483 Y97.282 E18.59484
G1 X137.773 Y97.885 E18.6171
G1 X137.989 Y98.519 E18.63937
G1 X138.128 Y99.173 E18.66161
G1 X138.19 Y100.006 E18.6894
G1 X138.19 Y119.996 E19.35427
G1 X138.15 Y120.664 E19.37652
G1 X138.031 Y121.322 E19.39876
G1 X137.834 Y121.962 E19.42104
G1 X137.419 Y122.832 E19.4531
G1 X136.483 Y124.425 E19.51455
G1 X133.928 Y129.156 E19.69338
G1 X131.66 Y133.994 E19.8711
G1 X129.642 Y139.011 E20.05096
G1 X128.787 Y141.437 E20.13651
G1 X127.21 Y146.585 E20.31559
G1 X126.026 Y151.342 E20.47863
G1 X125.826 Y151.981 E20.5009
G1 X125.551 Y152.591 E20.52316
G1 X125.206 Y153.164 E20.5454
G1 X124.794 Y153.691 E20.56765
G1 X124.323 Y154.166 E20.5899
G1 X123.798 Y154.581 E20.61216
G1 X123.228 Y154.931 E20.63441
G1 X122.62 Y155.21 E20.65666
G1 X121.983 Y155.415 E20.67891
G1 X121.326 Y155.542 E20.70117
G1 X120.592 Y155.59 E20.72563
G1 X75.409 Y155.591 E22.22843
G1 X74.741 Y155.551 E22.25069
G1 X74.083 Y155.432 E22.27293
G1 X73.444 Y155.235 E22.29517
G1 X72.832 Y154.963 E22.31744
G1 X72.258 Y154.62 E22.33968
G1 X71.728 Y154.211 E22.36195
G1 X71.251 Y153.742 E22.3842
G1 X70.833 Y153.22 E22.40644
G1 X70.481 Y152.651 E22.42869
G1 X70.199 Y152.044 E22.45095
G1 X69.991 Y151.408 E22.47321
G1 X69.861 Y150.752 E22.49545
G1 X69.809 Y149.991 E22.52082
G1 X69.81 Y130.003 E23.18563
G1 X69.85 Y129.335 E23.20788
G1 X69.969 Y128.677 E23.23012
G1 X70.166 Y128.037 E23.2524
G1 X70.545 Y127.229 E23.28208
G1 X72.839 Y123.206 E23.43611
G1 X75.24 Y118.443 E23.61352
G1 X77.387 Y113.508 E23.79252
G1 X78.35 Y111.011 E23.88153
G1 X79.209 Y108.576 E23.96741
G1 X80.786 Y103.427 E24.14652
G1 X81.98 Y98.641 E24.31058
G1 X82.181 Y98.003 E24.33283
G1 X82.612 Y97.115 E24.36566
G1 X84.368 Y94.188 E24.47919
G1 X86.916 Y89.466 E24.65765
G1 X89.212 Y84.569 E24.83754
G1 X90.221 Y82.159 E24.92443
G1 X90.227 Y82.14 E24.9251
G1 X90.813 Y80.677 E24.97752
G1 X91.098 Y80.072 E24.99976
G1 X91.453 Y79.505 E25.02201
G1 X91.874 Y78.985 E25.04426
M204 S5000
M205 X30 Y30
G0 F3600 X92.217 Y79.203
M204 S500
M205 X20 Y20
G1 F1800 X92.687 Y78.76 E25.06574
G1 X93.207 Y78.38 E25.08716
G1 X93.77 Y78.067 E25.10859
G1 X94.368 Y77.825 E25.13005
G1 X94.991 Y77.66 E25.15148
G1 X95.63 Y77.573 E25.17293
G1 X96.011 Y77.559 E25.18561
G1 X115.994 Y77.56 E25.85025
G1 X116.638 Y77.6 E25.87171
G1 X117.271 Y77.719 E25.89313
G1 X117.885 Y77.916 E25.91458
G1 X118.47 Y78.187 E25.93602
G1 X119.017 Y78.529 E25.95748
G1 X119.517 Y78.935 E25.9789
G1 X120.091 Y79.557 E26.00705
G1 X122.081 Y82.103 E26.11453
G1 X125.586 Y86.196 E26.29376
G1 X129.293 Y90.061 E26.47188
G1 X133.235 Y93.73 E26.65099
G1 X135.957 Y96.043 E26.7698
G1 X136.421 Y96.49 E26.79123
G1 X136.827 Y96.991 E26.81268
G1 X137.167 Y97.539 E26.83412
G1 X137.438 Y98.124 E26.85557
G1 X137.633 Y98.738 E26.877
G1 X137.751 Y99.372 E26.89844
G1 X137.79 Y100.006 E26.91957
G1 X137.79 Y119.996 E27.58444
G1 X137.75 Y120.639 E27.60587
G1 X137.631 Y121.273 E27.62732
G1 X137.434 Y121.887 E27.64877
G1 X137.074 Y122.629 E27.6762
G1 X136.139 Y124.222 E27.73764
G1 X133.571 Y128.975 E27.91732
G1 X131.287 Y133.847 E28.09629
G1 X129.275 Y138.849 E28.27561
G1 X128.407 Y141.313 E28.3625
G1 X126.825 Y146.476 E28.5421
G1 X125.638 Y151.246 E28.70559
G1 X125.444 Y151.861 E28.72704
G1 X125.175 Y152.447 E28.74848
G1 X124.836 Y152.995 E28.76992
G1 X124.432 Y153.497 E28.79135
G1 X123.968 Y153.945 E28.8128
G1 X123.453 Y154.332 E28.83423
G1 X122.893 Y154.653 E28.8557
G1 X122.299 Y154.902 E28.87712
G1 X121.678 Y155.075 E28.89856
G1 X121.04 Y155.171 E28.92002
G1 X120.592 Y155.19 E28.93493
G1 X75.409 Y155.191 E30.43772
G1 X74.766 Y155.151 E30.45915
G1 X74.132 Y155.032 E30.48061
G1 X73.518 Y154.835 E30.50205
G1 X72.933 Y154.564 E30.5235
G1 X72.387 Y154.222 E30.54493
G1 X71.886 Y153.816 E30.56637
G1 X71.44 Y153.351 E30.5878
G1 X71.055 Y152.834 E30.60924
G1 X70.737 Y152.273 E30.63069
G1 X70.49 Y151.677 E30.65215
G1 X70.319 Y151.056 E30.67357
G1 X70.227 Y150.418 E30.69501
G1 X70.209 Y149.991 E30.70923
G1 X70.21 Y130.003 E31.37403
G1 X70.25 Y129.359 E31.39549
G1 X70.369 Y128.726 E31.41691
G1 X70.566 Y128.112 E31.43836
G1 X70.893 Y127.428 E31.46358
G1 X73.182 Y123.414 E31.61726
G1 X75.603 Y118.61 E31.79619
G1 X77.756 Y113.663 E31.97563
G1 X78.724 Y111.151 E32.06517
G1 X79.589 Y108.701 E32.15159
G1 X81.178 Y103.514 E32.33202
G1 X82.369 Y98.738 E32.49574
G1 X82.563 Y98.123 E32.51719
G1 X82.955 Y97.321 E32.54688
G1 X84.715 Y94.388 E32.66065
G1 X87.281 Y89.633 E32.84036
G1 X89.568 Y84.753 E33.01961
G1 X90.585 Y82.325 E33.10716
G1 X90.598 Y82.288 E33.10846
G1 X91.184 Y80.825 E33.16088
G1 X91.46 Y80.243 E33.18231
G1 X91.806 Y79.699 E33.20375
G1 X92.217 Y79.203 E33.22517
M204 S5000
M205 X30 Y30
G1 F2400 E28.22517
G0 F3600 X95.335 Y83.364
G0 X96.614 Y83.364
G0 X115.33 Y84.58
G0 X115.4 Y84.65
M204 S500
M205 X20 Y20
;TYPE:WALL-INNER
G1 F2400 E33.22517
G1 F1800 X96.6 Y84.65 E33.85046
G1 X96.6 Y83.35 E33.8937
G1 X115.4 Y83.35 E34.51899
G1 X115.4 Y84.65 E34.56223
M204 S5000
M205 X30 Y30
G0 F3600 X115.8 Y85.05
M204 S500
M205 X20 Y20
;TYPE:WALL-OUTER
G1 F1800 X96.2 Y85.05 E35.21413
G1 X96.2 Y82.95 E35.28398
G1 X115.8 Y82.95 E35.93587
G1 X115.8 Y85.05 E36.00572
M204 S5000
M205 X30 Y30
G0 F3600 X115.6 Y85.05
G0 X115.33 Y84.58
G0 X115.01 Y84.26
M204 S500
M205 X20 Y20
;TYPE:SKIN
G1 F1800 X96.99 Y84.26 E36.60507
G1 X96.99 Y83.74 E36.62236
G1 X115.01 Y83.74 E37.22171
G1 X115.01 Y84.26 E37.23901
M204 S5000
M205 X30 Y30
G0 F3600 X114.789 Y83.959
G1 F1800 X114.546 Y83.999 E37.24089
G1 X114.264 Y83.999 E37.24373
G1 X113.981 Y83.999 E37.24657
G1 X113.698 Y83.999 E37.24942
G1 X113.415 Y83.999 E37.25227
G1 X113.132 Y83.999 E37.25512
G1 X112.849 Y83.999 E37.25796
G1 X112.567 Y83.999 E37.2608
G1 X112.284 Y83.999 E37.26365
G1 X112.001 Y83.999 E37.2665
G1 X111.718 Y83.999 E37.26934
G1 X111.435 Y83.999 E37.27219
G1 X111.152 Y83.999 E37.27504
G1 X110.869 Y83.999 E37.27789
G1 X110.587 Y83.999 E37.28072
G1 X110.304 Y83.999 E37.28357
G1 X110.021 Y83.999 E37.28642
G1 X109.738 Y83.999 E37.28926
G1 X109.455 Y83.999 E37.29211
G1 X109.172 Y83.999 E37.29496
G1 X108.89 Y83.999 E37.2978
G1 X108.607 Y83.999 E37.30064
G1 X108.324 Y83.999 E37.30349
G1 X108.041 Y83.999 E37.30634
G1 X107.758 Y83.999 E37.30919
G1 X107.475 Y83.999 E37.31203
G1 X107.193 Y83.999 E37.31487
G1 X106.91 Y83.999 E37.31772
G1 X106.627 Y83.999 E37.32056
G1 X106.344 Y83.999 E37.32341
G1 X106.061 Y83.999 E37.32626
G1 X105.778 Y83.999 E37.32911
G1 X105.495 Y83.999 E37.33195
G1 X105.213 Y83.999 E37.33479
G1 X104.93 Y83.999 E37.33764
G1 X104.647 Y83.999 E37.34049
G1 X104.364 Y83.999 E37.34333
G1 X104.081 Y83.999 E37.34618
G1 X103.798 Y83.999 E37.34903
G1 X103.516 Y83.999 E37.35187
G1 X103.233 Y83.999 E37.35471
G1 X102.95 Y83.999 E37.35756
G1 X102.667 Y83.999 E37.36041
G1 X102.384 Y83.999 E37.36325
G1 X102.101 Y83.999 E37.3661
G1 X101.819 Y83.999 E37.36894
G1 X101.536 Y83.999 E37.37179
G1 X101.253 Y83.999 E37.37463
G1 X100.97 Y83.999 E37.37748
G1 X100.687 Y83.999 E37.38033
G1 X100.404 Y83.999 E37.38318
G1 X100.121 Y83.999 E37.38602
G1 X99.839 Y83.999 E37.38886
G1 X99.556 Y83.999 E37.39171
G1 X99.273 Y83.999 E37.39455
G1 X98.99 Y83.999 E37.3974
G1 X98.707 Y83.999 E37.40025
G1 X98.424 Y83.999 E37.4031
G1 X98.142 Y83.999 E37.40593
G1 X97.859 Y83.999 E37.40878
G1 X97.576 Y83.999 E37.41163
G1 X97.293 Y83.999 E37.41448
G0 F3600 X97.233 Y83.939
G1 F2400 E32.41448
G0 F3600 X96.614 Y84.636
G0 X96.614 Y85.915
G0 X93.347 Y90.097
G0 X93.347 Y93.903
G0 X96.614 Y99.335
G0 X96.614 Y100.62
G0 X92.237 Y104.627
G0 X92.163 Y104.561
M204 S500
M205 X20 Y20
;TYPE:WALL-INNER
G1 F2400 E37.41448
G1 F1800 X92.485 Y104.094 E37.43334
G1 X92.686 Y103.563 E37.45223
G1 X92.754 Y103 E37.47109
G1 X92.686 Y102.437 E37.48995
G1 X92.485 Y101.906 E37.50883
G1 X92.163 Y101.439 E37.5277
G1 X91.737 Y101.062 E37.54662
G1 X91.596 Y100.988 E37.55192
G1 X91.235 Y100.799 E37.56547
G1 X90.684 Y100.663 E37.58435
G1 X90.116 Y100.663 E37.60324
G1 X89.565 Y100.799 E37.62212
G1 X89.204 Y100.988 E37.63567
G1 X89.063 Y101.062 E37.64096
G1 X88.637 Y101.439 E37.65988
G1 X88.392 Y101.794 E37.67423
G1 X88.315 Y101.906 E37.67875
G1 X88.114 Y102.437 E37.69764
G1 X88.046 Y103 E37.7165
G1 X88.114 Y103.563 E37.73536
G1 X88.315 Y104.094 E37.75424
G1 X88.392 Y104.206 E37.75876
G1 X88.637 Y104.561 E37.77311
G1 X89.063 Y104.938 E37.79203
G1 X89.565 Y105.201 E37.81088
G1 X90.116 Y105.337 E37.82976
G1 X90.684 Y105.337 E37.84865
G1 X91.235 Y105.201 E37.86752
G1 X91.737 Y104.938 E37.88637
G1 X92.163 Y104.561 E37.90529
M204 S5000
M205 X30 Y30
G0 F3600 X92.237 Y104.627
G0 X99.734 Y106.498
G0 X99.79 Y106.58
M204 S500
M205 X20 Y20
G1 F1800 X99.04 Y107.245 E37.93863
G1 X98.472 Y108.069 E37.97192
G1 X98.116 Y109.006 E38.00526
G1 X97.996 Y110 E38.03856
G1 X98.116 Y110.994 E38.07186
G1 X98.472 Y111.931 E38.1052
G1 X99.04 Y112.755 E38.13848
G1 X99.79 Y113.42 E38.17182
G1 X100.677 Y113.884 E38.20512
