;FLAVOR:Marlin
;TIME:1331
;Filament used: 1.14681m
;Layer height: 0.2
;Generated with Cura_SteamEngine 3.4.1
M190 S70
M104 S210
M109 S210
M82 ;absolute extrusion mode
G28 ;Home
G1 Z15.0 F6000 ;Move the platform down 15mm
;Prime the extruder
G92 E0
G1 F200 E3
G92 E0
G92 E0
G1 F2400 E-5
;LAYER_COUNT:63
;LAYER:0
M107
M204 S5000
M205 X30 Y30
G0 F3600 X82.4 Y64.639 Z0.2
M204 S500
M205 X20 Y20
;TYPE:SKIRT
G1 F2400 E0
G1 F1800 X82.875 Y64.105 E0.02377
G1 X83.408 Y63.627 E0.04758
G1 X83.99 Y63.212 E0.07136
G1 X84.615 Y62.864 E0.09515
G1 X85.275 Y62.588 E0.11894
G1 X85.961 Y62.387 E0.14272
G1 X86.666 Y62.264 E0.16652
G1 X87.41 Y62.221 E0.19131
G1 X132.591 Y62.222 E1.69404
G1 X133.305 Y62.262 E1.71782
G1 X134.011 Y62.381 E1.74163
G1 X134.698 Y62.579 E1.76541
G1 X135.359 Y62.852 E1.7892
G1 X135.986 Y63.197 E1.813
G1 X136.57 Y63.609 E1.83677
G1 X137.104 Y64.085 E1.86057
G1 X137.583 Y64.617 E1.88438
G1 X137.998 Y65.199 E1.90815
G1 X138.347 Y65.823 E1.93193
G1 X138.623 Y66.483 E1.95572
G1 X138.824 Y67.169 E1.9795
G1 X138.947 Y67.874 E2.0033
G1 X138.991 Y68.622 E2.02822
G1 X138.99 Y88.608 E2.69296
G1 X138.95 Y89.322 E2.71675
G1 X138.831 Y90.028 E2.74056
G1 X138.633 Y90.715 E2.76434
G1 X138.265 Y91.567 E2.79521
G1 X137.032 Y93.932 E2.88392
G1 X134.776 Y98.742 E3.06062
G1 X132.766 Y103.742 E3.23985
G1 X131.935 Y106.1 E3.32301
G1 X130.365 Y111.227 E3.50135
G1 X129.094 Y116.407 E3.67875
G1 X128.572 Y119.005 E3.76688
G1 X128.141 Y121.521 E3.85179
G1 X127.463 Y126.816 E4.02934
G1 X127.087 Y132.115 E4.20602
G1 X127 Y136.181 E4.34129
G1 X126.99 Y151.995 E4.86727
G1 X126.95 Y152.709 E4.89105
G1 X126.83 Y153.414 E4.91484
G1 X126.632 Y154.102 E4.93865
G1 X126.359 Y154.763 E4.96244
G1 X126.013 Y155.389 E4.98623
G1 X125.6 Y155.973 E5.01002
G1 X125.125 Y156.507 E5.03379
G1 X124.592 Y156.985 E5.0576
G1 X124.01 Y157.4 E5.08137
G1 X123.385 Y157.748 E5.10517
G1 X122.725 Y158.024 E5.12896
G1 X122.039 Y158.225 E5.15274
G1 X121.334 Y158.348 E5.17654
G1 X120.896 Y158.384 E5.19116
G1 X118.886 Y158.48 E5.25808
G1 X113.574 Y158.937 E5.43541
G1 X108.341 Y159.687 E5.61124
G1 X103.11 Y160.741 E5.78872
G1 X100.617 Y161.354 E5.87411
G1 X94.601 Y163.129 E6.08273
G1 X93.905 Y163.293 E6.10652
G1 X93.195 Y163.378 E6.1303
G1 X92.789 Y163.391 E6.14381
G1 X87.404 Y163.39 E6.32291
G1 X86.69 Y163.35 E6.3467
G1 X85.984 Y163.23 E6.37052
G1 X85.297 Y163.033 E6.39429
G1 X84.713 Y162.796 E6.41525
G1 X80.258 Y160.731 E6.57857
G1 X77.904 Y159.747 E6.66343
G1 X73.181 Y157.992 E6.83101
G1 X72.525 Y157.706 E6.85481
G1 X71.906 Y157.348 E6.8786
G1 X71.33 Y156.924 E6.90238
G1 X70.805 Y156.438 E6.92618
G1 X70.338 Y155.896 E6.94998
G1 X69.934 Y155.306 E6.97376
G1 X69.599 Y154.674 E6.99755
G1 X69.336 Y154.009 E7.02133
G1 X69.149 Y153.319 E7.04511
G1 X69.04 Y152.612 E7.0689
G1 X69.01 Y151.993 E7.08952
G1 X69.01 Y132.009 E7.75419
G1 X69.05 Y131.295 E7.77797
G1 X69.169 Y130.59 E7.80175
G1 X69.367 Y129.902 E7.82556
G1 X69.733 Y129.055 E7.85625
G1 X70.957 Y126.703 E7.94444
G1 X73.225 Y121.867 E8.1221
G1 X75.237 Y116.86 E8.30157
G1 X76.064 Y114.518 E8.38418
G1 X77.635 Y109.385 E8.56272
G1 X78.906 Y104.205 E8.74012
G1 X79.428 Y101.607 E8.82826
G1 X79.859 Y99.091 E8.91316
G1 X80.538 Y93.795 E9.09075
G1 X80.913 Y88.497 E9.2674
G1 X81 Y84.431 E9.40267
G1 X81.01 Y68.617 E9.92864
G1 X81.05 Y67.903 E9.95243
G1 X81.17 Y67.198 E9.97621
G1 X81.368 Y66.51 E10.00002
G1 X81.641 Y65.849 E10.02381
G1 X81.987 Y65.223 E10.0476
G1 X82.4 Y64.639 E10.07139
M204 S5000
M205 X30 Y30
G0 F3600 X82.796 Y64.785
M204 S500
M205 X20 Y20
G1 F1800 X83.269 Y64.279 E10.09443
G1 X83.797 Y63.831 E10.11746
G1 X84.373 Y63.447 E10.14048
G1 X84.989 Y63.131 E10.16351
G1 X85.638 Y62.889 E10.18655
G1 X86.31 Y62.723 E10.20957
G1 X86.997 Y62.635 E10.23261
G1 X87.41 Y62.621 E10.24635
G1 X132.591 Y62.622 E11.74908
G1 X133.283 Y62.662 E11.77213
G1 X133.965 Y62.781 E11.79516
G1 X134.629 Y62.979 E11.8182
G1 X135.265 Y63.251 E11.84121
G1 X135.866 Y63.595 E11.86424
G1 X136.424 Y64.006 E11.88729
G1 X136.93 Y64.478 E11.91031
G1 X137.379 Y65.006 E11.93336
G1 X137.764 Y65.582 E11.9564
G1 X138.079 Y66.198 E11.97942
G1 X138.322 Y66.846 E12.00243
G1 X138.489 Y67.519 E12.0255
G1 X138.577 Y68.206 E12.04853
G1 X138.591 Y68.622 E12.06238
G1 X138.59 Y88.608 E12.72711
G1 X138.55 Y89.3 E12.75017
G1 X138.431 Y89.982 E12.77319
G1 X138.233 Y90.646 E12.79624
G1 X137.91 Y91.382 E12.82297
G1 X136.682 Y93.737 E12.91131
G1 X134.405 Y98.593 E13.0897
G1 X132.395 Y103.592 E13.2689
G1 X131.547 Y105.997 E13.35372
G1 X129.98 Y111.114 E13.53171
G1 X128.7 Y116.33 E13.71034
G1 X128.185 Y118.897 E13.79742
G1 X127.744 Y121.47 E13.88425
G1 X127.064 Y126.776 E14.06217
G1 X126.687 Y132.098 E14.23962
G1 X126.6 Y136.172 E14.37516
G1 X126.59 Y151.995 E14.90143
G1 X126.55 Y152.686 E14.92445
G1 X126.43 Y153.368 E14.94749
G1 X126.232 Y154.032 E14.97053
G1 X125.959 Y154.669 E14.99358
G1 X125.615 Y155.269 E15.01659
G1 X125.204 Y155.827 E15.03964
G1 X124.731 Y156.333 E15.06267
G1 X124.203 Y156.781 E15.0857
G1 X123.627 Y157.165 E15.10873
G1 X123.011 Y157.481 E15.13176
G1 X122.362 Y157.723 E15.15479
G1 X121.69 Y157.889 E15.17782
G1 X120.877 Y157.984 E15.20504
G1 X118.886 Y158.079 E15.27134
G1 X113.518 Y158.541 E15.45054
G1 X108.277 Y159.292 E15.62663
G1 X103.032 Y160.349 E15.80459
G1 X100.515 Y160.968 E15.8908
G1 X94.488 Y162.746 E16.0998
G1 X93.813 Y162.903 E16.12285
G1 X92.789 Y162.991 E16.15703
G1 X87.404 Y162.99 E16.33614
G1 X86.713 Y162.95 E16.35916
G1 X86.03 Y162.83 E16.38223
G1 X85.367 Y162.633 E16.40523
G1 X84.881 Y162.433 E16.42271
G1 X80.423 Y160.366 E16.58615
G1 X78.049 Y159.374 E16.67172
G1 X73.32 Y157.617 E16.83951
G1 X72.686 Y157.339 E16.86254
G1 X72.088 Y156.99 E16.88557
G1 X71.534 Y156.573 E16.90863
G1 X71.033 Y156.096 E16.93164
G1 X70.589 Y155.565 E16.95466
G1 X70.209 Y154.985 E16.97772
G1 X69.899 Y154.366 E17.00075
G1 X69.662 Y153.715 E17.02379
G1 X69.502 Y153.042 E17.0468
G1 X69.421 Y152.354 E17.06984
G1 X69.41 Y151.993 E17.08185
G1 X69.41 Y132.009 E17.74652
G1 X69.45 Y131.318 E17.76954
G1 X69.569 Y130.635 E17.7926
G1 X69.767 Y129.972 E17.81562
G1 X70.088 Y129.239 E17.84223
G1 X71.317 Y126.878 E17.93076
G1 X73.598 Y122.014 E18.10944
G1 X75.604 Y117.022 E18.28838
G1 X76.451 Y114.62 E18.3731
G1 X78.02 Y109.498 E18.55127
G1 X79.3 Y104.282 E18.7299
G1 X79.815 Y101.715 E18.81698
G1 X80.256 Y99.142 E18.90381
G1 X80.936 Y93.836 E19.08173
G1 X81.313 Y88.514 E19.25918
G1 X81.4 Y84.44 E19.39471
G1 X81.41 Y68.617 E19.92099
G1 X81.45 Y67.926 E19.94401
G1 X81.57 Y67.244 E19.96704
G1 X81.768 Y66.58 E19.99009
G1 X82.041 Y65.943 E20.01314
G1 X82.385 Y65.343 E20.03614
G1 X82.796 Y64.785 E20.05919
M204 S5000
M205 X30 Y30
G0 F3600 X83.192 Y64.937
M204 S500
M205 X20 Y20
G1 F1800 X83.661 Y64.461 E20.08142
G1 X84.184 Y64.043 E20.10369
G1 X84.753 Y63.691 E20.12594
G1 X85.36 Y63.41 E20.14819
G1 X85.996 Y63.202 E20.17044
G1 X86.653 Y63.072 E20.19272
G1 X87.41 Y63.021 E20.21795
G1 X132.591 Y63.022 E21.72068
G1 X133.259 Y63.062 E21.74294
G1 X133.917 Y63.181 E21.76518
G1 X134.557 Y63.378 E21.78745
G1 X135.168 Y63.65 E21.80969
G1 X135.742 Y63.993 E21.83193
G1 X136.272 Y64.402 E21.8542
G1 X136.749 Y64.871 E21.87645
G1 X137.167 Y65.394 E21.89872
G1 X137.519 Y65.962 E21.92094
G1 X137.801 Y66.569 E21.9432
G1 X138.009 Y67.205 E21.96546
G1 X138.139 Y67.861 E21.9877
G1 X138.191 Y68.622 E22.01307
G1 X138.19 Y88.608 E22.67781
G1 X138.15 Y89.276 E22.70007
G1 X138.031 Y89.934 E22.72231
G1 X137.834 Y90.574 E22.74458
G1 X137.555 Y91.197 E22.76728
G1 X136.327 Y93.552 E22.85562
G1 X134.039 Y98.431 E23.03485
G1 X132.021 Y103.45 E23.21478
G1 X131.169 Y105.866 E23.29998
G1 X129.595 Y111.007 E23.47881
G1 X128.309 Y116.248 E23.65829
G1 X127.792 Y118.823 E23.74565
G1 X127.35 Y121.401 E23.83264
G1 X126.665 Y126.749 E24.01197
G1 X126.287 Y132.082 E24.18979
G1 X126.2 Y136.163 E24.32556
G1 X126.19 Y151.995 E24.85213
G1 X126.15 Y152.662 E24.87436
G1 X126.03 Y153.321 E24.89664
G1 X125.832 Y153.96 E24.91889
G1 X125.56 Y154.571 E24.94113
G1 X125.217 Y155.145 E24.96337
G1 X124.808 Y155.675 E24.98564
G1 X124.339 Y156.151 E25.00786
G1 X123.816 Y156.569 E25.03013
G1 X123.247 Y156.921 E25.05239
G1 X122.64 Y157.202 E25.07463
G1 X122.004 Y157.41 E25.09689
G1 X121.347 Y157.54 E25.11916
G1 X120.857 Y157.585 E25.13553
G1 X118.832 Y157.682 E25.20296
G1 X113.48 Y158.142 E25.38162
G1 X108.209 Y158.898 E25.55873
G1 X102.931 Y159.961 E25.7378
G1 X100.419 Y160.579 E25.82385
G1 X94.375 Y162.362 E26.03343
G1 X93.723 Y162.513 E26.05569
G1 X92.789 Y162.591 E26.08687
G1 X87.404 Y162.59 E26.26597
G1 X86.736 Y162.55 E26.28823
G1 X86.078 Y162.43 E26.31048
G1 X85.439 Y162.233 E26.33272
G1 X85.05 Y162.071 E26.34673
G1 X80.567 Y159.993 E26.51108
G1 X78.202 Y159.005 E26.59633
G1 X73.459 Y157.242 E26.76462
G1 X72.847 Y156.972 E26.78687
G1 X72.272 Y156.631 E26.80911
G1 X71.741 Y156.224 E26.83136
G1 X71.263 Y155.756 E26.85361
G1 X70.844 Y155.235 E26.87585
G1 X70.49 Y154.667 E26.89811
G1 X70.206 Y154.061 E26.92037
G1 X69.996 Y153.426 E26.94261
G1 X69.864 Y152.77 E26.96487
G1 X69.81 Y151.993 E26.99077
G1 X69.81 Y132.009 E27.65544
G1 X69.85 Y131.341 E27.6777
G1 X69.969 Y130.683 E27.69994
G1 X70.166 Y130.043 E27.72221
G1 X70.442 Y129.424 E27.74475
G1 X71.68 Y127.045 E27.83395
G1 X73.964 Y122.176 E28.01283
G1 X75.978 Y117.164 E28.19248
G1 X76.829 Y114.751 E28.27759
G1 X78.405 Y109.605 E28.45659
G1 X79.691 Y104.364 E28.63608
G1 X80.208 Y101.789 E28.72343
G1 X80.65 Y99.211 E28.81043
G1 X81.335 Y93.863 E28.98975
G1 X81.713 Y88.53 E29.16758
G1 X81.8 Y84.449 E29.30334
G1 X81.81 Y68.617 E29.82992
G1 X81.85 Y67.95 E29.85214
G1 X81.97 Y67.291 E29.87442
G1 X82.168 Y66.652 E29.89667
G1 X82.44 Y66.041 E29.91891
G1 X82.783 Y65.467 E29.94115
G1 X83.192 Y64.937 E29.96342
M204 S5000
M205 X30 Y30
G0 F3600 X83.181 Y65.596
M204 S500
M205 X20 Y20
G1 F1800 X83.587 Y65.096 E29.98484
G1 X84.053 Y64.65 E30.0063
G1 X84.57 Y64.265 E30.02774
G1 X85.131 Y63.947 E30.04918
G1 X85.727 Y63.701 E30.07063
G1 X86.349 Y63.53 E30.09208
G1 X86.987 Y63.438 E30.11352
G1 X87.41 Y63.421 E30.1276
G1 X132.591 Y63.422 E31.63033
G1 X133.235 Y63.462 E31.65179
G1 X133.868 Y63.581 E31.67321
G1 X134.482 Y63.778 E31.69466
G1 X135.067 Y64.049 E31.7161
G1 X135.614 Y64.391 E31.73756
G1 X136.114 Y64.797 E31.75898
G1 X136.56 Y65.263 E31.78044
G1 X136.945 Y65.78 E31.80188
G1 X137.264 Y66.34 E31.82331
G1 X137.51 Y66.936 E31.84476
G1 X137.681 Y67.557 E31.86618
G1 X137.773 Y68.195 E31.88762
G1 X137.791 Y68.622 E31.90184
G1 X137.79 Y88.608 E32.56657
G1 X137.75 Y89.252 E32.58803
G1 X137.631 Y89.885 E32.60946
G1 X137.434 Y90.499 E32.6309
G1 X137.201 Y91.012 E32.64964
G1 X135.964 Y93.385 E32.73865
G1 X133.673 Y98.27 E32.91811
G1 X131.639 Y103.329 E33.09946
G1 X130.791 Y105.735 E33.18431
G1 X129.208 Y110.904 E33.36411
G1 X127.923 Y116.143 E33.54353
G1 X127.392 Y118.781 E33.63303
G1 X126.956 Y121.329 E33.719
G1 X126.267 Y126.704 E33.89924
G1 X125.887 Y132.066 E34.07803
G1 X125.8 Y136.154 E34.21403
G1 X125.79 Y151.994 E34.74087
G1 X125.75 Y152.638 E34.76233
G1 X125.63 Y153.271 E34.78376
G1 X125.433 Y153.885 E34.8052
G1 X125.161 Y154.47 E34.82666
G1 X124.819 Y155.016 E34.84809
G1 X124.413 Y155.516 E34.86951
G1 X123.947 Y155.962 E34.89097
G1 X123.43 Y156.347 E34.91241
G1 X122.869 Y156.665 E34.93385
G1 X122.273 Y156.911 E34.9553
G1 X121.651 Y157.082 E34.97675
G1 X120.838 Y157.185 E35.00401
G1 X118.832 Y157.281 E35.07081
G1 X113.423 Y157.746 E35.25137
G1 X108.127 Y158.505 E35.42932
G1 X102.877 Y159.563 E35.60745
G1 X100.292 Y160.199 E35.69599
G1 X94.261 Y161.978 E35.90512
G1 X93.633 Y162.122 E35.92655
G1 X92.789 Y162.191 E35.95472
G1 X87.404 Y162.19 E36.13382
G1 X86.761 Y162.15 E36.15525
G1 X86.127 Y162.031 E36.17671
G1 X85.218 Y161.708 E36.20879
G1 X80.731 Y159.628 E36.37329
G1 X78.339 Y158.628 E36.45952
G1 X73.599 Y156.867 E36.6277
G1 X73.01 Y156.606 E36.64913
G1 X72.457 Y156.273 E36.6706
G1 X71.95 Y155.875 E36.69203
G1 X71.497 Y155.417 E36.71346
G1 X71.103 Y154.907 E36.73489
G1 X70.775 Y154.351 E36.75637
G1 X70.519 Y153.76 E36.77779
G1 X70.338 Y153.141 E36.79924
G1 X70.235 Y152.505 E36.82067
G1 X70.21 Y151.993 E36.83772
G1 X70.21 Y132.009 E37.50239
G1 X70.25 Y131.366 E37.52381
G1 X70.369 Y130.732 E37.54527
G1 X70.566 Y130.118 E37.56672
G1 X70.797 Y129.608 E37.58534
G1 X72.04 Y127.22 E37.67488
G1 X74.33 Y122.338 E37.85423
G1 X76.352 Y117.305 E38.03463
G1 X77.214 Y114.861 E38.12083
G1 X78.792 Y109.708 E38.30007
G1 X80.077 Y104.469 E38.47949
G1 X80.608 Y101.831 E38.56899
G1 X81.044 Y99.283 E38.65497
G1 X81.733 Y93.908 E38.8352
G1 X82.113 Y88.546 E39.01399
G1 X82.2 Y84.458 E39.14999
G1 X82.21 Y68.618 E39.67683
G1 X82.25 Y67.974 E39.69829
G1 X82.37 Y67.341 E39.71972
G1 X82.567 Y66.727 E39.74117
G1 X82.839 Y66.142 E39.76262
G1 X83.181 Y65.596 E39.78405
M204 S5000
M205 X30 Y30
G1 F2400 E34.78405
G0 F3600 X86.735 Y69.226
G0 X88.014 Y69.226
G0 X89.006 Y69.591
G0 X89.062 Y69.673
M204 S500
M205 X20 Y20
;TYPE:WALL-INNER
G1 F2400 E39.78405
G1 F1800 X88.638 Y70.05 E39.80292
G1 X88.392 Y70.406 E39.81732
G1 X88.316 Y70.516 E39.82176
G1 X88.114 Y71.048 E39.84069
G1 X88.047 Y71.611 E39.85955
G1 X88.114 Y72.174 E39.87841
G1 X88.316 Y72.706 E39.89733
G1 X88.392 Y72.816 E39.90178
G1 X88.638 Y73.172 E39.91617
G1 X89.062 Y73.549 E39.93504
G1 X89.566 Y73.812 E39.95395
G1 X90.116 Y73.948 E39.97279
G1 X90.684 Y73.948 E39.99169
G1 X91.234 Y73.812 E40.01053
G1 X91.738 Y73.549 E40.02944
G1 X92.162 Y73.172 E40.04831
G1 X92.484 Y72.706 E40.06715
G1 X92.686 Y72.174 E40.08608
G1 X92.753 Y71.611 E40.10493
G1 X92.686 Y71.048 E40.12379
G1 X92.484 Y70.516 E40.14272
G1 X92.162 Y70.05 E40.16156
G1 X91.738 Y69.673 E40.18043
G1 X91.598 Y69.6 E40.18568
G1 X91.234 Y69.41 E40.19934
G1 X90.684 Y69.274 E40.21818
G1 X90.116 Y69.274 E40.23707
G1 X89.566 Y69.41 E40.25592
G1 X89.202 Y69.6 E40.26957
G1 X89.062 Y69.673 E40.27482
M204 S5000
M205 X30 Y30
G0 F3600 X89.006 Y69.591
G0 X88.609 Y70.024
G0 X88.281 Y70.498
G0 X88.076 Y71.039
G0 X88.007 Y71.611
G0 X88.076 Y72.183
G0 X92.721 Y85.046
G0 X92.791 Y85.617
G0 X92.721 Y86.188
G0 X92.664 Y86.34
G0 X92.235 Y87.243
G0 X92.161 Y87.177
M204 S500
M205 X20 Y20
G1 F1800 X92.482 Y86.709 E40.2937
G1 X92.683 Y86.179 E40.31255
G1 X92.751 Y85.617 E40.33138
G1 X92.683 Y85.055 E40.35021
G1 X92.482 Y84.524 E40.36909
G1 X92.16 Y84.057 E40.38796
G1 X91.734 Y83.682 E40.40684
G1 X91.234 Y83.419 E40.42563
G1 X90.684 Y83.283 E40.44447
G1 X90.116 Y83.283 E40.46336
G1 X89.566 Y83.419 E40.48221
G1 X89.066 Y83.682 E40.501
G1 X88.64 Y84.057 E40.51987
G1 X88.392 Y84.417 E40.53441
G1 X88.318 Y84.524 E40.53874
G1 X88.117 Y85.055 E40.55762
G1 X88.049 Y85.617 E40.57645
G1 X88.117 Y86.179 E40.59528
G1 X88.318 Y86.709 E40.61413
G1 X88.392 Y86.817 E40.61849
G1 X88.639 Y87.177 E40.63301
G1 X89.066 Y87.553 E40.65193
G1 X89.2 Y87.624 E40.65698
G1 X89.566 Y87.816 E40.67072
G1 X90.116 Y87.952 E40.68957
G1 X90.684 Y87.952 E40.70846
G1 X91.234 Y87.816 E40.7273
G1 X91.6 Y87.624 E40.74105
G1 X91.734 Y87.553 E40.74609
G1 X92.161 Y87.177 E40.76502
M204 S5000
M205 X30 Y30
G0 F3600 X92.235 Y87.243
G0 X115.433 Y82.114
G0 X115.489 Y82.032
M204 S500
M205 X20 Y20
G1 F1800 X116.377 Y82.497 E40.79836
G1 X117.349 Y82.737 E40.83166
G1 X118.351 Y82.737 E40.86498
G1 X119.323 Y82.497 E40.89828
G1 X120.211 Y82.032 E40.93162
G1 X120.96 Y81.367 E40.96494
G1 X121.528 Y80.543 E40.99822
G1 X121.884 Y79.606 E41.03156
G1 X122.004 Y78.612 E41.06486
G1 X121.884 Y77.619 E41.09813
G1 X121.528 Y76.682 E41.13147
G1 X120.96 Y75.857 E41.16478
G1 X120.21 Y75.193 E41.1981
G1 X119.323 Y74.728 E41.23141
G1 X118.351 Y74.488 E41.26471
G1 X117.349 Y74.488 E41.29803
G1 X116.377 Y74.728 E41.33133
G1 X115.49 Y75.193 E41.36464
