;FLAVOR:Marlin
;TIME:17052
;Filament used: 18.2818m
;Layer height: 0.25
;POSTPROCESSED
;Generated with Cura_SteamEngine 3.4.1
M190 S60
M104 S200
M109 S200
M82 ;absolute extrusion mode
; Pefix G-Code for most 200mm x 200mm 3D printers by www.DIY3DTech.com to clean nozzle
; Place as start G-Code in Slicer
; Use of this code is at your own risk (no warranties made or implied)
;
M117 Clean ; Indicate nozzle clean in progress on LCD
M107 ; Turn layer fan off
G21 ; Set to metric [change to G20 if you want Imperial]
G90                          ; Force coordinates to be absolute relative to the origin
G28                          ; Home X/Y/Z axis
G0 X1 Y0 Z0.15 F9000         ; Move in 1mm from edge and up [z] 0.15mm
G92 E0                       ; Set extruder to [0] zero
G1 Y190 E50 F500             ; Extrude 100mm filiment along Y axis 190mm long to prime and clean the nozzle
G92 E0                       ; Reset extruder to [0] zero end of cleaning run
G1 E-3 F500                  ; Retract filiment by 3 mm to reduce string effect
G1 X3 Y190 Z15 F9000      ; Move over and rise to safe Z height
G1 X3 Y0 Z15 F9000 ; Move back to front of bed at safe Z height to shear strings
;
; Ensure extruder is not reset by other code or it will be 3mm short [see next line also]
;G1 E3 F500 ; Uncomment if you believe exruder will be reset
; Recommend turning off SKIRT in the slicer to avoid strings pulled into first layer
M117 Printing ; Indicate printing on LCD
; Begin printing with sliced GCode after here
G92 E0
G1 F2400 E-5
;LAYER_COUNT:29
;LAYER:0
M107
M204 S5000
M205 X30 Y30
G0 F7200 X38.471 Y42.496 Z0.25
M204 S500
M205 X20 Y20
;TYPE:SKIRT
G1 F2400 E0
G1 F900 X39.003 Y42.017 E0.03125
G1 X39.585 Y41.602 E0.06245
G1 X40.21 Y41.253 E0.0937
G1 X40.87 Y40.977 E0.12493
G1 X41.556 Y40.776 E0.15614
G1 X42.261 Y40.653 E0.18738
G1 X43.009 Y40.609 E0.22009
G1 X186.991 Y40.61 E6.50547
G1 X187.705 Y40.65 E6.53669
G1 X188.41 Y40.769 E6.5679
G1 X189.098 Y40.967 E6.59915
G1 X189.759 Y41.24 E6.63037
G1 X190.386 Y41.584 E6.66159
G1 X190.97 Y41.997 E6.69282
G1 X191.504 Y42.472 E6.72401
G1 X191.983 Y43.004 E6.75526
G1 X192.398 Y43.586 E6.78647
G1 X192.747 Y44.211 E6.81772
G1 X193.023 Y44.871 E6.84895
G1 X193.224 Y45.557 E6.88015
G1 X193.347 Y46.262 E6.91139
G1 X193.391 Y47.01 E6.9441
G1 X193.39 Y182.995 E12.88038
G1 X193.35 Y183.709 E12.9116
G1 X193.231 Y184.414 E12.94281
G1 X193.033 Y185.102 E12.97406
G1 X192.76 Y185.763 E13.00528
G1 X192.415 Y186.39 E13.03652
G1 X192.003 Y186.974 E13.06772
G1 X191.528 Y187.508 E13.09892
G1 X190.996 Y187.987 E13.13017
G1 X190.415 Y188.402 E13.16134
G1 X185.417 Y191.568 E13.41962
G1 X181.145 Y194.639 E13.64929
G1 X177.005 Y197.975 E13.88139
G1 X176.423 Y198.391 E13.91262
G1 X175.799 Y198.741 E13.94385
G1 X175.14 Y199.019 E13.97508
G1 X174.454 Y199.221 E14.00629
G1 X173.75 Y199.346 E14.03751
G1 X172.989 Y199.391 E14.07079
G1 X43.009 Y199.391 E19.74492
G1 X42.295 Y199.351 E19.77614
G1 X41.59 Y199.232 E19.80735
G1 X40.902 Y199.034 E19.8386
G1 X40.241 Y198.761 E19.86982
G1 X39.614 Y198.417 E19.90104
G1 X39.03 Y198.004 E19.93227
G1 X38.496 Y197.529 E19.96347
G1 X38.017 Y196.997 E19.99472
G1 X37.602 Y196.415 E20.02592
G1 X37.253 Y195.79 E20.05717
G1 X36.977 Y195.13 E20.0884
G1 X36.776 Y194.444 E20.11961
G1 X36.653 Y193.739 E20.15085
G1 X36.609 Y192.991 E20.18356
G1 X36.609 Y47.009 E26.55624
G1 X36.649 Y46.295 E26.58746
G1 X36.768 Y45.59 E26.61867
G1 X36.966 Y44.902 E26.64993
G1 X37.239 Y44.241 E26.68115
G1 X37.583 Y43.614 E26.71237
G1 X37.996 Y43.03 E26.74359
G1 X38.471 Y42.496 E26.77479
M204 S5000
M205 X30 Y30
G0 F7200 X38.865 Y42.67
M204 S500
M205 X20 Y20
G1 F900 X39.393 Y42.221 E26.80505
G1 X39.968 Y41.836 E26.83525
G1 X40.585 Y41.521 E26.8655
G1 X41.233 Y41.278 E26.89571
G1 X41.906 Y41.111 E26.92598
G1 X42.592 Y41.023 E26.95617
G1 X43.009 Y41.009 E26.97438
G1 X186.991 Y41.01 E33.25976
G1 X187.682 Y41.05 E33.28998
G1 X188.365 Y41.169 E33.32024
G1 X189.028 Y41.367 E33.35045
G1 X189.665 Y41.639 E33.38069
G1 X190.266 Y41.983 E33.41092
G1 X190.824 Y42.394 E33.44117
G1 X191.33 Y42.866 E33.47138
G1 X191.779 Y43.394 E33.50163
G1 X192.164 Y43.969 E33.53184
G1 X192.479 Y44.586 E33.56208
G1 X192.722 Y45.234 E33.59229
G1 X192.889 Y45.907 E33.62256
G1 X192.977 Y46.594 E33.6528
G1 X192.991 Y47.01 E33.67097
G1 X192.99 Y182.995 E39.60725
G1 X192.95 Y183.686 E39.63746
G1 X192.831 Y184.369 E39.66773
G1 X192.633 Y185.032 E39.69793
G1 X192.361 Y185.669 E39.72817
G1 X192.017 Y186.27 E39.7584
G1 X191.606 Y186.828 E39.78865
G1 X191.134 Y187.334 E39.81886
G1 X190.606 Y187.783 E39.84912
G1 X190.201 Y188.064 E39.87064
G1 X185.199 Y191.233 E40.12913
G1 X180.891 Y194.329 E40.36071
G1 X176.754 Y197.663 E40.59266
G1 X176.19 Y198.066 E40.62292
G1 X175.584 Y198.401 E40.65315
G1 X174.943 Y198.664 E40.68339
G1 X174.277 Y198.851 E40.71359
G1 X173.593 Y198.961 E40.74383
G1 X172.989 Y198.991 E40.77023
G1 X43.009 Y198.991 E46.44437
G1 X42.318 Y198.951 E46.47458
G1 X41.635 Y198.832 E46.50485
G1 X40.972 Y198.634 E46.53505
G1 X40.335 Y198.362 E46.56529
G1 X39.734 Y198.018 E46.59552
G1 X39.176 Y197.607 E46.62577
G1 X38.67 Y197.135 E46.65598
G1 X38.221 Y196.607 E46.68624
G1 X37.836 Y196.032 E46.71645
G1 X37.521 Y195.415 E46.74669
G1 X37.278 Y194.767 E46.7769
G1 X37.111 Y194.094 E46.80717
G1 X37.023 Y193.408 E46.83736
G1 X37.009 Y192.991 E46.85558
G1 X37.009 Y47.009 E53.22826
G1 X37.049 Y46.318 E53.25848
G1 X37.168 Y45.635 E53.28874
G1 X37.366 Y44.972 E53.31895
G1 X37.638 Y44.335 E53.34919
G1 X37.982 Y43.734 E53.37941
G1 X38.393 Y43.176 E53.40967
G1 X38.865 Y42.67 E53.43988
M204 S5000
M205 X30 Y30
G0 F7200 X39.258 Y42.851
M204 S500
M205 X20 Y20
G1 F900 X39.78 Y42.433 E53.46907
G1 X40.349 Y42.081 E53.49828
G1 X40.956 Y41.799 E53.52749
G1 X41.592 Y41.591 E53.5567
G1 X42.248 Y41.461 E53.5859
G1 X43.009 Y41.409 E53.6192
G1 X186.991 Y41.41 E59.90458
G1 X187.659 Y41.45 E59.93379
G1 X188.317 Y41.569 E59.96298
G1 X188.957 Y41.766 E59.99221
G1 X189.568 Y42.038 E60.02141
G1 X190.142 Y42.381 E60.0506
G1 X190.672 Y42.79 E60.07982
G1 X191.149 Y43.259 E60.10903
G1 X191.567 Y43.781 E60.13822
G1 X191.919 Y44.35 E60.16743
G1 X192.201 Y44.957 E60.19664
G1 X192.409 Y45.593 E60.22586
G1 X192.539 Y46.249 E60.25505
G1 X192.591 Y47.01 E60.28835
G1 X192.59 Y182.995 E66.22463
G1 X192.55 Y183.663 E66.25384
G1 X192.431 Y184.321 E66.28303
G1 X192.234 Y184.961 E66.31226
G1 X191.962 Y185.572 E66.34146
G1 X191.619 Y186.146 E66.37065
G1 X191.21 Y186.676 E66.39987
G1 X190.741 Y187.153 E66.42908
G1 X189.987 Y187.726 E66.47042
G1 X184.977 Y190.899 E66.7293
G1 X180.652 Y194.009 E66.96184
G1 X176.503 Y197.352 E67.19444
G1 X175.958 Y197.739 E67.22362
G1 X175.37 Y198.06 E67.25286
G1 X174.749 Y198.307 E67.28204
G1 X174.102 Y198.479 E67.31126
G1 X173.44 Y198.573 E67.34045
G1 X172.989 Y198.591 E67.36016
G1 X43.009 Y198.591 E73.03429
G1 X42.341 Y198.551 E73.06351
G1 X41.683 Y198.432 E73.0927
G1 X41.043 Y198.235 E73.12193
G1 X40.432 Y197.963 E73.15113
G1 X39.858 Y197.62 E73.18032
G1 X39.328 Y197.211 E73.20954
G1 X38.851 Y196.742 E73.23874
G1 X38.433 Y196.22 E73.26794
G1 X38.081 Y195.651 E73.29714
G1 X37.799 Y195.044 E73.32636
G1 X37.591 Y194.408 E73.35557
G1 X37.461 Y193.752 E73.38477
G1 X37.409 Y192.991 E73.41806
G1 X37.409 Y47.009 E79.79075
G1 X37.449 Y46.341 E79.81997
G1 X37.568 Y45.683 E79.84916
G1 X37.765 Y45.043 E79.87839
G1 X38.037 Y44.432 E79.90758
G1 X38.38 Y43.858 E79.93677
G1 X38.789 Y43.328 E79.966
G1 X39.258 Y42.851 E79.9952
M204 S5000
M205 X30 Y30
G0 F7200 X39.184 Y43.486
M204 S500
M205 X20 Y20
G1 F900 X39.649 Y43.04 E80.02333
G1 X40.166 Y42.655 E80.05147
G1 X40.727 Y42.336 E80.07964
G1 X41.323 Y42.09 E80.10779
G1 X41.944 Y41.919 E80.1359
G1 X42.582 Y41.827 E80.16404
G1 X43.009 Y41.809 E80.1827
G1 X186.991 Y41.81 E86.46808
G1 X187.634 Y41.85 E86.4962
G1 X188.268 Y41.969 E86.52436
G1 X188.882 Y42.166 E86.55251
G1 X189.467 Y42.437 E86.58066
G1 X190.014 Y42.779 E86.60882
G1 X190.514 Y43.185 E86.63694
G1 X190.96 Y43.651 E86.66509
G1 X191.345 Y44.167 E86.6932
G1 X191.664 Y44.728 E86.72137
G1 X191.91 Y45.324 E86.74952
G1 X192.081 Y45.945 E86.77764
G1 X192.173 Y46.583 E86.80578
G1 X192.191 Y47.01 E86.82443
G1 X192.19 Y182.995 E92.76071
G1 X192.15 Y183.638 E92.78884
G1 X192.031 Y184.272 E92.817
G1 X191.834 Y184.886 E92.84514
G1 X191.563 Y185.471 E92.87329
G1 X191.221 Y186.018 E92.90145
G1 X190.815 Y186.518 E92.92957
G1 X190.349 Y186.964 E92.95773
G1 X189.773 Y187.388 E92.98895
G1 X184.747 Y190.572 E93.24867
G1 X180.41 Y193.689 E93.48183
G1 X176.252 Y197.04 E93.71495
G1 X175.726 Y197.413 E93.7431
G1 X175.157 Y197.717 E93.77126
G1 X174.556 Y197.949 E93.79938
G1 X173.93 Y198.105 E93.82755
G1 X172.989 Y198.191 E93.8688
G1 X43.009 Y198.191 E99.54293
G1 X42.366 Y198.151 E99.57106
G1 X41.732 Y198.032 E99.59922
G1 X41.118 Y197.835 E99.62737
G1 X40.533 Y197.564 E99.65551
G1 X39.986 Y197.222 E99.68367
G1 X39.486 Y196.816 E99.71179
G1 X39.04 Y196.351 E99.73992
G1 X38.655 Y195.834 E99.76805
G1 X38.336 Y195.273 E99.79623
G1 X38.09 Y194.677 E99.82437
G1 X37.919 Y194.056 E99.85249
G1 X37.827 Y193.418 E99.88063
G1 X37.809 Y192.991 E99.89929
G1 X37.809 Y47.009 E106.27198
G1 X37.849 Y46.366 E106.3001
G1 X37.968 Y45.732 E106.32826
G1 X38.165 Y45.118 E106.35641
G1 X38.436 Y44.533 E106.38455
G1 X38.778 Y43.986 E106.41272
G1 X39.184 Y43.486 E106.44083
M204 S5000
M205 X30 Y30
G1 F2400 E101.44083
G0 F7200 X42.335 Y47.614
G0 X43.614 Y47.614
G0 X74.628 Y61.372
G0 X74.627 Y78.319
G0 X94.33 Y104.33
G0 X94.4 Y104.4
M204 S500
M205 X20 Y20
;TYPE:WALL-INNER
G1 F2400 E106.44083
G1 F900 X94.4 Y180.6 E109.76726
G1 X101.6 Y180.6 E110.08157
G1 X101.6 Y104.4 E113.408
G1 X94.4 Y104.4 E113.72231
M204 S5000
M205 X30 Y30
G0 F7200 X94.8 Y104.8
M204 S500
M205 X20 Y20
;TYPE:WALL-OUTER
G1 F900 X94.8 Y180.2 E117.01381
G1 X101.2 Y180.2 E117.2932
G1 X101.2 Y104.8 E120.5847
G1 X94.8 Y104.8 E120.86409
M204 S5000
M205 X30 Y30
G0 F7200 X94.8 Y105
G0 X94.36 Y105
G0 X94.3 Y105
G0 X89.628 Y104.372
G0 X82.33 Y104.33
G0 X82.4 Y104.4
M204 S500
M205 X20 Y20
;TYPE:WALL-INNER
G1 F900 X82.4 Y180.6 E124.19052
G1 X89.6 Y180.6 E124.50483
G1 X89.6 Y104.4 E127.83126
G1 X82.4 Y104.4 E128.14556
M204 S5000
M205 X30 Y30
G0 F7200 X82.8 Y104.8
M204 S500
M205 X20 Y20
;TYPE:WALL-OUTER
G1 F900 X82.8 Y180.2 E131.43707
G1 X89.2 Y180.2 E131.71646
G1 X89.2 Y104.8 E135.00796
G1 X82.8 Y104.8 E135.28735
M204 S5000
M205 X30 Y30
G0 F7200 X82.8 Y105
G0 X82.36 Y105
G0 X82.3 Y105
G0 X77.628 Y104.372
G0 X70.33 Y104.33
G0 X70.4 Y104.4
M204 S500
M205 X20 Y20
;TYPE:WALL-INNER
G1 F900 X70.4 Y180.6 E138.61378
G1 X77.6 Y180.6 E138.92808
G1 X77.6 Y104.4 E142.25451
G1 X70.4 Y104.4 E142.56882
M204 S5000
M205 X30 Y30
G0 F7200 X70.8 Y104.8
M204 S500
M205 X20 Y20
;TYPE:WALL-OUTER
G1 F900 X70.8 Y180.2 E145.86033
G1 X77.2 Y180.2 E146.13971
G1 X77.2 Y104.8 E149.43122
G1 X70.8 Y104.8 E149.7106
M204 S5000
M205 X30 Y30
G0 F7200 X70.8 Y105
G0 X70.36 Y105
G0 X70.3 Y105
G0 X65.628 Y104.372
G0 X58.33 Y104.33
G0 X58.4 Y104.4
M204 S500
M205 X20 Y20
;TYPE:WALL-INNER
G1 F900 X58.4 Y180.6 E153.03703
G1 X65.6 Y180.6 E153.35134
G1 X65.6 Y104.4 E156.67777
G1 X58.4 Y104.4 E156.99208
M204 S5000
M205 X30 Y30
G0 F7200 X58.8 Y104.8
M204 S500
M205 X20 Y20
;TYPE:WALL-OUTER
G1 F900 X58.8 Y180.2 E160.28359
G1 X65.2 Y180.2 E160.56297
G1 X65.2 Y104.8 E163.85448
G1 X58.8 Y104.8 E164.13386
M204 S5000
M205 X30 Y30
G0 F7200 X58.8 Y105
G0 X58.36 Y105
G0 X58.3 Y105
G0 X53.372 Y82.628
G0 X53.33 Y61.33
G0 X53.4 Y61.4
M204 S500
M205 X20 Y20
;TYPE:WALL-INNER
G1 F900 X53.4 Y82.6 E165.05933
G1 X74.6 Y82.6 E165.98479
G1 X74.6 Y61.4 E166.91025
G1 X53.4 Y61.4 E167.83572
M204 S5000
M205 X30 Y30
G0 F7200 X53.8 Y61.8
M204 S500
M205 X20 Y20
;TYPE:WALL-OUTER
G1 F900 X53.8 Y82.2 E168.72626
G1 X74.2 Y82.2 E169.6168
G1 X74.2 Y61.8 E170.50734
G1 X53.8 Y61.8 E171.39788
M204 S5000
M205 X30 Y30
G0 F7200 X53.8 Y62
G0 X53.36 Y62
G0 X53.3 Y62
G0 X53.372 Y61.372
G0 X79.33 Y61.33
G0 X79.4 Y61.4
M204 S500
M205 X20 Y20
;TYPE:WALL-INNER
G1 F900 X79.4 Y82.6 E172.32334
G1 X100.6 Y82.6 E173.2488
G1 X100.6 Y61.4 E174.17427
G1 X79.4 Y61.4 E175.09973
M204 S5000
M205 X30 Y30
G0 F7200 X79.8 Y61.8
M204 S500
M205 X20 Y20
;TYPE:WALL-OUTER
G1 F900 X79.8 Y82.2 E175.99027
G1 X100.2 Y82.2 E176.88081
G1 X100.2 Y61.8 E177.77135
G1 X79.8 Y61.8 E178.66189
M204 S5000
M205 X30 Y30
G0 F7200 X79.8 Y62
G0 X79.36 Y62
G0 X79.3 Y62
G0 X79.372 Y61.372
G0 X105.33 Y61.33
G0 X105.4 Y61.4
M204 S500
M205 X20 Y20
;TYPE:WALL-INNER
G1 F900 X105.4 Y82.6 E179.58735
G1 X126.6 Y82.6 E180.51282
G1 X126.6 Y61.4 E181.43828
G1 X105.4 Y61.4 E182.36374
M204 S5000
M205 X30 Y30
G0 F7200 X105.8 Y61.8
M204 S500
M205 X20 Y20
;TYPE:WALL-OUTER
G1 F900 X105.8 Y82.2 E183.25428
G1 X126.2 Y82.2 E184.14482
G1 X126.2 Y61.8 E185.03536
G1 X105.8 Y61.8 E185.9259
M204 S5000
M205 X30 Y30
G0 F7200 X105.8 Y62
G0 X105.36 Y62
G0 X105.3 Y62
G0 X105.372 Y61.372
G0 X138.33 Y61.33
G0 X138.4 Y61.4
M204 S500
M205 X20 Y20
;TYPE:WALL-INNER
G1 F900 X138.4 Y82.6 E186.85137
G1 X159.6 Y82.6 E187.77683
G1 X159.6 Y61.4 E188.70229
G1 X138.4 Y61.4 E189.62776
M204 S5000
M205 X30 Y30
G0 F7200 X138.8 Y61.8
M204 S500
M205 X20 Y20
;TYPE:WALL-OUTER
G1 F900 X138.8 Y82.2 E190.5183
G1 X159.2 Y82.2 E191.40884
G1 X159.2 Y61.8 E192.29938
G1 X138.8 Y61.8 E193.18992
M204 S5000
M205 X30 Y30
G0 F7200 X138.8 Y62
G0 X138.36 Y62
G0 X138.3 Y62
G0 X138.372 Y61.372
G0 X163.33 Y61.33
G0 X163.4 Y61.4
M204 S500
M205 X20 Y20
;TYPE:WALL-INNER
G1 F900 X163.4 Y82.6 E194.11538
G1 X184.6 Y82.6 E195.04084
G1 X184.6 Y61.4 E195.96631
G1 X163.4 Y61.4 E196.89177
M204 S5000
M205 X30 Y30
G0 F7200 X163.8 Y61.8
M204 S500
M205 X20 Y20
;TYPE:WALL-OUTER
G1 F900 X163.8 Y82.2 E197.78231
G1 X184.2 Y82.2 E198.67285
G1 X184.2 Y61.8 E199.56339
G1 X163.8 Y61.8 E200.45393
M204 S5000
M205 X30 Y30
G0 F7200 X163.8 Y62
G0 X163.36 Y62
G0 X163.3 Y62
G0 X163.33 Y86.33
G0 X163.4 Y86.4
M204 S500
M205 X20 Y20
;TYPE:WALL-INNER
G1 F900 X163.4 Y107.6 E201.37939
G1 X184.6 Y107.6 E202.30486
G1 X184.6 Y86.4 E203.23032
G1 X163.4 Y86.4 E204.15578
M204 S5000
M205 X30 Y30
G0 F7200 X163.8 Y86.8
M204 S500
M205 X20 Y20
;TYPE:WALL-OUTER
G1 F900 X163.8 Y107.2 E205.04632
G1 X184.2 Y107.2 E205.93686
G1 X184.2 Y86.8 E206.8274
G1 X163.8 Y86.8 E207.71794
M204 S5000
M205 X30 Y30
G0 F7200 X163.8 Y87
G0 X163.36 Y87
G0 X163.3 Y87
G0 X159.628 Y86.372
G0 X138.33 Y86.33
G0 X138.4 Y86.4
M204 S500
M205 X20 Y20
;TYPE:WALL-INNER
G1 F900 X138.4 Y107.6 E208.64341
G1 X159.6 Y107.6 E209.56887
G1 X159.6 Y86.4 E210.49433
G1 X138.4 Y86.4 E211.4198
M204 S5000
M205 X30 Y30
G0 F7200 X138.8 Y86.8
M204 S500
M205 X20 Y20
;TYPE:WALL-OUTER
G1 F900 X138.8 Y107.2 E212.31034
G1 X159.2 Y107.2 E213.20088
G1 X159.2 Y86.8 E214.09142
G1 X138.8 Y86.8 E214.98196
M204 S5000
M205 X30 Y30
G0 F7200 X138.8 Y87
G0 X138.36 Y87
G0 X138.3 Y87
G0 X133.33 Y133.33
G0 X133.4 Y133.4
M204 S500
M205 X20 Y20
;TYPE:WALL-INNER
G1 F900 X133.4 Y164.6 E216.34396
G1 X154.6 Y164.6 E217.26942
G1 X154.6 Y133.4 E218.63142
G1 X133.4 Y133.4 E219.55689
M204 S5000
M205 X30 Y30
G0 F7200 X133.8 Y133.8
M204 S500
M205 X20 Y20
;TYPE:WALL-OUTER
G1 F900 X133.8 Y164.2 E220.88397
G1 X154.2 Y164.2 E221.77451
G1 X154.2 Y133.8 E223.10159
G1 X133.8 Y133.8 E223.99213
M204 S5000
M205 X30 Y30
G0 F7200 X133.8 Y134
G0 X133.36 Y134
G0 X133.3 Y134
G0 X133.372 Y133.372
G0 X154.628 Y133.372
G0 X172.33 Y182.33
G0 X172.4 Y182.4
M204 S500
M205 X20 Y20
;TYPE:WALL-INNER
G1 F900 X172.4 Y192.4 E224.42867
G1 X43.6 Y192.4 E230.05129
G1 X43.6 Y47.6 E236.37238
G1 X186.4 Y47.6 E242.60616
G1 X186.4 Y182.4 E248.49071
G1 X172.4 Y182.4 E249.10187
M204 S5000
M205 X30 Y30
G0 F7200 X172.8 Y182.8
M204 S500
M205 X20 Y20
;TYPE:WALL-OUTER
G1 F900 X172.8 Y192.8 E249.53841
G1 X43.2 Y192.8 E255.19595
G1 X43.2 Y47.2 E261.55197
G1 X186.8 Y47.2 E267.82067
G1 X186.8 Y182.8 E273.74014
G1 X172.8 Y182.8 E274.3513
M204 S5000
M205 X30 Y30
G0 F7200 X172.8 Y183
G0 X172.36 Y183
G0 X172.3 Y183
G0 X172.01 Y182.01
M204 S500
M205 X20 Y20
;TYPE:SKIN
G1 F900 X172.01 Y192.01 E274.78784
G1 X43.99 Y192.01 E280.37641
G1 X43.99 Y47.99 E286.66345
G1 X186.01 Y47.99 E292.86318
G1 X186.01 Y182.01 E298.71368
G1 X172.01 Y182.01 E299.32484
M204 S5000
M205 X30 Y30
G0 F7200 X154.99 Y164.99
M204 S500
M205 X20 Y20
