;FLAVOR:Marlin
;TIME:73
;Filament used: 0.0299955m
;Layer height: 0.1
;Generated with Cura_SteamEngine 3.4.1
M190 S65
M104 S200
M109 S200
M82 ;absolute extrusion mode
; Pefix G-Code for most 200mm x 200mm 3D printers by www.DIY3DTech.com to clean nozzle
; Place as start G-Code in Slicer
; Use of this code is at your own risk (no warranties made or implied)
;
M117 Clean ; Indicate nozzle clean in progress on LCD
M107 ; Turn layer fan off
G21 ; Set to metric [change to G20 if you want Imperial]
G90                          ; Force coordinates to be absolute relative to the origin
G28                          ; Home X/Y/Z axis
G0 X1 Y0 Z0.15 F9000         ; Move in 1mm from edge and up [z] 0.15mm
G92 E0                       ; Set extruder to [0] zero
G1 Y190 E50 F500             ; Extrude 100mm filiment along Y axis 190mm long to prime and clean the nozzle
G92 E0                       ; Reset extruder to [0] zero end of cleaning run
G1 E-3 F500                  ; Retract filiment by 3 mm to reduce string effect
G1 X3 Y190 Z15 F9000      ; Move over and rise to safe Z height
G1 X3 Y0 Z15 F9000 ; Move back to front of bed at safe Z height to shear strings
;
; Ensure extruder is not reset by other code or it will be 3mm short [see next line also]
;G1 E3 F500 ; Uncomment if you believe exruder will be reset
; Recommend turning off SKIRT in the slicer to avoid strings pulled into first layer
M117 Printing ; Indicate printing on LCD
; Begin printing with sliced GCode after here
G92 E0
G1 F2400 E-5
;LAYER_COUNT:2
;LAYER:0
M107
M204 S5000
M205 X30 Y30
G0 F7200 X199.392 Y199.47 Z0.1
M204 S500
M205 X20 Y20
;TYPE:SKIRT
G1 F2400 E0
G1 F1800 X199.664 Y199.224 E0.0061
G1 X201.2 Y197.936 E0.03943
G1 X201.819 Y197.492 E0.0521
G1 X202.676 Y196.972 E0.06877
G1 X203.116 Y196.735 E0.07708
G1 X204.019 Y196.304 E0.09372
G1 X204.723 Y196.031 E0.10628
G1 X206.64 Y195.45 E0.13959
G1 X207.382 Y195.285 E0.15223
G1 X208.375 Y195.143 E0.16892
G1 X208.956 Y195.095 E0.17861
G1 X210.29 Y195.061 E0.2008
G1 X211.129 Y195.11 E0.21478
G1 X213.116 Y195.396 E0.24816
G1 X213.849 Y195.558 E0.26065
G1 X214.803 Y195.846 E0.27722
G1 X215.361 Y196.052 E0.28711
G1 X216.587 Y196.588 E0.30936
G1 X217.177 Y196.894 E0.32042
G1 X218.321 Y197.588 E0.34267
G1 X218.873 Y197.976 E0.35389
G1 X219.91 Y198.815 E0.37607
G1 X220.404 Y199.273 E0.38727
G1 X221.32 Y200.245 E0.40949
G1 X221.746 Y200.763 E0.42064
G1 X222.525 Y201.851 E0.44289
G1 X222.954 Y202.571 E0.45683
G1 X223.832 Y204.372 E0.49015
G1 X224.134 Y205.15 E0.50403
G1 X224.511 Y206.43 E0.52622
G1 X224.67 Y207.175 E0.53889
G1 X224.893 Y208.829 E0.56664
G1 X224.938 Y209.497 E0.57778
G1 X224.938 Y210.499 E0.59444
G1 X224.903 Y211.086 E0.60422
G1 X224.746 Y212.415 E0.62647
G1 X224.603 Y213.151 E0.63894
G1 X224.162 Y214.758 E0.66666
G1 X223.834 Y215.627 E0.6821
G1 X222.955 Y217.429 E0.71545
G1 X222.527 Y218.147 E0.72935
G1 X221.749 Y219.234 E0.75158
G1 X221.322 Y219.753 E0.76275
G1 X220.405 Y220.726 E0.78499
G1 X219.911 Y221.184 E0.79619
G1 X218.874 Y222.023 E0.81837
G1 X218.324 Y222.41 E0.82956
G1 X217.181 Y223.104 E0.85179
G1 X216.513 Y223.444 E0.86426
G1 X214.971 Y224.088 E0.89205
G1 X214.165 Y224.347 E0.90613
G1 X212.539 Y224.721 E0.93388
G1 X211.799 Y224.833 E0.94632
G1 X210.465 Y224.935 E0.96857
G1 X209.789 Y224.941 E0.97981
G1 X208.454 Y224.862 E1.00205
G1 X207.706 Y224.761 E1.01461
G1 X206.075 Y224.413 E1.04234
G1 X205.437 Y224.232 E1.05337
G1 X204.493 Y223.895 E1.07004
G1 X204.018 Y223.697 E1.0786
G1 X203.114 Y223.265 E1.09526
G1 X202.673 Y223.026 E1.1036
G1 X201.816 Y222.505 E1.12028
G1 X201.202 Y222.065 E1.13284
G1 X199.665 Y220.777 E1.16619
G1 X199.015 Y220.122 E1.18153
G1 X197.956 Y218.835 E1.20925
G1 X197.571 Y218.298 E1.22024
G1 X197.04 Y217.444 E1.23696
G1 X196.753 Y216.915 E1.24697
G1 X196.189 Y215.704 E1.26919
G1 X195.925 Y215.004 E1.28163
G1 X195.454 Y213.403 E1.30938
G1 X195.285 Y212.576 E1.32342
G1 X195.09 Y210.918 E1.35118
G1 X195.059 Y210.165 E1.36372
G1 X195.104 Y208.831 E1.38591
G1 X195.186 Y208.081 E1.39846
G1 X195.493 Y206.44 E1.42622
G1 X195.746 Y205.552 E1.44158
G1 X196.47 Y203.684 E1.47489
G1 X196.79 Y203.012 E1.48727
G1 X197.286 Y202.143 E1.50391
G1 X197.718 Y201.506 E1.51671
G1 X198.967 Y199.939 E1.55004
G1 X199.392 Y199.47 E1.56056
M204 S5000
M205 X30 Y30
G0 F7200 X199.688 Y199.74
M204 S500
M205 X20 Y20
G1 F1800 X199.921 Y199.53 E1.56578
G1 X201.457 Y198.242 E1.59911
G1 X202.027 Y197.834 E1.61077
G1 X202.884 Y197.314 E1.62744
G1 X203.289 Y197.096 E1.63509
G1 X204.192 Y196.665 E1.65173
G1 X204.839 Y196.414 E1.66327
G1 X206.756 Y195.833 E1.69658
G1 X207.439 Y195.681 E1.70822
G1 X208.432 Y195.539 E1.7249
G1 X208.966 Y195.494 E1.73381
G1 X210.3 Y195.46 E1.756
G1 X211.072 Y195.506 E1.76887
G1 X213.059 Y195.792 E1.80225
G1 X213.733 Y195.941 E1.81373
G1 X214.687 Y196.229 E1.8303
G1 X215.201 Y196.418 E1.83941
G1 X216.427 Y196.954 E1.86166
G1 X216.97 Y197.236 E1.87184
G1 X218.114 Y197.93 E1.89409
G1 X218.621 Y198.287 E1.9044
G1 X219.658 Y199.126 E1.92658
G1 X220.113 Y199.547 E1.93689
G1 X221.029 Y200.519 E1.9591
G1 X221.421 Y200.996 E1.96937
G1 X222.2 Y202.084 E1.99162
G1 X222.595 Y202.746 E2.00444
G1 X223.473 Y204.547 E2.03776
G1 X223.751 Y205.263 E2.05054
G1 X224.128 Y206.543 E2.07273
G1 X224.274 Y207.228 E2.08438
G1 X224.497 Y208.882 E2.11213
G1 X224.538 Y209.497 E2.12238
G1 X224.538 Y210.499 E2.13904
G1 X224.506 Y211.039 E2.14804
G1 X224.349 Y212.368 E2.17029
G1 X224.217 Y213.045 E2.18177
G1 X223.776 Y214.652 E2.20948
G1 X223.474 Y215.452 E2.2237
G1 X222.595 Y217.254 E2.25704
G1 X222.202 Y217.914 E2.26982
G1 X221.424 Y219.001 E2.29205
G1 X221.031 Y219.479 E2.30234
G1 X220.114 Y220.452 E2.32457
G1 X219.659 Y220.873 E2.33488
G1 X218.622 Y221.712 E2.35706
G1 X218.116 Y222.068 E2.36735
G1 X216.973 Y222.762 E2.38959
G1 X216.359 Y223.075 E2.40105
G1 X214.817 Y223.719 E2.42884
G1 X214.075 Y223.957 E2.4418
G1 X212.449 Y224.331 E2.46955
G1 X211.769 Y224.435 E2.48099
G1 X210.435 Y224.537 E2.50323
G1 X209.812 Y224.542 E2.5136
G1 X208.477 Y224.463 E2.53584
G1 X207.789 Y224.37 E2.54738
G1 X206.158 Y224.022 E2.57512
G1 X205.571 Y223.855 E2.58526
G1 X204.627 Y223.518 E2.60193
G1 X204.191 Y223.336 E2.60979
G1 X203.287 Y222.904 E2.62645
G1 X202.88 Y222.685 E2.63414
G1 X202.023 Y222.164 E2.65082
G1 X201.458 Y221.759 E2.66238
G1 X199.921 Y220.471 E2.69573
G1 X199.324 Y219.868 E2.70984
G1 X198.265 Y218.581 E2.73756
G1 X197.911 Y218.087 E2.74766
G1 X197.38 Y217.233 E2.76439
G1 X197.116 Y216.746 E2.7736
G1 X196.552 Y215.535 E2.79581
G1 X196.309 Y214.891 E2.80726
G1 X195.838 Y213.29 E2.83501
G1 X195.682 Y212.529 E2.84793
G1 X195.487 Y210.871 E2.8757
G1 X195.459 Y210.179 E2.88721
G1 X195.504 Y208.845 E2.90941
G1 X195.579 Y208.154 E2.92097
G1 X195.886 Y206.513 E2.94873
G1 X196.119 Y205.697 E2.96284
G1 X196.843 Y203.829 E2.99616
G1 X197.137 Y203.211 E3.00754
G1 X197.633 Y202.342 E3.02418
G1 X198.031 Y201.755 E3.03598
G1 X199.28 Y200.188 E3.0693
G1 X199.688 Y199.74 E3.07938
M204 S5000
M205 X30 Y30
G0 F7200 X200.178 Y199.837
M204 S500
M205 X20 Y20
G1 F1800 X201.714 Y198.549 E3.11271
G1 X202.234 Y198.176 E3.12336
G1 X203.091 Y197.656 E3.14003
G1 X203.461 Y197.457 E3.14701
G1 X204.364 Y197.026 E3.16365
G1 X204.955 Y196.797 E3.17419
G1 X206.872 Y196.216 E3.2075
G1 X207.495 Y196.077 E3.21812
G1 X208.488 Y195.935 E3.2348
G1 X208.976 Y195.894 E3.24295
G1 X210.31 Y195.86 E3.26514
G1 X211.015 Y195.902 E3.27688
G1 X213.002 Y196.188 E3.31027
G1 X213.618 Y196.324 E3.32076
G1 X214.572 Y196.612 E3.33733
G1 X215.04 Y196.785 E3.34563
G1 X216.266 Y197.321 E3.36788
G1 X216.762 Y197.578 E3.37717
G1 X217.906 Y198.272 E3.39942
G1 X218.37 Y198.598 E3.40885
G1 X219.407 Y199.437 E3.43103
G1 X219.822 Y199.822 E3.44045
G1 X220.738 Y200.794 E3.46266
G1 X221.096 Y201.229 E3.47203
G1 X221.875 Y202.317 E3.49428
G1 X222.235 Y202.922 E3.50599
G1 X223.113 Y204.723 E3.53931
G1 X223.367 Y205.376 E3.55096
G1 X223.744 Y206.656 E3.57315
G1 X223.877 Y207.282 E3.5838
G1 X224.1 Y208.936 E3.61155
G1 X224.138 Y209.497 E3.6209
G1 X224.138 Y210.499 E3.63756
G1 X224.109 Y210.992 E3.64578
G1 X223.952 Y212.321 E3.66803
G1 X223.831 Y212.939 E3.6785
G1 X223.39 Y214.546 E3.70622
G1 X223.115 Y215.276 E3.71919
G1 X222.236 Y217.078 E3.75253
G1 X221.876 Y217.681 E3.76421
G1 X221.098 Y218.768 E3.78644
G1 X220.74 Y219.205 E3.79584
G1 X219.823 Y220.178 E3.81807
G1 X219.408 Y220.562 E3.82747
G1 X218.371 Y221.401 E3.84966
G1 X217.909 Y221.726 E3.85905
G1 X216.766 Y222.42 E3.88129
G1 X216.205 Y222.706 E3.89176
G1 X214.663 Y223.35 E3.91955
G1 X213.985 Y223.567 E3.93139
G1 X212.359 Y223.941 E3.95914
G1 X211.738 Y224.036 E3.96958
G1 X210.404 Y224.138 E3.99183
G1 X209.836 Y224.143 E4.00128
G1 X208.501 Y224.064 E4.02352
G1 X207.873 Y223.979 E4.03406
G1 X206.242 Y223.631 E4.06179
G1 X205.706 Y223.479 E4.07106
G1 X204.762 Y223.142 E4.08773
G1 X204.363 Y222.976 E4.09491
G1 X203.459 Y222.544 E4.11157
G1 X203.088 Y222.343 E4.11859
G1 X202.231 Y221.822 E4.13527
G1 X201.715 Y221.452 E4.14583
G1 X200.178 Y220.164 E4.17918
G1 X199.633 Y219.614 E4.19205
G1 X198.574 Y218.327 E4.21977
G1 X198.25 Y217.876 E4.22901
G1 X197.719 Y217.022 E4.24573
G1 X197.479 Y216.577 E4.25414
G1 X196.915 Y215.366 E4.27635
G1 X196.693 Y214.778 E4.28681
G1 X196.222 Y213.177 E4.31456
G1 X196.08 Y212.483 E4.32634
G1 X195.885 Y210.825 E4.3541
G1 X195.858 Y210.192 E4.36464
G1 X195.903 Y208.858 E4.38684
G1 X195.973 Y208.228 E4.39738
G1 X196.28 Y206.587 E4.42514
G1 X196.492 Y205.841 E4.43804
G1 X197.216 Y203.973 E4.47135
G1 X197.484 Y203.409 E4.48174
G1 X197.98 Y202.54 E4.49838
G1 X198.344 Y202.004 E4.50915
G1 X199.593 Y200.437 E4.54248
G1 X200.178 Y199.837 E4.55641
M204 S5000
M205 X30 Y30
G0 F7200 X200.435 Y200.143
M204 S500
M205 X20 Y20
G1 F1800 X201.971 Y198.855 E4.58975
G1 X202.442 Y198.518 E4.59938
G1 X203.299 Y197.998 E4.61605
G1 X203.633 Y197.818 E4.62236
G1 X204.536 Y197.387 E4.639
G1 X205.071 Y197.179 E4.64855
G1 X206.988 Y196.598 E4.68186
G1 X207.552 Y196.473 E4.69147
G1 X208.545 Y196.331 E4.70815
G1 X208.986 Y196.294 E4.71551
G1 X210.32 Y196.26 E4.7377
G1 X210.958 Y196.298 E4.74833
G1 X212.945 Y196.584 E4.78171
G1 X213.502 Y196.707 E4.7912
G1 X214.456 Y196.995 E4.80777
G1 X214.88 Y197.151 E4.81528
G1 X216.106 Y197.687 E4.83754
G1 X216.555 Y197.92 E4.84595
G1 X217.699 Y198.614 E4.8682
G1 X218.118 Y198.909 E4.87672
G1 X219.155 Y199.748 E4.8989
G1 X219.53 Y200.096 E4.90741
G1 X220.446 Y201.068 E4.92962
G1 X220.771 Y201.462 E4.93812
G1 X221.55 Y202.55 E4.96037
G1 X221.876 Y203.097 E4.97096
G1 X222.754 Y204.898 E5.00428
G1 X222.983 Y205.489 E5.01482
G1 X223.36 Y206.769 E5.03701
G1 X223.481 Y207.335 E5.04664
G1 X223.704 Y208.989 E5.07439
G1 X223.738 Y209.497 E5.08286
G1 X223.738 Y210.499 E5.09952
G1 X223.712 Y210.945 E5.10695
G1 X223.555 Y212.274 E5.12921
G1 X223.446 Y212.834 E5.13869
G1 X223.005 Y214.441 E5.16641
G1 X222.755 Y215.101 E5.17814
G1 X221.876 Y216.903 E5.21149
G1 X221.551 Y217.449 E5.22205
G1 X220.773 Y218.536 E5.24428
G1 X220.448 Y218.93 E5.25278
G1 X219.531 Y219.903 E5.27501
G1 X219.156 Y220.251 E5.28352
G1 X218.119 Y221.09 E5.3057
G1 X217.701 Y221.384 E5.3142
G1 X216.558 Y222.078 E5.33644
G1 X216.05 Y222.336 E5.34591
G1 X214.508 Y222.98 E5.3737
G1 X213.896 Y223.177 E5.3844
G1 X212.27 Y223.551 E5.41214
G1 X211.708 Y223.637 E5.4216
G1 X210.374 Y223.739 E5.44385
G1 X209.86 Y223.743 E5.45239
G1 X208.525 Y223.664 E5.47463
G1 X207.956 Y223.587 E5.48418
G1 X206.325 Y223.239 E5.51192
G1 X205.84 Y223.102 E5.5203
G1 X204.896 Y222.765 E5.53697
G1 X204.536 Y222.615 E5.54345
G1 X203.632 Y222.183 E5.56012
G1 X203.296 Y222.001 E5.56647
G1 X202.439 Y221.48 E5.58315
G1 X201.972 Y221.146 E5.5927
G1 X200.435 Y219.858 E5.62605
G1 X199.942 Y219.359 E5.63771
G1 X198.883 Y218.072 E5.66543
G1 X198.59 Y217.665 E5.67377
G1 X198.059 Y216.811 E5.69049
G1 X197.841 Y216.408 E5.69811
G1 X197.277 Y215.197 E5.72033
G1 X197.076 Y214.665 E5.72978
G1 X196.605 Y213.064 E5.75754
G1 X196.477 Y212.436 E5.7682
G1 X196.282 Y210.778 E5.79596
G1 X196.258 Y210.206 E5.80548
G1 X196.303 Y208.872 E5.82768
G1 X196.366 Y208.301 E5.83723
G1 X196.673 Y206.66 E5.86499
G1 X196.865 Y205.986 E5.87665
G1 X197.589 Y204.118 E5.90996
G1 X197.832 Y203.607 E5.91937
G1 X198.328 Y202.738 E5.93601
G1 X198.656 Y202.253 E5.94575
G1 X199.905 Y200.686 E5.97908
G1 X200.435 Y200.143 E5.99169
M204 S5000
M205 X30 Y30
G0 F7200 X200.692 Y200.45
M204 S500
M205 X20 Y20
G1 F1800 X202.228 Y199.162 E6.02503
G1 X202.649 Y198.86 E6.03365
G1 X203.506 Y198.34 E6.05032
G1 X203.805 Y198.179 E6.05596
G1 X204.708 Y197.748 E6.0726
G1 X205.187 Y197.562 E6.08115
G1 X207.104 Y196.981 E6.11446
G1 X207.609 Y196.869 E6.12306
G1 X208.602 Y196.727 E6.13975
G1 X208.996 Y196.694 E6.14632
G1 X210.33 Y196.66 E6.16851
G1 X210.901 Y196.694 E6.17802
G1 X212.888 Y196.98 E6.21141
G1 X213.387 Y197.09 E6.21991
G1 X214.341 Y197.378 E6.23648
G1 X214.72 Y197.518 E6.2432
G1 X215.946 Y198.054 E6.26545
G1 X216.347 Y198.262 E6.27296
G1 X217.491 Y198.956 E6.29521
G1 X217.867 Y199.22 E6.30285
G1 X218.904 Y200.059 E6.32504
G1 X219.239 Y200.37 E6.33264
G1 X220.155 Y201.342 E6.35485
G1 X220.445 Y201.695 E6.36245
G1 X221.224 Y202.783 E6.3847
G1 X221.516 Y203.272 E6.39417
G1 X222.394 Y205.073 E6.42749
G1 X222.599 Y205.602 E6.43693
G1 X222.976 Y206.882 E6.45912
G1 X223.085 Y207.389 E6.46774
G1 X223.308 Y209.043 E6.4955
G1 X223.338 Y209.497 E6.50306
G1 X223.338 Y210.499 E6.51973
G1 X223.315 Y210.898 E6.52637
G1 X223.158 Y212.227 E6.54863
G1 X223.06 Y212.728 E6.55712
G1 X222.619 Y214.335 E6.58483
G1 X222.396 Y214.926 E6.59534
G1 X221.517 Y216.728 E6.62868
G1 X221.226 Y217.216 E6.63813
G1 X220.448 Y218.303 E6.66036
G1 X220.157 Y218.656 E6.66796
G1 X219.24 Y219.629 E6.6902
G1 X218.905 Y219.94 E6.6978
G1 X217.868 Y220.779 E6.71998
G1 X217.494 Y221.042 E6.72759
G1 X216.351 Y221.736 E6.74983
G1 X215.896 Y221.967 E6.75831
G1 X214.354 Y222.611 E6.7861
G1 X213.806 Y222.787 E6.79567
G1 X212.18 Y223.161 E6.82342
G1 X211.677 Y223.238 E6.83188
G1 X210.343 Y223.34 E6.85413
G1 X209.883 Y223.344 E6.86178
G1 X208.548 Y223.265 E6.88402
G1 X208.04 Y223.196 E6.89255
G1 X206.409 Y222.848 E6.92028
G1 X205.975 Y222.725 E6.92778
G1 X205.031 Y222.388 E6.94445
G1 X204.708 Y222.254 E6.95027
G1 X203.804 Y221.822 E6.96693
G1 X203.504 Y221.659 E6.97261
G1 X202.647 Y221.138 E6.98929
G1 X202.229 Y220.839 E6.99783
G1 X200.692 Y219.551 E7.03118
G1 X200.251 Y219.105 E7.04161
G1 X199.192 Y217.818 E7.06933
G1 X198.93 Y217.453 E7.0768
G1 X198.399 Y216.599 E7.09352
G1 X198.204 Y216.239 E7.10033
G1 X197.64 Y215.028 E7.12255
G1 X197.46 Y214.553 E7.131
G1 X196.989 Y212.952 E7.15875
G1 X196.874 Y212.389 E7.16831
G1 X196.679 Y210.731 E7.19607
G1 X196.658 Y210.219 E7.20459
G1 X196.703 Y208.885 E7.22679
G1 X196.759 Y208.375 E7.23532
G1 X197.066 Y206.734 E7.26308
G1 X197.238 Y206.13 E7.27353
G1 X197.962 Y204.262 E7.30684
G1 X198.179 Y203.806 E7.31524
G1 X198.675 Y202.937 E7.33188
G1 X198.969 Y202.503 E7.3406
G1 X200.218 Y200.936 E7.37392
G1 X200.692 Y200.45 E7.38521
M204 S5000
M205 X30 Y30
G0 F7200 X200.949 Y200.756
M204 S500
M205 X20 Y20
G1 F1800 X202.485 Y199.468 E7.41855
G1 X202.857 Y199.202 E7.42615
G1 X203.714 Y198.682 E7.44283
G1 X203.978 Y198.54 E7.44781
G1 X204.881 Y198.109 E7.46445
G1 X205.303 Y197.945 E7.47198
G1 X207.22 Y197.364 E7.50529
G1 X207.665 Y197.265 E7.51287
G1 X208.658 Y197.123 E7.52955
G1 X209.007 Y197.094 E7.53538
G1 X210.341 Y197.06 E7.55757
G1 X210.844 Y197.09 E7.56595
G1 X212.831 Y197.376 E7.59933
G1 X213.271 Y197.473 E7.60683
G1 X214.225 Y197.761 E7.6234
G1 X214.56 Y197.884 E7.62933
G1 X215.786 Y198.42 E7.65159
G1 X216.14 Y198.604 E7.65822
G1 X217.284 Y199.298 E7.68047
G1 X217.615 Y199.531 E7.6872
G1 X218.652 Y200.37 E7.70939
G1 X218.948 Y200.645 E7.71611
G1 X219.864 Y201.617 E7.73832
G1 X220.12 Y201.928 E7.74502
G1 X220.899 Y203.016 E7.76727
G1 X221.157 Y203.447 E7.77562
G1 X222.035 Y205.248 E7.80894
G1 X222.216 Y205.715 E7.81727
G1 X222.593 Y206.995 E7.83946
G1 X222.688 Y207.442 E7.84706
G1 X222.911 Y209.096 E7.87482
G1 X222.938 Y209.497 E7.8815
G1 X222.938 Y210.499 E7.89816
G1 X222.917 Y210.851 E7.90403
G1 X222.76 Y212.18 E7.92628
G1 X222.674 Y212.622 E7.93377
G1 X222.233 Y214.229 E7.96148
