;FLAVOR:Marlin
;TIME:4400
;Filament used: 2.80461m
;Layer height: 0.2
;Generated with Cura_SteamEngine 3.4.1
M190 S60
M104 S200
M109 S200
M82 ;absolute extrusion mode
G28 ;Home
G1 Z15.0 F6000 ;Move the platform down 15mm
;Prime the extruder
G92 E0
G1 F200 E3
G92 E0
G92 E0
G1 F1800 E-6
;LAYER_COUNT:15
;LAYER:0
M107
M204 S5000
M205 X30 Y30
G0 F7200 X68.472 Y68.496 Z0.2
M204 S500
M205 X20 Y20
;TYPE:SKIRT
G1 F1800 E0
G1 F1200 X69.004 Y68.017 E0.02381
G1 X69.586 Y67.602 E0.04758
G1 X70.362 Y67.183 E0.07692
G1 X75.26 Y64.957 E0.25586
G1 X77.623 Y63.764 E0.3439
G1 X79.87 Y62.546 E0.42891
G1 X84.499 Y59.78 E0.60826
G1 X86.643 Y58.374 E0.69354
G1 X90.983 Y55.253 E0.87134
G1 X94.999 Y52.022 E1.04277
G1 X95.581 Y51.606 E1.06657
G1 X96.205 Y51.257 E1.09035
G1 X96.865 Y50.98 E1.11415
G1 X97.551 Y50.778 E1.13794
G1 X98.255 Y50.654 E1.16171
G1 X99.015 Y50.609 E1.18704
G1 X121.017 Y50.624 E1.91883
G1 X121.731 Y50.664 E1.94261
G1 X122.437 Y50.784 E1.96643
G1 X123.124 Y50.982 E1.99021
G1 X123.785 Y51.255 E2.01399
G1 X124.411 Y51.601 E2.03778
G1 X125.052 Y52.059 E2.06399
G1 X128.035 Y54.486 E2.19189
G1 X132.313 Y57.647 E2.36881
G1 X136.751 Y60.554 E2.54526
G1 X141.325 Y63.194 E2.72092
G1 X146.083 Y65.591 E2.89812
G1 X149.571 Y67.15 E3.02519
G1 X150.206 Y67.478 E3.04896
G1 X150.801 Y67.875 E3.07275
G1 X151.348 Y68.335 E3.09652
G1 X151.841 Y68.854 E3.12033
G1 X152.272 Y69.425 E3.14412
G1 X152.637 Y70.04 E3.16791
G1 X152.931 Y70.692 E3.1917
G1 X153.151 Y71.373 E3.2155
G1 X153.293 Y72.074 E3.23929
G1 X153.359 Y72.99 E3.26984
G1 X153.39 Y146.988 E5.73102
G1 X153.35 Y147.702 E5.7548
G1 X153.231 Y148.408 E5.77862
G1 X153.034 Y149.095 E5.80239
G1 X152.762 Y149.757 E5.82619
G1 X152.417 Y150.383 E5.84997
G1 X152.005 Y150.968 E5.87376
G1 X151.529 Y151.502 E5.89756
G1 X150.998 Y151.981 E5.92134
G1 X150.416 Y152.397 E5.94514
G1 X149.638 Y152.817 E5.97454
G1 X144.74 Y155.043 E6.15348
G1 X142.377 Y156.236 E6.24153
G1 X140.13 Y157.454 E6.32654
G1 X135.501 Y160.22 E6.50589
G1 X133.357 Y161.626 E6.59116
G1 X129.017 Y164.747 E6.76896
G1 X125.001 Y167.978 E6.9404
G1 X124.419 Y168.394 E6.96419
G1 X123.795 Y168.743 E6.98797
G1 X123.135 Y169.02 E7.01178
G1 X122.449 Y169.222 E7.03556
G1 X121.745 Y169.346 E7.05934
G1 X120.989 Y169.391 E7.08453
G1 X99.004 Y169.39 E7.81575
G1 X98.29 Y169.35 E7.83954
G1 X97.584 Y169.231 E7.86335
G1 X96.897 Y169.033 E7.88713
G1 X96.236 Y168.76 E7.91092
G1 X95.609 Y168.415 E7.93472
G1 X95.032 Y168.008 E7.9582
G1 X89.823 Y163.885 E8.17916
G1 X85.49 Y160.868 E8.35477
G1 X80.981 Y158.094 E8.53085
G1 X76.339 Y155.587 E8.70632
G1 X70.32 Y152.799 E8.92694
G1 X69.689 Y152.463 E8.95072
G1 X69.099 Y152.058 E8.97452
G1 X68.558 Y151.59 E8.99832
G1 X68.073 Y151.064 E9.02211
G1 X67.649 Y150.488 E9.0459
G1 X67.293 Y149.868 E9.06968
G1 X67.007 Y149.212 E9.09348
G1 X66.797 Y148.528 E9.11728
G1 X66.664 Y147.825 E9.14108
G1 X66.61 Y146.992 E9.16884
G1 X66.61 Y73.009 E11.62952
G1 X66.65 Y72.295 E11.65331
G1 X66.769 Y71.59 E11.67709
G1 X66.967 Y70.902 E11.7009
G1 X67.24 Y70.241 E11.72469
G1 X67.584 Y69.614 E11.74847
G1 X67.997 Y69.03 E11.77226
G1 X68.472 Y68.496 E11.79604
M204 S5000
M205 X30 Y30
G0 F7200 X68.866 Y68.67
M204 S500
M205 X20 Y20
G1 F1200 X69.394 Y68.221 E11.81909
G1 X69.969 Y67.836 E11.8421
G1 X70.527 Y67.547 E11.863
G1 X75.436 Y65.316 E12.04235
G1 X77.788 Y64.129 E12.12997
G1 X80.096 Y62.878 E12.21729
G1 X84.718 Y60.115 E12.39639
G1 X86.865 Y58.708 E12.48177
G1 X91.225 Y55.572 E12.6604
G1 X95.25 Y52.334 E12.83221
G1 X95.814 Y51.932 E12.85525
G1 X96.42 Y51.597 E12.87828
G1 X97.061 Y51.335 E12.90131
G1 X97.728 Y51.148 E12.92435
G1 X98.412 Y51.039 E12.94739
G1 X99.015 Y51.009 E12.96747
G1 X121.017 Y51.024 E13.69926
G1 X121.708 Y51.064 E13.72228
G1 X122.391 Y51.184 E13.74534
G1 X123.054 Y51.382 E13.76836
G1 X123.691 Y51.655 E13.79141
G1 X124.292 Y51.999 E13.81444
G1 X124.8 Y52.37 E13.83536
G1 X127.792 Y54.804 E13.96365
G1 X132.081 Y57.974 E14.14103
G1 X136.532 Y60.89 E14.31802
G1 X141.151 Y63.555 E14.49538
G1 X145.9 Y65.948 E14.67225
G1 X149.407 Y67.515 E14.80001
G1 X150.022 Y67.834 E14.82305
G1 X150.596 Y68.221 E14.84608
G1 X151.122 Y68.672 E14.86912
G1 X151.592 Y69.181 E14.89217
G1 X152.001 Y69.74 E14.91521
G1 X152.342 Y70.342 E14.93822
G1 X152.611 Y70.98 E14.96125
G1 X152.806 Y71.645 E14.9843
G1 X152.922 Y72.328 E15.00734
G1 X152.959 Y72.99 E15.02939
G1 X152.99 Y146.988 E17.49057
G1 X152.95 Y147.68 E17.51363
G1 X152.831 Y148.362 E17.53665
G1 X152.634 Y149.026 E17.55969
G1 X152.362 Y149.663 E17.58273
G1 X152.019 Y150.264 E17.60574
G1 X151.608 Y150.822 E17.62879
G1 X151.136 Y151.328 E17.65181
G1 X150.608 Y151.777 E17.67486
G1 X150.033 Y152.162 E17.69788
G1 X149.473 Y152.453 E17.71887
G1 X144.564 Y154.684 E17.89821
G1 X142.212 Y155.871 E17.98584
G1 X139.904 Y157.122 E18.07315
G1 X135.282 Y159.885 E18.25226
G1 X133.135 Y161.292 E18.33763
G1 X128.775 Y164.428 E18.51626
G1 X124.75 Y167.666 E18.68808
G1 X124.186 Y168.068 E18.71111
G1 X123.58 Y168.403 E18.73414
G1 X122.939 Y168.665 E18.75717
G1 X122.272 Y168.852 E18.78021
G1 X121.588 Y168.961 E18.80325
G1 X120.989 Y168.991 E18.8232
G1 X99.004 Y168.99 E19.55442
G1 X98.312 Y168.95 E19.57748
G1 X97.63 Y168.831 E19.6005
G1 X96.966 Y168.633 E19.62355
G1 X96.33 Y168.361 E19.64656
G1 X95.729 Y168.017 E19.66959
G1 X95.28 Y167.695 E19.68797
G1 X90.052 Y163.557 E19.90973
G1 X85.71 Y160.534 E20.0857
G1 X81.18 Y157.747 E20.2626
G1 X76.518 Y155.23 E20.43881
G1 X70.488 Y152.436 E20.65985
G1 X69.877 Y152.109 E20.6829
G1 X69.309 Y151.714 E20.70591
G1 X68.789 Y151.256 E20.72896
G1 X68.326 Y150.741 E20.75199
G1 X67.925 Y150.177 E20.77501
G1 X67.592 Y149.57 E20.79804
G1 X67.331 Y148.928 E20.82109
G1 X67.146 Y148.261 E20.84411
G1 X67.039 Y147.577 E20.86714
G1 X67.01 Y146.992 E20.88662
G1 X67.01 Y73.009 E23.3473
G1 X67.05 Y72.318 E23.37032
G1 X67.169 Y71.635 E23.39338
G1 X67.367 Y70.972 E23.4164
G1 X67.639 Y70.335 E23.43943
G1 X67.983 Y69.734 E23.46246
G1 X68.394 Y69.176 E23.48552
G1 X68.866 Y68.67 E23.50853
M204 S5000
M205 X30 Y30
G0 F7200 X69.259 Y68.851
M204 S500
M205 X20 Y20
G1 F1200 X69.781 Y68.433 E23.53077
G1 X70.35 Y68.081 E23.55303
G1 X70.693 Y67.911 E23.56576
G1 X75.603 Y65.679 E23.74515
G1 X77.994 Y64.473 E23.83422
G1 X80.275 Y63.236 E23.92052
G1 X84.943 Y60.446 E24.1014
G1 X87.085 Y59.042 E24.18658
G1 X91.475 Y55.885 E24.36643
G1 X95.501 Y52.646 E24.53829
G1 X96.046 Y52.258 E24.56054
G1 X96.634 Y51.939 E24.58279
G1 X97.256 Y51.691 E24.60506
G1 X97.902 Y51.52 E24.62729
G1 X98.565 Y51.427 E24.64955
G1 X99.015 Y51.409 E24.66453
G1 X121.017 Y51.424 E25.39632
G1 X121.685 Y51.464 E25.41858
G1 X122.343 Y51.584 E25.44083
G1 X122.982 Y51.782 E25.46308
G1 X123.593 Y52.054 E25.48532
G1 X124.168 Y52.397 E25.50759
G1 X124.547 Y52.68 E25.52332
G1 X127.538 Y55.113 E25.65156
G1 X131.862 Y58.309 E25.8304
G1 X136.326 Y61.233 E26.00789
G1 X140.95 Y63.902 E26.18546
G1 X145.728 Y66.308 E26.36339
G1 X149.244 Y67.88 E26.49149
G1 X149.838 Y68.189 E26.51376
G1 X150.39 Y68.567 E26.53601
G1 X150.893 Y69.008 E26.55826
G1 X151.34 Y69.505 E26.58049
G1 X151.725 Y70.053 E26.60277
G1 X152.042 Y70.642 E26.62501
G1 X152.286 Y71.265 E26.64727
G1 X152.454 Y71.913 E26.66953
G1 X152.543 Y72.576 E26.69178
G1 X152.559 Y72.991 E26.7056
G1 X152.59 Y146.989 E29.16678
G1 X152.55 Y147.657 E29.18904
G1 X152.431 Y148.315 E29.21128
G1 X152.235 Y148.954 E29.23351
G1 X151.963 Y149.566 E29.25578
G1 X151.62 Y150.14 E29.27802
G1 X151.212 Y150.67 E29.30027
G1 X150.743 Y151.147 E29.32252
G1 X150.22 Y151.565 E29.34479
G1 X149.652 Y151.918 E29.36703
G1 X149.307 Y152.089 E29.37984
G1 X144.397 Y154.321 E29.55922
G1 X142.006 Y155.527 E29.64829
G1 X139.725 Y156.764 E29.7346
G1 X135.057 Y159.554 E29.91547
G1 X132.915 Y160.958 E30.00066
G1 X128.525 Y164.115 E30.1805
G1 X124.499 Y167.354 E30.35237
G1 X123.954 Y167.742 E30.37462
G1 X123.366 Y168.061 E30.39687
G1 X122.744 Y168.309 E30.41914
G1 X122.098 Y168.48 E30.44136
G1 X121.435 Y168.573 E30.46363
G1 X120.989 Y168.591 E30.47848
G1 X99.004 Y168.59 E31.2097
G1 X98.336 Y168.55 E31.23196
G1 X97.678 Y168.431 E31.2542
G1 X97.038 Y168.234 E31.27647
G1 X96.427 Y167.962 E31.29872
G1 X95.852 Y167.619 E31.32098
G1 X95.528 Y167.381 E31.33436
G1 X90.3 Y163.243 E31.55612
G1 X85.927 Y160.198 E31.73335
G1 X81.374 Y157.397 E31.91115
G1 X76.697 Y154.872 E32.08793
G1 X70.656 Y152.073 E32.30937
G1 X70.067 Y151.756 E32.33162
G1 X69.52 Y151.371 E32.35386
G1 X69.022 Y150.924 E32.37612
G1 X68.582 Y150.42 E32.39837
G1 X68.205 Y149.868 E32.42061
G1 X67.896 Y149.274 E32.44288
G1 X67.66 Y148.648 E32.46513
G1 X67.501 Y147.998 E32.48738
G1 X67.42 Y147.334 E32.50963
G1 X67.41 Y146.992 E32.52101
G1 X67.41 Y73.009 E34.9817
G1 X67.45 Y72.341 E35.00396
G1 X67.569 Y71.683 E35.0262
G1 X67.766 Y71.043 E35.04847
G1 X68.038 Y70.432 E35.07071
G1 X68.381 Y69.858 E35.09295
G1 X68.79 Y69.328 E35.11522
G1 X69.259 Y68.851 E35.13747
M204 S5000
M205 X30 Y30
G0 F7200 X69.185 Y69.486
M204 S500
M205 X20 Y20
G1 F1200 X69.65 Y69.04 E35.1589
G1 X70.167 Y68.655 E35.18034
G1 X70.858 Y68.275 E35.20657
G1 X75.79 Y66.033 E35.38676
G1 X78.171 Y64.832 E35.47546
G1 X80.465 Y63.588 E35.56225
G1 X85.151 Y60.787 E35.74383
G1 X87.316 Y59.368 E35.82993
G1 X91.717 Y56.203 E36.01022
G1 X95.752 Y52.957 E36.18247
G1 X96.278 Y52.585 E36.20389
G1 X96.846 Y52.281 E36.22532
G1 X97.448 Y52.049 E36.24678
G1 X98.074 Y51.894 E36.26823
G1 X99.015 Y51.809 E36.29965
G1 X121.017 Y51.824 E37.03144
G1 X121.66 Y51.864 E37.05287
G1 X122.293 Y51.984 E37.0743
G1 X122.907 Y52.181 E37.09575
G1 X123.492 Y52.453 E37.1172
G1 X124.295 Y52.99 E37.14933
G1 X127.298 Y55.433 E37.27809
G1 X131.635 Y58.639 E37.45747
G1 X136.112 Y61.571 E37.63547
G1 X140.763 Y64.255 E37.81407
G1 X145.572 Y66.678 E37.99318
G1 X149.081 Y68.246 E38.12101
G1 X149.652 Y68.545 E38.14245
G1 X150.182 Y68.912 E38.16389
G1 X150.662 Y69.342 E38.18532
G1 X151.085 Y69.828 E38.20675
G1 X151.445 Y70.363 E38.2282
G1 X151.736 Y70.939 E38.24966
G1 X151.953 Y71.546 E38.2711
G1 X152.094 Y72.175 E38.29254
G1 X152.159 Y72.991 E38.31977
G1 X152.19 Y146.989 E40.78095
G1 X152.15 Y147.632 E40.80238
G1 X152.031 Y148.266 E40.82384
G1 X151.835 Y148.88 E40.84527
G1 X151.564 Y149.465 E40.86672
G1 X151.223 Y150.012 E40.88815
G1 X150.816 Y150.512 E40.9096
G1 X150.351 Y150.959 E40.93105
G1 X149.834 Y151.344 E40.95249
G1 X149.142 Y151.725 E40.97876
G1 X144.21 Y153.967 E41.15896
G1 X141.829 Y155.168 E41.24765
G1 X139.535 Y156.412 E41.33445
G1 X134.849 Y159.213 E41.51603
G1 X132.684 Y160.632 E41.60212
G1 X128.283 Y163.797 E41.78242
G1 X124.248 Y167.043 E41.95466
G1 X123.722 Y167.415 E41.97609
G1 X123.154 Y167.719 E41.99752
G1 X122.552 Y167.951 E42.01898
G1 X121.926 Y168.106 E42.04043
G1 X120.989 Y168.191 E42.07172
G1 X99.004 Y168.19 E42.80294
G1 X98.36 Y168.15 E42.8244
G1 X97.727 Y168.031 E42.84583
G1 X97.113 Y167.834 E42.86727
G1 X96.528 Y167.563 E42.88872
G1 X95.777 Y167.067 E42.91865
G1 X90.548 Y162.928 E43.14046
G1 X86.147 Y159.864 E43.31882
G1 X81.587 Y157.059 E43.49688
G1 X76.864 Y154.508 E43.67542
G1 X70.824 Y151.71 E43.89682
G1 X70.257 Y151.404 E43.91825
G1 X69.732 Y151.029 E43.93971
G1 X69.258 Y150.592 E43.96115
G1 X68.841 Y150.1 E43.9826
G1 X68.489 Y149.561 E44.00401
G1 X68.206 Y148.982 E44.02545
G1 X67.996 Y148.372 E44.0469
G1 X67.864 Y147.741 E44.06835
G1 X67.81 Y146.992 E44.09332
G1 X67.81 Y73.009 E46.55401
G1 X67.85 Y72.366 E46.57543
G1 X67.969 Y71.732 E46.59689
G1 X68.166 Y71.118 E46.61834
G1 X68.437 Y70.533 E46.63978
G1 X68.779 Y69.986 E46.66124
G1 X69.185 Y69.486 E46.68266
M204 S5000
M205 X30 Y30
G1 F1800 E40.68266
G1 F300 Z1.2
G0 F7200 X77.642 Y77.473 Z1.2
M204 S500
M205 X20 Y20
;TYPE:WALL-INNER
G1 F300 Z0.2
G1 F1800 E46.68266
G1 F1200 X77.45 Y76.975 E46.70041
G1 X77.15 Y76.539 E46.71801
G1 X76.753 Y76.185 E46.7357
G1 X76.282 Y75.939 E46.75338
G1 X75.766 Y75.811 E46.77106
G1 X75.234 Y75.811 E46.78875
G1 X74.718 Y75.94 E46.80644
G1 X74.248 Y76.187 E46.8241
G1 X73.974 Y76.43 E46.83629
G1 X73.851 Y76.539 E46.84175
G1 X73.6 Y76.901 E46.8564
G1 X73.6 Y76.539 E46.8597
G1 X73.6 Y76.374 E46.86426
G1 X73.6 Y73.6 E46.95652
G1 X94.4 Y73.6 E47.64833
G1 X94.4 Y76.375 E47.74063
G1 X94.4 Y76.544 E47.74625
G1 X94.4 Y76.904 E47.75823
G1 X94.152 Y76.544 E47.76403
G1 X94.026 Y76.432 E47.76866
G1 X93.757 Y76.191 E47.78068
G1 X93.289 Y75.943 E47.79829
G1 X92.776 Y75.814 E47.81589
G1 X92.253 Y75.811 E47.83328
G1 X91.702 Y75.945 E47.85214
G1 X91.238 Y76.193 E47.86964
G1 X90.85 Y76.54 E47.88695
G1 X90.553 Y76.969 E47.90431
G1 X90.355 Y77.488 E47.92278
G1 X90.296 Y78.002 E47.93999
G1 X90.36 Y78.524 E47.95748
G1 X90.547 Y79.02 E47.97511
G1 X90.844 Y79.452 E47.99255
G1 X91.266 Y79.824 E48.01126
G1 X91.731 Y80.066 E48.0287
G1 X92.239 Y80.189 E48.04608
G1 X92.759 Y80.188 E48.06338
G1 X93.269 Y80.065 E48.08082
G1 X93.768 Y79.801 E48.0996
G1 X94.027 Y79.569 E48.11117
G1 X94.158 Y79.452 E48.11701
G1 X94.4 Y79.1 E48.13122
G1 X94.4 Y79.452 E48.13429
G1 X94.4 Y79.628 E48.1391
G1 X94.4 Y82.4 E48.23129
G1 X73.6 Y82.4 E48.9231
G1 X73.6 Y79.626 E49.01537
G1 X73.6 Y79.461 E49.02086
G1 X73.6 Y79.099 E49.0329
G1 X73.851 Y79.461 E49.03879
G1 X73.974 Y79.57 E49.04333
G1 X74.248 Y79.813 E49.05551
G1 X74.718 Y80.061 E49.07319
G1 X75.236 Y80.188 E49.09092
G1 X75.764 Y80.188 E49.10849
G1 X76.282 Y80.061 E49.12623
G1 X76.752 Y79.813 E49.1439
G1 X77.149 Y79.461 E49.16155
G1 X77.451 Y79.025 E49.17919
G1 X77.64 Y78.526 E49.19693
G1 X77.703 Y78.001 E49.21452
G1 X77.642 Y77.473 E49.2322
M204 S5000
M205 X30 Y30
G0 F7200 X77.25 Y77.569
M204 S500
M205 X20 Y20
;TYPE:WALL-OUTER
G1 F1200 X77.094 Y77.163 E49.24667
G1 X76.848 Y76.806 E49.26109
G1 X76.524 Y76.517 E49.27553
G1 X76.139 Y76.316 E49.28997
G1 X75.717 Y76.211 E49.30444
G1 X75.283 Y76.211 E49.31887
G1 X74.861 Y76.316 E49.33333
G1 X74.477 Y76.518 E49.34777
G1 X74.153 Y76.806 E49.36218
G1 X73.906 Y77.163 E49.37662
G1 X73.751 Y77.57 E49.39111
G1 X73.698 Y78 E49.40552
G1 X73.751 Y78.43 E49.41993
G1 X73.906 Y78.837 E49.43441
G1 X74.153 Y79.194 E49.44885
G1 X74.477 Y79.482 E49.46327
G1 X74.861 Y79.684 E49.4777
G1 X75.284 Y79.788 E49.49219
G1 X75.716 Y79.788 E49.50656
G1 X76.139 Y79.684 E49.52105
G1 X76.523 Y79.482 E49.53548
G1 X76.847 Y79.194 E49.54989
G1 X77.094 Y78.837 E49.56433
G1 X77.249 Y78.43 E49.57882
G1 X77.3 Y78 E49.59322
G1 X77.25 Y77.569 E49.60765
M204 S5000
M205 X30 Y30
G0 F7200 X77.179 Y77.382
G0 X77.645 Y77.203
G0 X92.249 Y75.772
G0 X92.781 Y75.775
G0 X93.303 Y75.906
G0 X93.779 Y76.159
G0 X94.006 Y76.362
G0 X94.371 Y76.809
G0 X94.302 Y78
M204 S500
M205 X20 Y20
G1 F1200 X94.249 Y77.571 E49.62203
G1 X94.095 Y77.167 E49.63641
G1 X93.85 Y76.81 E49.65081
G1 X93.527 Y76.522 E49.6652
G1 X93.145 Y76.319 E49.67959
G1 X92.725 Y76.214 E49.69399
G1 X92.3 Y76.211 E49.70813
G1 X91.846 Y76.322 E49.72367
G1 X91.469 Y76.523 E49.73788
G1 X91.152 Y76.806 E49.75202
G1 X90.91 Y77.157 E49.7662
G1 X90.747 Y77.584 E49.7814
G1 X90.699 Y78.001 E49.79536
G1 X90.751 Y78.428 E49.80967
G1 X90.904 Y78.833 E49.82406
G1 X91.146 Y79.185 E49.83827
G1 X91.494 Y79.492 E49.85371
G1 X91.872 Y79.689 E49.86788
G1 X92.286 Y79.789 E49.88205
G1 X92.711 Y79.788 E49.89619
G1 X93.126 Y79.688 E49.91038
G1 X93.538 Y79.47 E49.92589
G1 X93.855 Y79.186 E49.94004
G1 X94.097 Y78.834 E49.95425
G1 X94.246 Y78.435 E49.96842
G1 X94.302 Y78 E49.983
M204 S5000
M205 X30 Y30
G0 F7200 X94.278 Y77.802
G0 X94.371 Y76.809
G0 X94.182 Y76.518
G0 X93.779 Y76.159
G0 X93.303 Y75.906
G0 X92.781 Y75.775
G0 X92.249 Y75.772
G0 X91.688 Y75.908
G0 X91.216 Y76.161
G0 X90.821 Y76.514
G0 X90.518 Y76.951
G0 X90.317 Y77.479
G0 X90.256 Y78.002
G0 X90.322 Y78.533
G0 X90.512 Y79.038
G0 X90.784 Y79.434
G0 X94.33 Y82.33
G0 X94.8 Y82.8
M204 S500
M205 X20 Y20
G1 F1200 X73.2 Y82.8 E50.70142
G1 X73.2 Y73.2 E51.02072
G1 X94.8 Y73.2 E51.73914
G1 X94.8 Y82.8 E52.05844
M204 S5000
M205 X30 Y30
G0 F7200 X94.6 Y82.8
G0 X94.33 Y82.33
G0 X94.01 Y82.01
M204 S500
M205 X20 Y20
;TYPE:SKIN
G1 F1200 X73.99 Y82.01 E52.7243
G1 X73.99 Y80.106 E52.78763
G1 X74.024 Y80.136 E52.78914
G1 X74.578 Y80.428 E52.80997
G1 X75.189 Y80.578 E52.83089
G1 X75.811 Y80.578 E52.85158
G1 X76.422 Y80.428 E52.87251
G1 X76.976 Y80.136 E52.89334
G1 X77.443 Y79.722 E52.91409
G1 X77.798 Y79.208 E52.93487
G1 X78.022 Y78.62 E52.9558
