;FLAVOR:Marlin
;TIME:409
;Filament used: 0.399269m
;Layer height: 0.2
;Generated with Cura_SteamEngine 3.4.1
M190 S60
M104 S205
M109 S205
M82 ;absolute extrusion mode
; Pefix G-Code for most 200mm x 200mm 3D printers by www.DIY3DTech.com to clean nozzle
; Place as start G-Code in Slicer
; Use of this code is at your own risk (no warranties made or implied)
;
M117 Clean ; Indicate nozzle clean in progress on LCD
M107 ; Turn layer fan off
G21 ; Set to metric [change to G20 if you want Imperial]
G90                          ; Force coordinates to be absolute relative to the origin
G28                          ; Home X/Y/Z axis
G0 X1 Y0 Z0.15 F9000         ; Move in 1mm from edge and up [z] 0.15mm
G92 E0                       ; Set extruder to [0] zero
G1 Y190 E50 F500             ; Extrude 100mm filiment along Y axis 190mm long to prime and clean the nozzle
G92 E0                       ; Reset extruder to [0] zero end of cleaning run
G1 E-3 F500                  ; Retract filiment by 3 mm to reduce string effect
G1 X3 Y190 Z15 F9000      ; Move over and rise to safe Z height
G1 X3 Y0 Z15 F9000 ; Move back to front of bed at safe Z height to shear strings
;
; Ensure extruder is not reset by other code or it will be 3mm short [see next line also]
;G1 E3 F500 ; Uncomment if you believe exruder will be reset
; Recommend turning off SKIRT in the slicer to avoid strings pulled into first layer
M117 Printing ; Indicate printing on LCD
; Begin printing with sliced GCode after here
G92 E0
G1 F3000 E-8
;LAYER_COUNT:10
;LAYER:0
M107
M204 S5000
M205 X30 Y30
G0 F3600 X81.243 Y95.068 Z0.2
M204 S500
M205 X20 Y20
;TYPE:SKIRT
G1 F3000 E0
G1 F1800 X81.825 Y94.653 E0.02377
G1 X82.45 Y94.304 E0.04758
G1 X83.11 Y94.028 E0.07138
G1 X83.796 Y93.827 E0.09515
G1 X84.501 Y93.704 E0.11896
G1 X85.249 Y93.66 E0.14388
G1 X116.751 Y93.66 E1.19164
G1 X117.465 Y93.7 E1.21542
G1 X118.17 Y93.819 E1.2392
G1 X118.858 Y94.017 E1.26301
G1 X119.519 Y94.29 E1.2868
G1 X120.146 Y94.634 E1.31059
G1 X120.73 Y95.047 E1.33438
G1 X121.264 Y95.522 E1.35815
G1 X121.743 Y96.054 E1.38196
G1 X122.158 Y96.636 E1.40573
G1 X122.507 Y97.261 E1.42954
G1 X122.783 Y97.921 E1.45334
G1 X122.984 Y98.607 E1.47711
G1 X123.107 Y99.312 E1.50091
G1 X123.151 Y100.06 E1.52584
G1 X123.152 Y119.94 E2.18705
G1 X123.112 Y120.654 E2.21083
G1 X122.993 Y121.359 E2.23461
G1 X122.795 Y122.047 E2.25842
G1 X122.523 Y122.708 E2.2822
G1 X122.178 Y123.334 E2.30597
G1 X121.765 Y123.919 E2.32979
G1 X121.29 Y124.453 E2.35356
G1 X120.758 Y124.931 E2.37735
G1 X120.176 Y125.347 E2.40114
G1 X119.551 Y125.695 E2.42493
G1 X118.891 Y125.972 E2.44874
G1 X118.205 Y126.173 E2.47252
G1 X117.5 Y126.296 E2.49632
G1 X116.75 Y126.34 E2.52131
G1 X85.247 Y126.328 E3.5691
G1 X84.532 Y126.288 E3.59292
G1 X83.827 Y126.168 E3.6167
G1 X83.14 Y125.97 E3.64048
G1 X82.479 Y125.697 E3.66427
G1 X81.852 Y125.352 E3.68807
G1 X81.268 Y124.939 E3.71186
G1 X80.734 Y124.464 E3.73563
G1 X80.256 Y123.932 E3.75942
G1 X79.84 Y123.35 E3.78322
G1 X79.492 Y122.725 E3.80701
G1 X79.216 Y122.065 E3.8308
G1 X79.015 Y121.378 E3.85461
G1 X78.893 Y120.674 E3.87837
G1 X78.849 Y119.928 E3.90323
G1 X78.849 Y100.06 E4.56404
G1 X78.889 Y99.346 E4.58783
G1 X79.008 Y98.641 E4.61161
G1 X79.206 Y97.953 E4.63542
G1 X79.479 Y97.292 E4.6592
G1 X79.823 Y96.665 E4.68299
G1 X80.236 Y96.081 E4.70678
G1 X80.711 Y95.547 E4.73055
G1 X81.243 Y95.068 E4.75436
M204 S5000
M205 X30 Y30
G0 F3600 X81.633 Y95.272
M204 S500
M205 X20 Y20
G1 F1800 X82.208 Y94.887 E4.77738
G1 X82.825 Y94.572 E4.80042
G1 X83.473 Y94.329 E4.82344
G1 X84.146 Y94.162 E4.8465
G1 X84.832 Y94.074 E4.8695
G1 X85.249 Y94.06 E4.88338
G1 X116.751 Y94.06 E5.93114
G1 X117.442 Y94.1 E5.95416
G1 X118.125 Y94.219 E5.97722
G1 X118.788 Y94.417 E6.00023
G1 X119.425 Y94.689 E6.02327
G1 X120.026 Y95.033 E6.0463
G1 X120.584 Y95.444 E6.06935
G1 X121.09 Y95.916 E6.09237
G1 X121.539 Y96.444 E6.11542
G1 X121.924 Y97.019 E6.13844
G1 X122.239 Y97.636 E6.16148
G1 X122.482 Y98.284 E6.1845
G1 X122.649 Y98.957 E6.20756
G1 X122.737 Y99.643 E6.23056
G1 X122.751 Y100.06 E6.24444
G1 X122.752 Y119.94 E6.90565
G1 X122.712 Y120.631 E6.92867
G1 X122.593 Y121.313 E6.9517
G1 X122.396 Y121.977 E6.97474
G1 X122.123 Y122.614 E6.99779
G1 X121.779 Y123.215 E7.02082
G1 X121.369 Y123.772 E7.04382
G1 X120.896 Y124.279 E7.06688
G1 X120.369 Y124.728 E7.08991
G1 X119.793 Y125.112 E7.11294
G1 X119.177 Y125.428 E7.13596
G1 X118.528 Y125.671 E7.15901
G1 X117.856 Y125.838 E7.18204
G1 X117.169 Y125.926 E7.20508
G1 X116.75 Y125.94 E7.21902
G1 X85.247 Y125.928 E8.26682
G1 X84.555 Y125.888 E8.28987
G1 X83.873 Y125.768 E8.3129
G1 X83.209 Y125.571 E8.33594
G1 X82.573 Y125.298 E8.35896
G1 X81.972 Y124.954 E8.38199
G1 X81.415 Y124.543 E8.40501
G1 X80.908 Y124.07 E8.42808
G1 X80.46 Y123.543 E8.45108
G1 X80.075 Y122.967 E8.47413
G1 X79.76 Y122.35 E8.49717
G1 X79.517 Y121.702 E8.52019
G1 X79.351 Y121.029 E8.54324
G1 X79.263 Y120.342 E8.56628
G1 X79.249 Y119.928 E8.58005
G1 X79.249 Y100.06 E9.24087
G1 X79.289 Y99.369 E9.26389
G1 X79.408 Y98.686 E9.28695
G1 X79.606 Y98.023 E9.30996
G1 X79.878 Y97.386 E9.333
G1 X80.222 Y96.785 E9.35603
G1 X80.633 Y96.227 E9.37908
G1 X81.105 Y95.721 E9.4021
G1 X81.633 Y95.272 E9.42515
M204 S5000
M205 X30 Y30
G0 F3600 X81.498 Y95.902
M204 S500
M205 X20 Y20
G1 F1800 X82.02 Y95.484 E9.44739
G1 X82.589 Y95.132 E9.46964
G1 X83.196 Y94.85 E9.4919
G1 X83.832 Y94.642 E9.51416
G1 X84.488 Y94.512 E9.5364
G1 X85.249 Y94.46 E9.56177
G1 X116.751 Y94.46 E10.60953
G1 X117.419 Y94.5 E10.63179
G1 X118.077 Y94.619 E10.65403
G1 X118.717 Y94.816 E10.6763
G1 X119.328 Y95.088 E10.69855
G1 X119.902 Y95.431 E10.72079
G1 X120.432 Y95.84 E10.74306
G1 X120.909 Y96.309 E10.7653
G1 X121.327 Y96.831 E10.78755
G1 X121.679 Y97.4 E10.8098
G1 X121.961 Y98.007 E10.83206
G1 X122.169 Y98.643 E10.85432
G1 X122.299 Y99.299 E10.87656
G1 X122.351 Y100.06 E10.90193
G1 X122.352 Y119.94 E11.56314
G1 X122.312 Y120.608 E11.5854
G1 X122.193 Y121.266 E11.60764
G1 X121.996 Y121.905 E11.62988
G1 X121.724 Y122.517 E11.65216
G1 X121.381 Y123.091 E11.6744
G1 X120.972 Y123.621 E11.69666
G1 X120.503 Y124.098 E11.71891
G1 X119.981 Y124.515 E11.74113
G1 X119.412 Y124.868 E11.7634
G1 X118.805 Y125.15 E11.78567
G1 X118.169 Y125.358 E11.80792
G1 X117.513 Y125.488 E11.83016
G1 X116.75 Y125.54 E11.8556
G1 X85.247 Y125.528 E12.90339
G1 X84.579 Y125.488 E12.92565
G1 X83.921 Y125.368 E12.9479
G1 X83.281 Y125.171 E12.97017
G1 X82.67 Y124.899 E12.99242
G1 X82.096 Y124.556 E13.01466
G1 X81.566 Y124.147 E13.03692
G1 X81.09 Y123.678 E13.05915
G1 X80.672 Y123.155 E13.08142
G1 X80.32 Y122.586 E13.10367
G1 X80.038 Y121.979 E13.12593
G1 X79.831 Y121.343 E13.14818
G1 X79.701 Y120.687 E13.17042
G1 X79.649 Y119.928 E13.19572
G1 X79.649 Y100.06 E13.85654
G1 X79.689 Y99.392 E13.87879
G1 X79.808 Y98.734 E13.90103
G1 X80.005 Y98.094 E13.9233
G1 X80.277 Y97.483 E13.94555
G1 X80.62 Y96.909 E13.96779
G1 X81.029 Y96.379 E13.99006
G1 X81.498 Y95.902 E14.01231
M204 S5000
M205 X30 Y30
G0 F3600 X81.889 Y96.091
M204 S500
M205 X20 Y20
G1 F1800 X82.406 Y95.706 E14.03375
G1 X82.967 Y95.387 E14.05521
G1 X83.563 Y95.141 E14.07665
G1 X84.184 Y94.97 E14.09808
G1 X84.822 Y94.878 E14.11952
G1 X85.249 Y94.86 E14.13373
G1 X116.751 Y94.86 E15.18149
G1 X117.394 Y94.9 E15.20292
G1 X118.028 Y95.019 E15.22438
G1 X118.642 Y95.216 E15.24582
G1 X119.227 Y95.487 E15.26727
G1 X119.774 Y95.829 E15.28872
G1 X120.274 Y96.235 E15.31015
G1 X120.72 Y96.7 E15.33158
G1 X121.105 Y97.217 E15.35301
G1 X121.424 Y97.778 E15.37448
G1 X121.67 Y98.374 E15.39592
G1 X121.841 Y98.995 E15.41735
G1 X121.933 Y99.633 E15.43879
G1 X121.951 Y100.06 E15.453
G1 X121.952 Y119.94 E16.11421
G1 X121.912 Y120.583 E16.13564
G1 X121.793 Y121.217 E16.1571
G1 X121.596 Y121.831 E16.17854
G1 X121.325 Y122.416 E16.19999
G1 X120.983 Y122.962 E16.22142
G1 X120.577 Y123.463 E16.24286
G1 X120.112 Y123.909 E16.26429
G1 X119.595 Y124.294 E16.28573
G1 X119.034 Y124.612 E16.30718
G1 X118.439 Y124.859 E16.32861
G1 X117.817 Y125.03 E16.35006
G1 X117.179 Y125.122 E16.3715
G1 X116.75 Y125.14 E16.38578
G1 X85.247 Y125.128 E17.43358
G1 X84.604 Y125.088 E17.45501
G1 X83.97 Y124.968 E17.47647
G1 X83.356 Y124.771 E17.49791
G1 X82.772 Y124.5 E17.51933
G1 X82.225 Y124.158 E17.54078
G1 X81.725 Y123.751 E17.56223
G1 X81.279 Y123.286 E17.58366
G1 X80.894 Y122.769 E17.6051
G1 X80.576 Y122.208 E17.62655
G1 X80.329 Y121.612 E17.648
G1 X80.159 Y120.991 E17.66942
G1 X80.066 Y120.353 E17.69086
G1 X80.049 Y119.928 E17.70501
G1 X80.049 Y100.06 E18.36582
G1 X80.089 Y99.417 E18.38725
G1 X80.208 Y98.783 E18.4087
G1 X80.405 Y98.169 E18.43015
G1 X80.676 Y97.584 E18.45159
G1 X81.018 Y97.037 E18.47305
G1 X81.424 Y96.537 E18.49447
G1 X81.889 Y96.091 E18.5159
M204 S5000
M205 X30 Y30
G1 F3000 E10.5159
G0 F3600 X85.853 Y99.385
G0 X85.853 Y100.664
G0 X97.761 Y118.75
M204 S500
M205 X20 Y20
;TYPE:WALL-INNER
G1 F3000 E18.5159
G1 F1800 X97.761 Y118.95 E18.52256
G1 X97.561 Y118.95 E18.52686
G1 X86.24 Y118.95 E18.9034
G1 X86.239 Y101.25 E19.4921
G1 X86.239 Y101.05 E19.49876
G1 X86.439 Y101.05 E19.50306
G1 X97.76 Y101.05 E19.8796
G1 X97.761 Y118.75 E20.46831
M204 S5000
M205 X30 Y30
G0 F3600 X98.161 Y119.15
M204 S500
M205 X20 Y20
G1 F1800 X98.161 Y119.35 E20.47496
G1 X97.961 Y119.35 E20.47927
G1 X85.84 Y119.35 E20.88241
G1 X85.839 Y100.85 E21.49772
G1 X85.839 Y100.65 E21.50438
G1 X86.039 Y100.65 E21.50868
G1 X98.16 Y100.65 E21.91183
G1 X98.161 Y119.15 E22.52714
M204 S5000
M205 X30 Y30
G0 F3600 X98.561 Y119.55
M204 S500
M205 X20 Y20
;TYPE:WALL-OUTER
G1 F1800 X98.561 Y119.75 E22.53379
G1 X98.361 Y119.75 E22.5381
G1 X85.44 Y119.75 E22.96786
G1 X85.439 Y100.45 E23.60978
G1 X85.439 Y100.25 E23.61643
G1 X85.639 Y100.25 E23.62074
G1 X98.56 Y100.25 E24.05049
G1 X98.561 Y119.55 E24.69241
M204 S5000
M205 X30 Y30
G0 F3600 X98.561 Y119.75
G0 X98.091 Y119.28
G0 X97.371 Y118.56
M204 S500
M205 X20 Y20
;TYPE:SKIN
G1 F1800 X86.63 Y118.56 E25.04966
G1 X86.629 Y101.44 E25.61907
G1 X97.37 Y101.44 E25.97632
G1 X97.371 Y118.56 E26.54573
M204 S5000
M205 X30 Y30
G0 F3600 X87.266 Y118.378
M204 S500
M205 X20 Y20
G1 F1800 X86.809 Y117.922 E26.5672
M204 S5000
M205 X30 Y30
G0 F3600 X86.809 Y117.356
M204 S500
M205 X20 Y20
G1 F1800 X87.831 Y118.378 E26.61528
G1 X87.901 Y118.448
M204 S5000
M205 X30 Y30
G0 F3600 X88.397 Y118.378
M204 S500
M205 X20 Y20
G1 F1800 X86.809 Y116.79 E26.68997
G1 X86.739 Y116.72
M204 S5000
M205 X30 Y30
G0 F3600 X86.809 Y116.225
M204 S500
M205 X20 Y20
G1 F1800 X88.963 Y118.378 E26.79126
G1 X89.033 Y118.448
M204 S5000
M205 X30 Y30
G0 F3600 X89.528 Y118.378
M204 S500
M205 X20 Y20
G1 F1800 X86.809 Y115.659 E26.91916
G1 X86.739 Y115.589
M204 S5000
M205 X30 Y30
G0 F3600 X86.809 Y115.093
M204 S500
M205 X20 Y20
G1 F1800 X90.094 Y118.378 E27.07367
G1 X90.164 Y118.448
M204 S5000
M205 X30 Y30
G0 F3600 X90.66 Y118.378
M204 S500
M205 X20 Y20
G1 F1800 X86.809 Y114.527 E27.25481
G1 X86.739 Y114.457
M204 S5000
M205 X30 Y30
G0 F3600 X86.809 Y113.962
M204 S500
M205 X20 Y20
G1 F1800 X91.225 Y118.378 E27.46253
G1 X91.295 Y118.448
M204 S5000
M205 X30 Y30
G0 F3600 X91.791 Y118.378
M204 S500
M205 X20 Y20
G1 F1800 X86.809 Y113.396 E27.69687
G1 X86.739 Y113.326
M204 S5000
M205 X30 Y30
G0 F3600 X86.809 Y112.83
M204 S500
M205 X20 Y20
G1 F1800 X92.357 Y118.378 E27.95783
G1 X92.427 Y118.448
M204 S5000
M205 X30 Y30
G0 F3600 X92.923 Y118.378
M204 S500
M205 X20 Y20
G1 F1800 X86.809 Y112.265 E28.24539
G1 X86.739 Y112.195
M204 S5000
M205 X30 Y30
G0 F3600 X86.809 Y111.699
M204 S500
M205 X20 Y20
G1 F1800 X93.488 Y118.378 E28.55955
G1 X93.558 Y118.448
M204 S5000
M205 X30 Y30
G0 F3600 X94.054 Y118.378
M204 S500
M205 X20 Y20
G1 F1800 X86.809 Y111.133 E28.90033
G1 X86.739 Y111.063
M204 S5000
M205 X30 Y30
G0 F3600 X86.809 Y110.568
M204 S500
M205 X20 Y20
G1 F1800 X94.62 Y118.378 E29.26771
G1 X94.69 Y118.448
M204 S5000
M205 X30 Y30
G0 F3600 X95.185 Y118.378
M204 S500
M205 X20 Y20
G1 F1800 X86.809 Y110.002 E29.66169
G1 X86.739 Y109.932
M204 S5000
M205 X30 Y30
G0 F3600 X86.809 Y109.436
M204 S500
M205 X20 Y20
G1 F1800 X95.751 Y118.378 E30.0823
G1 X95.821 Y118.448
M204 S5000
M205 X30 Y30
G0 F3600 X96.317 Y118.378
M204 S500
M205 X20 Y20
G1 F1800 X86.809 Y108.871 E30.5295
G1 X86.739 Y108.801
M204 S5000
M205 X30 Y30
G0 F3600 X86.809 Y108.305
M204 S500
M205 X20 Y20
G1 F1800 X96.882 Y118.378 E31.0033
G1 X96.952 Y118.448
M204 S5000
M205 X30 Y30
G0 F3600 X97.191 Y118.121
M204 S500
M205 X20 Y20
G1 F1800 X86.809 Y107.739 E31.49164
G1 X86.739 Y107.669
M204 S5000
M205 X30 Y30
G0 F3600 X86.809 Y107.174
M204 S500
M205 X20 Y20
G1 F1800 X97.191 Y117.555 E31.97996
G1 X97.261 Y117.625
M204 S5000
M205 X30 Y30
G0 F3600 X97.191 Y116.99
M204 S500
M205 X20 Y20
G1 F1800 X86.809 Y106.608 E32.46829
G1 X86.739 Y106.538
M204 S5000
M205 X30 Y30
G0 F3600 X86.809 Y106.042
M204 S500
M205 X20 Y20
G1 F1800 X97.191 Y116.424 E32.95663
G1 X97.261 Y116.494
M204 S5000
M205 X30 Y30
G0 F3600 X97.191 Y115.858
M204 S500
M205 X20 Y20
G1 F1800 X86.809 Y105.476 E33.44497
G1 X86.739 Y105.406
M204 S5000
M205 X30 Y30
G0 F3600 X86.809 Y104.911
M204 S500
M205 X20 Y20
G1 F1800 X97.191 Y115.293 E33.93331
G1 X97.261 Y115.363
M204 S5000
M205 X30 Y30
G0 F3600 X97.191 Y114.727
M204 S500
M205 X20 Y20
G1 F1800 X86.809 Y104.345 E34.42164
G1 X86.739 Y104.275
M204 S5000
M205 X30 Y30
G0 F3600 X86.809 Y103.779
M204 S500
M205 X20 Y20
G1 F1800 X97.191 Y114.161 E34.90998
G1 X97.261 Y114.231
M204 S5000
M205 X30 Y30
G0 F3600 X97.191 Y113.595
M204 S500
M205 X20 Y20
G1 F1800 X86.809 Y103.214 E35.39829
G1 X86.739 Y103.144
M204 S5000
M205 X30 Y30
G0 F3600 X86.809 Y102.648
M204 S500
M205 X20 Y20
G1 F1800 X97.191 Y113.03 E35.88663
G1 X97.261 Y113.1
M204 S5000
M205 X30 Y30
G0 F3600 X97.191 Y112.464
M204 S500
M205 X20 Y20
G1 F1800 X86.809 Y102.082 E36.37497
G1 X86.739 Y102.012
M204 S5000
M205 X30 Y30
G0 F3600 X86.911 Y101.619
M204 S500
M205 X20 Y20
G1 F1800 X97.191 Y111.898 E36.85848
G1 X97.261 Y111.968
M204 S5000
M205 X30 Y30
G0 F3600 X97.191 Y111.333
M204 S500
M205 X20 Y20
G1 F1800 X87.476 Y101.619 E37.31543
G1 X87.406 Y101.549
M204 S5000
M205 X30 Y30
G0 F3600 X88.042 Y101.619
M204 S500
M205 X20 Y20
G1 F1800 X97.191 Y110.767 E37.74574
G1 X97.261 Y110.837
M204 S5000
M205 X30 Y30
G0 F3600 X97.191 Y110.201
M204 S500
M205 X20 Y20
G1 F1800 X88.608 Y101.619 E38.14944
G1 X88.538 Y101.549
M204 S5000
M205 X30 Y30
G0 F3600 X89.173 Y101.619
M204 S500
M205 X20 Y20
G1 F1800 X97.19 Y109.635 E38.52651
G1 X97.26 Y109.705
M204 S5000
M205 X30 Y30
G0 F3600 X97.19 Y109.069
M204 S500
M205 X20 Y20
G1 F1800 X89.739 Y101.619 E38.87696
G1 X89.669 Y101.549
M204 S5000
M205 X30 Y30
G0 F3600 X90.305 Y101.619
M204 S500
M205 X20 Y20
G1 F1800 X97.19 Y108.504 E39.20081
G1 X97.26 Y108.574
M204 S5000
M205 X30 Y30
G0 F3600 X97.19 Y107.938
M204 S500
M205 X20 Y20
G1 F1800 X90.87 Y101.619 E39.49806
G1 X90.8 Y101.549
M204 S5000
M205 X30 Y30
G0 F3600 X91.436 Y101.619
M204 S500
M205 X20 Y20
G1 F1800 X97.19 Y107.372 E39.76868
G1 X97.26 Y107.442
M204 S5000
M205 X30 Y30
G0 F3600 X97.19 Y106.807
M204 S500
M205 X20 Y20
G1 F1800 X92.002 Y101.619 E40.01271
G1 X91.932 Y101.549
M204 S5000
M205 X30 Y30
G0 F3600 X92.568 Y101.619
M204 S500
M205 X20 Y20
G1 F1800 X97.19 Y106.241 E40.23012
G1 X97.26 Y106.311
M204 S5000
M205 X30 Y30
G0 F3600 X97.19 Y105.675
M204 S500
M205 X20 Y20
G1 F1800 X93.133 Y101.619 E40.42092
G1 X93.063 Y101.549
M204 S5000
M205 X30 Y30
G0 F3600 X93.699 Y101.619
M204 S500
M205 X20 Y20
G1 F1800 X97.19 Y105.11 E40.58513
G1 X97.26 Y105.18
M204 S5000
M205 X30 Y30
G0 F3600 X97.19 Y104.544
M204 S500
M205 X20 Y20
G1 F1800 X94.265 Y101.619 E40.72271
G1 X94.195 Y101.549
M204 S5000
M205 X30 Y30
G0 F3600 X94.83 Y101.619
M204 S500
M205 X20 Y20
G1 F1800 X97.19 Y103.978 E40.83369
G1 X97.26 Y104.048
M204 S5000
M205 X30 Y30
G0 F3600 X97.19 Y103.412
M204 S500
M205 X20 Y20
G1 F1800 X95.396 Y101.619 E40.91805
G1 X95.326 Y101.549
M204 S5000
M205 X30 Y30
G0 F3600 X95.962 Y101.619
M204 S500
M205 X20 Y20
G1 F1800 X97.19 Y102.847 E40.97582
G1 X97.26 Y102.917
M204 S5000
M205 X30 Y30
G0 F3600 X97.19 Y102.281
M204 S500
M205 X20 Y20
G1 F1800 X96.527 Y101.619 E41.00698
G1 X96.457 Y101.549
M204 S5000
M205 X30 Y30
G0 F3600 X97.093 Y101.619
M204 S500
M205 X20 Y20
G1 F1800 X97.19 Y101.715 E41.01152
