;FLAVOR:Marlin
;TIME:472
;Filament used: 0.333841m
;Layer height: 0.2
;Generated with Cura_SteamEngine 3.4.1
M190 S65
M104 S200
M109 S200
M82 ;absolute extrusion mode
; Pefix G-Code for most 200mm x 200mm 3D printers by www.DIY3DTech.com to clean nozzle
; Place as start G-Code in Slicer
; Use of this code is at your own risk (no warranties made or implied)
;
M117 Clean ; Indicate nozzle clean in progress on LCD
M107 ; Turn layer fan off
G21 ; Set to metric [change to G20 if you want Imperial]
G90                          ; Force coordinates to be absolute relative to the origin
G28                          ; Home X/Y/Z axis
G0 X1 Y0 Z0.15 F9000         ; Move in 1mm from edge and up [z] 0.15mm
G92 E0                       ; Set extruder to [0] zero
G1 Y190 E50 F500             ; Extrude 100mm filiment along Y axis 190mm long to prime and clean the nozzle
G92 E0                       ; Reset extruder to [0] zero end of cleaning run
G1 E-3 F500                  ; Retract filiment by 3 mm to reduce string effect
G1 X3 Y190 Z15 F9000      ; Move over and rise to safe Z height
G1 X3 Y0 Z15 F9000 ; Move back to front of bed at safe Z height to shear strings
;
; Ensure extruder is not reset by other code or it will be 3mm short [see next line also]
;G1 E3 F500 ; Uncomment if you believe exruder will be reset
; Recommend turning off SKIRT in the slicer to avoid strings pulled into first layer
M117 Printing ; Indicate printing on LCD
; Begin printing with sliced GCode after here
G92 E0
G1 F2400 E-5
;LAYER_COUNT:10
;LAYER:0
M107
M204 S5000
M205 X30 Y30
G0 F7200 X81.245 Y102.065 Z0.2
M204 S500
M205 X20 Y20
;TYPE:SKIRT
G1 F2400 E0
G1 F1800 X81.827 Y101.649 E0.02379
G1 X82.208 Y101.426 E0.03848
G1 X84.719 Y100.069 E0.13341
G1 X89.316 Y97.326 E0.31146
G1 X93.665 Y94.383 E0.48611
G1 X99.324 Y90 E0.72418
G1 X99.913 Y89.594 E0.74798
G1 X100.544 Y89.257 E0.77177
G1 X101.209 Y88.992 E0.79558
G1 X101.898 Y88.803 E0.81934
G1 X102.605 Y88.692 E0.84314
G1 X103.246 Y88.66 E0.86449
G1 X116.768 Y88.667 E1.31423
G1 X117.482 Y88.707 E1.33802
G1 X118.188 Y88.827 E1.36184
G1 X118.875 Y89.025 E1.38562
G1 X119.536 Y89.298 E1.4094
G1 X120.162 Y89.643 E1.43318
G1 X120.792 Y90.093 E1.45893
G1 X123.084 Y91.948 E1.557
G1 X127.374 Y95.12 E1.73445
G1 X131.785 Y98.011 E1.90987
G1 X137.891 Y101.479 E2.14342
G1 X138.492 Y101.866 E2.1672
G1 X139.046 Y102.319 E2.191
G1 X139.547 Y102.83 E2.2148
G1 X139.987 Y103.393 E2.23857
G1 X140.361 Y104.003 E2.26236
G1 X140.665 Y104.65 E2.28614
G1 X140.896 Y105.327 E2.30993
G1 X141.049 Y106.026 E2.33373
G1 X141.13 Y107.022 E2.36697
G1 X141.15 Y112.919 E2.56311
G1 X141.112 Y113.634 E2.58692
G1 X140.995 Y114.339 E2.61069
G1 X140.8 Y115.027 E2.63447
G1 X140.53 Y115.689 E2.65825
G1 X140.187 Y116.317 E2.68205
G1 X139.776 Y116.903 E2.70586
G1 X139.303 Y117.439 E2.72963
G1 X138.773 Y117.919 E2.75342
G1 X138.192 Y118.337 E2.77722
G1 X137.873 Y118.527 E2.78957
G1 X132.914 Y121.3 E2.97855
G1 X128.433 Y124.151 E3.15519
G1 X126.323 Y125.624 E3.24078
G1 X120.675 Y129.999 E3.4784
G1 X120.086 Y130.405 E3.50219
G1 X119.456 Y130.743 E3.52597
G1 X118.791 Y131.008 E3.54978
G1 X118.102 Y131.197 E3.57354
G1 X117.395 Y131.308 E3.59735
G1 X116.754 Y131.34 E3.61869
G1 X85.246 Y131.328 E4.66665
G1 X84.531 Y131.288 E4.69047
G1 X83.826 Y131.168 E4.71426
G1 X83.139 Y130.97 E4.73804
G1 X82.478 Y130.697 E4.76182
G1 X81.851 Y130.352 E4.78563
G1 X81.267 Y129.939 E4.80942
G1 X80.733 Y129.464 E4.83319
G1 X80.255 Y128.932 E4.85697
G1 X79.839 Y128.35 E4.88077
G1 X79.491 Y127.725 E4.90456
G1 X79.215 Y127.065 E4.92836
G1 X79.014 Y126.378 E4.95216
G1 X78.892 Y125.674 E4.97593
G1 X78.848 Y124.927 E5.00082
G1 X78.85 Y107.056 E5.59521
G1 X78.89 Y106.342 E5.61899
G1 X79.01 Y105.637 E5.64278
G1 X79.207 Y104.949 E5.66658
G1 X79.48 Y104.288 E5.69037
G1 X79.825 Y103.662 E5.71414
G1 X80.238 Y103.078 E5.73793
G1 X80.713 Y102.543 E5.76173
G1 X81.245 Y102.065 E5.78551
M204 S5000
M205 X30 Y30
G0 F7200 X81.634 Y102.269
M204 S500
M205 X20 Y20
G1 F1800 X82.398 Y101.778 E5.81572
G1 X84.926 Y100.412 E5.91129
G1 X89.519 Y97.671 E6.08919
G1 X93.902 Y94.705 E6.26521
G1 X99.569 Y90.316 E6.50361
G1 X100.14 Y89.924 E6.52665
G1 X100.753 Y89.601 E6.5497
G1 X101.398 Y89.351 E6.5727
G1 X102.069 Y89.176 E6.59577
G1 X102.754 Y89.08 E6.61877
G1 X103.246 Y89.06 E6.63515
G1 X116.768 Y89.067 E7.0849
G1 X117.459 Y89.107 E7.10792
G1 X118.142 Y89.227 E7.13098
G1 X118.805 Y89.425 E7.154
G1 X119.442 Y89.697 E7.17703
G1 X120.043 Y90.041 E7.20006
G1 X120.54 Y90.403 E7.22051
G1 X122.855 Y92.277 E7.31958
G1 X127.142 Y95.447 E7.49691
G1 X131.579 Y98.354 E7.67334
G1 X137.693 Y101.827 E7.90721
G1 X138.275 Y102.203 E7.93026
G1 X138.809 Y102.644 E7.95329
G1 X139.289 Y103.143 E7.97632
G1 X139.708 Y103.694 E7.99934
G1 X140.061 Y104.29 E8.02238
G1 X140.343 Y104.923 E8.04543
G1 X140.55 Y105.584 E8.06847
G1 X140.679 Y106.264 E8.09149
G1 X140.73 Y107.024 E8.11682
G1 X140.75 Y112.921 E8.31296
G1 X140.712 Y113.612 E8.33598
G1 X140.595 Y114.295 E8.35902
G1 X140.4 Y114.959 E8.38204
G1 X140.13 Y115.597 E8.40508
G1 X139.788 Y116.199 E8.42811
G1 X139.379 Y116.758 E8.45115
G1 X138.909 Y117.266 E8.47417
G1 X138.383 Y117.716 E8.49719
G1 X137.678 Y118.178 E8.52523
G1 X132.709 Y120.956 E8.71457
G1 X128.206 Y123.822 E8.8921
G1 X126.089 Y125.299 E8.97796
G1 X120.43 Y129.683 E9.21605
G1 X119.859 Y130.075 E9.23909
G1 X119.247 Y130.398 E9.2621
G1 X118.601 Y130.649 E9.28515
G1 X117.931 Y130.824 E9.30818
G1 X117.245 Y130.92 E9.33122
G1 X116.754 Y130.94 E9.34757
G1 X85.246 Y130.928 E10.39553
G1 X84.554 Y130.888 E10.41858
G1 X83.872 Y130.768 E10.44161
G1 X83.208 Y130.571 E10.46465
G1 X82.572 Y130.298 E10.48767
G1 X81.971 Y129.954 E10.5107
G1 X81.414 Y129.543 E10.53373
G1 X80.907 Y129.07 E10.55679
G1 X80.459 Y128.543 E10.57979
G1 X80.074 Y127.967 E10.60284
G1 X79.759 Y127.35 E10.62588
G1 X79.516 Y126.702 E10.6489
G1 X79.35 Y126.029 E10.67195
G1 X79.262 Y125.342 E10.69499
G1 X79.248 Y124.927 E10.7088
G1 X79.25 Y107.056 E11.30319
G1 X79.29 Y106.365 E11.32621
G1 X79.409 Y105.683 E11.34924
G1 X79.607 Y105.019 E11.37228
G1 X79.879 Y104.382 E11.39532
G1 X80.223 Y103.781 E11.41835
G1 X80.634 Y103.224 E11.44138
G1 X81.107 Y102.717 E11.46444
G1 X81.634 Y102.269 E11.48744
M204 S5000
M205 X30 Y30
G0 F7200 X81.499 Y102.899
M204 S500
M205 X20 Y20
G1 F1800 X82.022 Y102.481 E11.50971
G1 X82.588 Y102.13 E11.53186
G1 X85.115 Y100.765 E11.62739
G1 X89.735 Y98.008 E11.80633
G1 X94.139 Y95.027 E11.98321
G1 X99.814 Y90.632 E12.22195
G1 X100.367 Y90.255 E12.24421
G1 X100.96 Y89.946 E12.26645
G1 X101.586 Y89.711 E12.28869
G1 X102.236 Y89.551 E12.31095
G1 X102.9 Y89.47 E12.3332
G1 X103.246 Y89.46 E12.34471
G1 X116.768 Y89.467 E12.79446
G1 X117.436 Y89.507 E12.81672
G1 X118.094 Y89.627 E12.83896
G1 X118.733 Y89.824 E12.8612
G1 X119.344 Y90.096 E12.88345
G1 X119.919 Y90.44 E12.90573
G1 X120.288 Y90.714 E12.92102
G1 X122.598 Y92.584 E13.01987
G1 X126.919 Y95.779 E13.19861
G1 X131.369 Y98.695 E13.37556
G1 X137.496 Y102.175 E13.60992
G1 X138.057 Y102.539 E13.63216
G1 X138.57 Y102.968 E13.65441
G1 X139.029 Y103.455 E13.67666
G1 X139.426 Y103.993 E13.6989
G1 X139.756 Y104.575 E13.72116
G1 X140.015 Y105.192 E13.74341
G1 X140.198 Y105.836 E13.76568
G1 X140.303 Y106.496 E13.78791
G1 X140.33 Y107.025 E13.80552
G1 X140.35 Y112.922 E14.00166
G1 X140.312 Y113.59 E14.02391
G1 X140.195 Y114.249 E14.04618
G1 X140 Y114.889 E14.06843
G1 X139.731 Y115.501 E14.09066
G1 X139.39 Y116.077 E14.11293
G1 X138.983 Y116.608 E14.13518
G1 X138.515 Y117.086 E14.15743
G1 X137.994 Y117.506 E14.17969
G1 X137.483 Y117.829 E14.19979
G1 X132.5 Y120.615 E14.38967
G1 X127.984 Y123.489 E14.56771
G1 X125.855 Y124.975 E14.65407
G1 X120.185 Y129.367 E14.89261
G1 X119.633 Y129.744 E14.91484
G1 X119.04 Y130.053 E14.93708
G1 X118.413 Y130.289 E14.95937
G1 X117.764 Y130.449 E14.9816
G1 X117.1 Y130.529 E15.00384
G1 X116.754 Y130.54 E15.01536
G1 X85.246 Y130.528 E16.06332
G1 X84.578 Y130.488 E16.08557
G1 X83.92 Y130.368 E16.10782
G1 X83.28 Y130.171 E16.13009
G1 X82.669 Y129.899 E16.15234
G1 X82.095 Y129.556 E16.17458
G1 X81.565 Y129.147 E16.19684
G1 X81.089 Y128.678 E16.21907
G1 X80.671 Y128.155 E16.24134
G1 X80.319 Y127.586 E16.26359
G1 X80.037 Y126.979 E16.28585
G1 X79.83 Y126.343 E16.3081
G1 X79.7 Y125.687 E16.33034
G1 X79.648 Y124.927 E16.35568
G1 X79.65 Y107.056 E16.95007
G1 X79.69 Y106.389 E16.97229
G1 X79.809 Y105.73 E16.99457
G1 X80.006 Y105.091 E17.01681
G1 X80.278 Y104.48 E17.03905
G1 X80.621 Y103.905 E17.06132
G1 X81.03 Y103.376 E17.08356
G1 X81.499 Y102.899 E17.10581
M204 S5000
M205 X30 Y30
G0 F7200 X81.891 Y103.088
M204 S500
M205 X20 Y20
G1 F1800 X82.408 Y102.702 E17.12727
G1 X82.778 Y102.482 E17.14159
G1 X85.322 Y101.108 E17.23775
G1 X89.959 Y98.34 E17.41737
G1 X94.369 Y95.356 E17.59447
G1 X100.059 Y90.949 E17.83384
G1 X100.592 Y90.586 E17.85529
G1 X101.166 Y90.293 E17.87673
G1 X101.772 Y90.072 E17.89818
G1 X102.401 Y89.929 E17.91964
G1 X103.246 Y89.86 E17.94783
G1 X116.768 Y89.867 E18.39758
G1 X117.411 Y89.907 E18.41901
G1 X118.045 Y90.027 E18.44047
G1 X118.658 Y90.224 E18.46188
G1 X119.243 Y90.495 E18.48333
G1 X120.037 Y91.025 E18.51508
G1 X122.357 Y92.903 E18.61435
G1 X126.696 Y96.111 E18.79383
G1 X131.151 Y99.031 E18.971
G1 X137.298 Y102.522 E19.20612
G1 X137.838 Y102.875 E19.22757
G1 X138.33 Y103.292 E19.24902
G1 X138.767 Y103.766 E19.27047
G1 X139.141 Y104.29 E19.29188
G1 X139.448 Y104.857 E19.31333
G1 X139.682 Y105.458 E19.33478
G1 X139.84 Y106.083 E19.35622
G1 X139.93 Y107.026 E19.38772
G1 X139.95 Y112.923 E19.58386
G1 X139.912 Y113.567 E19.60532
G1 X139.795 Y114.201 E19.62676
G1 X139.6 Y114.815 E19.64819
G1 X139.331 Y115.401 E19.66963
G1 X138.992 Y115.949 E19.69107
G1 X138.587 Y116.451 E19.71252
G1 X138.123 Y116.899 E19.73397
G1 X137.607 Y117.286 E19.75542
G1 X137.288 Y117.48 E19.76784
G1 X132.296 Y120.271 E19.95806
G1 X127.757 Y123.16 E20.13702
G1 X125.631 Y124.643 E20.22323
G1 X119.941 Y129.051 E20.46263
G1 X119.407 Y129.413 E20.48409
G1 X118.834 Y129.707 E20.50551
G1 X118.228 Y129.927 E20.52695
G1 X117.599 Y130.071 E20.54841
G1 X116.754 Y130.14 E20.57661
G1 X85.246 Y130.128 E21.62457
G1 X84.603 Y130.088 E21.646
G1 X83.969 Y129.968 E21.66746
G1 X83.355 Y129.771 E21.6889
G1 X82.771 Y129.5 E21.71032
G1 X82.224 Y129.158 E21.73177
G1 X81.724 Y128.751 E21.75322
G1 X81.278 Y128.286 E21.77465
G1 X80.893 Y127.769 E21.79609
G1 X80.575 Y127.208 E21.81754
G1 X80.328 Y126.612 E21.83899
G1 X80.158 Y125.991 E21.86041
G1 X80.065 Y125.353 E21.88185
G1 X80.048 Y124.927 E21.89603
G1 X80.05 Y107.056 E22.49042
G1 X80.09 Y106.413 E22.51185
G1 X80.209 Y105.779 E22.53331
G1 X80.406 Y105.166 E22.55472
G1 X80.677 Y104.581 E22.57617
G1 X81.019 Y104.034 E22.59762
G1 X81.426 Y103.534 E22.61907
G1 X81.891 Y103.088 E22.6405
M204 S5000
M205 X30 Y30
G1 F2400 E17.6405
G1 F300 Z1.2
G0 F7200 X98.16 Y112.35 Z1.2
M204 S500
M205 X20 Y20
;TYPE:WALL-INNER
G1 F300 Z0.2
G1 F2400 E22.6405
G1 F1800 X86.038 Y112.35 E23.04368
G1 X85.839 Y112.35 E23.05029
G1 X85.839 Y112.151 E23.05458
G1 X85.84 Y107.65 E23.20428
G1 X98.16 Y107.65 E23.61404
G1 X98.16 Y112.35 E23.77037
M204 S5000
M205 X30 Y30
G0 F7200 X98.56 Y112.75
M204 S500
M205 X20 Y20
;TYPE:WALL-OUTER
G1 F1800 X85.639 Y112.75 E24.20012
G1 X85.439 Y112.75 E24.20677
G1 X85.439 Y112.55 E24.21108
G1 X85.44 Y107.25 E24.38736
G1 X98.56 Y107.25 E24.82373
G1 X98.56 Y112.75 E25.00666
M204 S5000
M205 X30 Y30
G0 F7200 X98.36 Y112.75
G0 X98.12 Y112.31
G0 X97.77 Y111.96
M204 S500
M205 X20 Y20
;TYPE:SKIN
G1 F1800 X86.229 Y111.96 E25.39052
G1 X86.23 Y108.04 E25.5209
G1 X97.77 Y108.04 E25.90472
G1 X97.77 Y111.96 E26.0351
M204 S5000
M205 X30 Y30
G1 F2400 E21.0351
G1 F300 Z1.2
G0 F7200 X97.53 Y108.278 Z1.2
G1 F300 Z0.2
G1 F2400 E26.0351
G1 F1800 X97.247 Y108.561 E26.05397
M204 S500
M205 X20 Y20
G1 X97.659 Y108.973
M204 S5000
M205 X30 Y30
G0 F7200 X97.589 Y109.469
M204 S500
M205 X20 Y20
G1 F1800 X96.339 Y108.219 E26.11277
G1 X96.269 Y108.149
M204 S5000
M205 X30 Y30
G0 F7200 X95.774 Y108.219
M204 S500
M205 X20 Y20
G1 F1800 X97.589 Y110.035 E26.19816
G1 X97.659 Y110.105
M204 S5000
M205 X30 Y30
G0 F7200 X97.589 Y110.6
M204 S500
M205 X20 Y20
G1 F1800 X95.208 Y108.219 E26.31016
G1 X95.138 Y108.149
M204 S5000
M205 X30 Y30
G0 F7200 X94.642 Y108.219
M204 S500
M205 X20 Y20
G1 F1800 X97.589 Y111.166 E26.44877
G1 X97.659 Y111.236
M204 S5000
M205 X30 Y30
G0 F7200 X97.589 Y111.732
M204 S500
M205 X20 Y20
G1 F1800 X94.077 Y108.219 E26.61399
G1 X94.007 Y108.149
M204 S5000
M205 X30 Y30
G0 F7200 X93.511 Y108.219
M204 S500
M205 X20 Y20
G1 F1800 X97.07 Y111.778 E26.7814
G1 X97.14 Y111.848
M204 S5000
M205 X30 Y30
G0 F7200 X96.505 Y111.778
M204 S500
M205 X20 Y20
G1 F1800 X92.945 Y108.219 E26.94882
G1 X92.875 Y108.149
M204 S5000
M205 X30 Y30
G0 F7200 X92.379 Y108.219
M204 S500
M205 X20 Y20
G1 F1800 X95.939 Y111.778 E27.11625
G1 X96.009 Y111.848
M204 S5000
M205 X30 Y30
G0 F7200 X95.373 Y111.778
M204 S500
M205 X20 Y20
G1 F1800 X91.814 Y108.219 E27.28366
G1 X91.744 Y108.149
M204 S5000
M205 X30 Y30
G0 F7200 X91.248 Y108.219
M204 S500
M205 X20 Y20
G1 F1800 X94.808 Y111.778 E27.45108
G1 X94.878 Y111.848
M204 S5000
M205 X30 Y30
G0 F7200 X94.242 Y111.778
M204 S500
M205 X20 Y20
G1 F1800 X90.682 Y108.219 E27.61851
G1 X90.612 Y108.149
M204 S5000
M205 X30 Y30
G0 F7200 X90.117 Y108.219
M204 S500
M205 X20 Y20
G1 F1800 X93.676 Y111.778 E27.78592
G1 X93.746 Y111.848
M204 S5000
M205 X30 Y30
G0 F7200 X93.111 Y111.778
M204 S500
M205 X20 Y20
G1 F1800 X89.551 Y108.219 E27.95334
G1 X89.481 Y108.149
M204 S5000
M205 X30 Y30
G0 F7200 X88.985 Y108.219
M204 S500
M205 X20 Y20
G1 F1800 X92.545 Y111.778 E28.12077
G1 X92.615 Y111.848
M204 S5000
M205 X30 Y30
G0 F7200 X91.979 Y111.778
M204 S500
M205 X20 Y20
G1 F1800 X88.42 Y108.219 E28.28818
G1 X88.35 Y108.149
M204 S5000
M205 X30 Y30
G0 F7200 X87.854 Y108.219
M204 S500
M205 X20 Y20
G1 F1800 X91.414 Y111.778 E28.4556
G1 X91.484 Y111.848
M204 S5000
M205 X30 Y30
G0 F7200 X90.848 Y111.778
M204 S500
M205 X20 Y20
G1 F1800 X87.288 Y108.219 E28.62303
G1 X87.218 Y108.149
M204 S5000
M205 X30 Y30
G0 F7200 X86.723 Y108.219
M204 S500
M205 X20 Y20
G1 F1800 X90.282 Y111.778 E28.79044
G1 X90.352 Y111.848
M204 S5000
M205 X30 Y30
G0 F7200 X89.717 Y111.778
M204 S500
M205 X20 Y20
G1 F1800 X86.409 Y108.471 E28.94601
G1 X86.339 Y108.401
M204 S5000
M205 X30 Y30
G0 F7200 X86.409 Y109.037
M204 S500
M205 X20 Y20
G1 F1800 X89.151 Y111.778 E29.07496
G1 X89.221 Y111.848
M204 S5000
M205 X30 Y30
G0 F7200 X88.585 Y111.778
M204 S500
M205 X20 Y20
G1 F1800 X86.409 Y109.602 E29.17732
G1 X86.339 Y109.532
M204 S5000
M205 X30 Y30
G0 F7200 X86.409 Y110.167
M204 S500
M205 X20 Y20
G1 F1800 X88.019 Y111.778 E29.25307
G1 X88.089 Y111.848
M204 S5000
M205 X30 Y30
G0 F7200 X87.454 Y111.778
M204 S500
M205 X20 Y20
G1 F1800 X86.408 Y110.732 E29.30227
G1 X86.338 Y110.662
M204 S5000
M205 X30 Y30
G0 F7200 X86.408 Y111.298
M204 S500
M205 X20 Y20
G1 F1800 X86.888 Y111.778 E29.32485
M204 S5000
M205 X30 Y30
G1 F2400 E24.32485
G1 F300 Z1.2
G0 F7200 X98.16 Y124.35 Z1.2
M204 S500
M205 X20 Y20
;TYPE:WALL-INNER
G1 F300 Z0.2
G1 F2400 E29.32485
G1 F1800 X86.038 Y124.35 E29.72803
G1 X85.839 Y124.35 E29.73464
G1 X85.839 Y124.151 E29.73893
G1 X85.84 Y119.65 E29.88863
G1 X98.16 Y119.65 E30.2984
G1 X98.16 Y124.35 E30.45472
M204 S5000
M205 X30 Y30
G0 F7200 X98.56 Y124.75
M204 S500
M205 X20 Y20
;TYPE:WALL-OUTER
G1 F1800 X85.639 Y124.75 E30.88447
G1 X85.439 Y124.75 E30.89112
G1 X85.439 Y124.55 E30.89543
G1 X85.44 Y119.25 E31.07171
G1 X98.56 Y119.25 E31.50808
G1 X98.56 Y124.75 E31.69101
M204 S5000
M205 X30 Y30
G0 F7200 X98.36 Y124.75
G0 X98.12 Y124.31
G0 X97.77 Y123.96
M204 S500
M205 X20 Y20
;TYPE:SKIN
G1 F1800 X86.229 Y123.96 E32.07487
G1 X86.23 Y120.04 E32.20525
G1 X97.77 Y120.04 E32.58907
G1 X97.77 Y123.96 E32.71945
M204 S5000
M205 X30 Y30
G1 F2400 E27.71945
G1 F300 Z1.2
G0 F7200 X97.589 Y120.783 Z1.2
M204 S500
M205 X20 Y20
G1 F300 Z0.2
G1 F2400 E32.71945
G1 F1800 X97.026 Y120.219 E32.74596
M204 S5000
M205 X30 Y30
G0 F7200 X96.46 Y120.219
M204 S500
M205 X20 Y20
G1 F1800 X97.589 Y121.348 E32.79906
G1 X97.659 Y121.418
M204 S5000
M205 X30 Y30
G0 F7200 X97.589 Y121.914
M204 S500
M205 X20 Y20
G1 F1800 X95.894 Y120.219 E32.87879
G1 X95.824 Y120.149
