;FLAVOR:Marlin
;TIME:1475
;Filament used: 1.28117m
;Layer height: 0.2
;Generated with Cura_SteamEngine 3.4.1
M190 S65
M104 S200
M109 S200
M82 ;absolute extrusion mode
; Pefix G-Code for most 200mm x 200mm 3D printers by www.DIY3DTech.com to clean nozzle
; Place as start G-Code in Slicer
; Use of this code is at your own risk (no warranties made or implied)
;
M117 Clean ; Indicate nozzle clean in progress on LCD
M107 ; Turn layer fan off
G21 ; Set to metric [change to G20 if you want Imperial]
G90                          ; Force coordinates to be absolute relative to the origin
G28                          ; Home X/Y/Z axis
G0 X1 Y0 Z0.15 F9000         ; Move in 1mm from edge and up [z] 0.15mm
G92 E0                       ; Set extruder to [0] zero
G1 Y190 E50 F500             ; Extrude 100mm filiment along Y axis 190mm long to prime and clean the nozzle
G92 E0                       ; Reset extruder to [0] zero end of cleaning run
G1 E-3 F500                  ; Retract filiment by 3 mm to reduce string effect
G1 X3 Y190 Z15 F9000      ; Move over and rise to safe Z height
G1 X3 Y0 Z15 F9000 ; Move back to front of bed at safe Z height to shear strings
;
; Ensure extruder is not reset by other code or it will be 3mm short [see next line also]
;G1 E3 F500 ; Uncomment if you believe exruder will be reset
; Recommend turning off SKIRT in the slicer to avoid strings pulled into first layer
M117 Printing ; Indicate printing on LCD
; Begin printing with sliced GCode after here
G92 E0
G1 F2400 E-5
;LAYER_COUNT:11
;LAYER:0
M107
M204 S5000
M205 X30 Y30
G0 F7200 X80.306 Y29.273 Z0.2
M204 S500
M205 X20 Y20
;TYPE:SKIRT
G1 F2400 E0
G1 F1800 X80.577 Y28.701 E0.02105
G1 X80.917 Y28.169 E0.04205
G1 X81.323 Y27.684 E0.06309
G1 X81.786 Y27.254 E0.0841
G1 X82.3 Y26.885 E0.10515
G1 X82.856 Y26.585 E0.12616
G1 X83.445 Y26.357 E0.14717
G1 X84.059 Y26.205 E0.16821
G1 X84.95 Y26.125 E0.19796
G1 X87.05 Y26.125 E0.26781
G1 X87.681 Y26.165 E0.28884
G1 X88.302 Y26.284 E0.30987
G1 X88.902 Y26.481 E0.33087
G1 X89.474 Y26.752 E0.35192
G1 X90.006 Y27.092 E0.37292
G1 X90.009 Y27.094 E0.37304
G1 X90.3 Y26.885 E0.38496
G1 X90.856 Y26.585 E0.40597
G1 X91.445 Y26.357 E0.42698
G1 X92.059 Y26.205 E0.44802
G1 X92.95 Y26.125 E0.47777
G1 X95.05 Y26.125 E0.54762
G1 X95.681 Y26.165 E0.56865
G1 X96.302 Y26.284 E0.58968
G1 X96.902 Y26.481 E0.61068
G1 X97.474 Y26.752 E0.63173
G1 X98.006 Y27.092 E0.65273
G1 X98.147 Y27.21 E0.65885
G1 X98.6 Y26.885 E0.67739
G1 X99.156 Y26.585 E0.6984
G1 X99.745 Y26.357 E0.71941
G1 X100.359 Y26.205 E0.74045
G1 X101.25 Y26.125 E0.7702
G1 X102.75 Y26.125 E0.82009
G1 X103.381 Y26.165 E0.84112
G1 X104.002 Y26.284 E0.86215
G1 X104.602 Y26.481 E0.88316
G1 X105.174 Y26.752 E0.90421
G1 X105.706 Y27.092 E0.92521
G1 X105.998 Y27.336 E0.93786
G1 X106.086 Y27.254 E0.94187
G1 X106.6 Y26.885 E0.96291
G1 X107.156 Y26.585 E0.98392
G1 X107.745 Y26.357 E1.00493
G1 X108.359 Y26.205 E1.02597
G1 X109.25 Y26.125 E1.05572
G1 X110.75 Y26.125 E1.10561
G1 X111.381 Y26.165 E1.12664
G1 X112.002 Y26.284 E1.14767
G1 X112.602 Y26.481 E1.16868
G1 X113.174 Y26.752 E1.18973
G1 X113.706 Y27.092 E1.21073
G1 X113.998 Y27.336 E1.22338
G1 X114.086 Y27.254 E1.22738
G1 X114.6 Y26.885 E1.24843
G1 X115.156 Y26.585 E1.26944
G1 X115.745 Y26.357 E1.29045
G1 X116.359 Y26.205 E1.31149
G1 X117.25 Y26.125 E1.34124
G1 X118.75 Y26.125 E1.39113
G1 X119.381 Y26.165 E1.41216
G1 X120.002 Y26.284 E1.43319
G1 X120.602 Y26.481 E1.45419
G1 X121.174 Y26.752 E1.47525
G1 X121.706 Y27.092 E1.49625
G1 X121.847 Y27.21 E1.50236
G1 X122.3 Y26.885 E1.5209
G1 X122.856 Y26.585 E1.54192
G1 X123.445 Y26.357 E1.56292
G1 X124.059 Y26.205 E1.58396
G1 X124.95 Y26.125 E1.61372
G1 X127.05 Y26.125 E1.68356
G1 X127.681 Y26.165 E1.70459
G1 X128.302 Y26.284 E1.72562
G1 X128.902 Y26.481 E1.74663
G1 X129.474 Y26.752 E1.76768
G1 X130.006 Y27.092 E1.78868
G1 X130.009 Y27.094 E1.7888
G1 X130.3 Y26.885 E1.80071
G1 X130.856 Y26.585 E1.82173
G1 X131.445 Y26.357 E1.84273
G1 X132.059 Y26.205 E1.86377
G1 X132.95 Y26.125 E1.89353
G1 X135.05 Y26.125 E1.96337
G1 X135.681 Y26.165 E1.9844
G1 X136.302 Y26.284 E2.00543
G1 X136.902 Y26.481 E2.02644
G1 X137.474 Y26.752 E2.04749
G1 X138.006 Y27.092 E2.06849
G1 X138.491 Y27.498 E2.08952
G1 X138.921 Y27.961 E2.11054
G1 X139.29 Y28.475 E2.13159
G1 X139.59 Y29.031 E2.1526
G1 X139.818 Y29.62 E2.17361
G1 X139.97 Y30.234 E2.19464
G1 X140.05 Y31.125 E2.2244
G1 X140.05 Y188.875 E7.47118
G1 X140.01 Y189.506 E7.49221
G1 X139.891 Y190.127 E7.51324
G1 X139.694 Y190.727 E7.53425
G1 X139.423 Y191.299 E7.5553
G1 X139.083 Y191.831 E7.5763
G1 X138.677 Y192.316 E7.59734
G1 X138.214 Y192.746 E7.61835
G1 X137.7 Y193.115 E7.6394
G1 X137.144 Y193.415 E7.66041
G1 X136.555 Y193.643 E7.68142
G1 X135.941 Y193.795 E7.70246
G1 X135.05 Y193.875 E7.73221
G1 X132.95 Y193.875 E7.80206
G1 X132.319 Y193.835 E7.82308
G1 X131.698 Y193.716 E7.84412
G1 X131.098 Y193.519 E7.86512
G1 X130.526 Y193.248 E7.88617
G1 X129.994 Y192.908 E7.90717
G1 X129.991 Y192.906 E7.90729
G1 X129.7 Y193.115 E7.91921
G1 X129.144 Y193.415 E7.94022
G1 X128.555 Y193.643 E7.96123
G1 X127.941 Y193.795 E7.98226
G1 X127.05 Y193.875 E8.01202
G1 X124.95 Y193.875 E8.08186
G1 X124.319 Y193.835 E8.10289
G1 X123.698 Y193.716 E8.12392
G1 X123.098 Y193.519 E8.14493
G1 X122.526 Y193.248 E8.16598
G1 X121.994 Y192.908 E8.18698
G1 X121.853 Y192.79 E8.1931
G1 X121.4 Y193.115 E8.21164
G1 X120.844 Y193.415 E8.23265
G1 X120.255 Y193.643 E8.25366
G1 X119.641 Y193.795 E8.2747
G1 X118.75 Y193.875 E8.30445
G1 X117.25 Y193.875 E8.35434
G1 X116.619 Y193.835 E8.37537
G1 X115.998 Y193.716 E8.3964
G1 X115.398 Y193.519 E8.4174
G1 X114.826 Y193.248 E8.43846
G1 X114.294 Y192.908 E8.45946
G1 X114.002 Y192.664 E8.47211
G1 X113.914 Y192.746 E8.47611
G1 X113.4 Y193.115 E8.49716
G1 X112.844 Y193.415 E8.51817
G1 X112.255 Y193.643 E8.53918
G1 X111.641 Y193.795 E8.56022
G1 X110.75 Y193.875 E8.58997
G1 X109.25 Y193.875 E8.63986
G1 X108.619 Y193.835 E8.66089
G1 X107.998 Y193.716 E8.68192
G1 X107.398 Y193.519 E8.70292
G1 X106.826 Y193.248 E8.72398
G1 X106.294 Y192.908 E8.74497
G1 X106.002 Y192.664 E8.75763
G1 X105.914 Y192.746 E8.76163
G1 X105.4 Y193.115 E8.78268
G1 X104.844 Y193.415 E8.80369
G1 X104.255 Y193.643 E8.8247
G1 X103.641 Y193.795 E8.84573
G1 X102.75 Y193.875 E8.87549
G1 X101.25 Y193.875 E8.92538
G1 X100.619 Y193.835 E8.94641
G1 X99.998 Y193.716 E8.96744
G1 X99.398 Y193.519 E8.98844
G1 X98.826 Y193.248 E9.00949
G1 X98.294 Y192.908 E9.03049
G1 X98.153 Y192.79 E9.03661
G1 X97.7 Y193.115 E9.05515
G1 X97.144 Y193.415 E9.07617
G1 X96.555 Y193.643 E9.09717
G1 X95.941 Y193.795 E9.11821
G1 X95.05 Y193.875 E9.14796
G1 X92.95 Y193.875 E9.21781
G1 X92.319 Y193.835 E9.23884
G1 X91.698 Y193.716 E9.25987
G1 X91.098 Y193.519 E9.28087
G1 X90.526 Y193.248 E9.30193
G1 X89.994 Y192.908 E9.32293
G1 X89.991 Y192.906 E9.32305
G1 X89.7 Y193.115 E9.33496
G1 X89.144 Y193.415 E9.35597
G1 X88.555 Y193.643 E9.37698
G1 X87.941 Y193.795 E9.39802
G1 X87.05 Y193.875 E9.42777
G1 X84.95 Y193.875 E9.49762
G1 X84.319 Y193.835 E9.51865
G1 X83.698 Y193.716 E9.53968
G1 X83.098 Y193.519 E9.56068
G1 X82.526 Y193.248 E9.58174
G1 X81.994 Y192.908 E9.60274
G1 X81.509 Y192.502 E9.62377
G1 X81.079 Y192.039 E9.64479
G1 X80.71 Y191.525 E9.66583
G1 X80.41 Y190.969 E9.68685
G1 X80.182 Y190.38 E9.70785
G1 X80.03 Y189.766 E9.72889
G1 X79.95 Y188.875 E9.75865
G1 X79.95 Y31.125 E15.00543
G1 X79.99 Y30.494 E15.02646
G1 X80.109 Y29.873 E15.04749
G1 X80.306 Y29.273 E15.0685
M204 S5000
M205 X30 Y30
G0 F7200 X80.705 Y29.352
M204 S500
M205 X20 Y20
G1 F1800 X80.976 Y28.809 E15.08868
G1 X81.315 Y28.306 E15.10885
G1 X81.717 Y27.853 E15.129
G1 X82.175 Y27.456 E15.14916
G1 X82.682 Y27.123 E15.16933
G1 X83.228 Y26.859 E15.1895
G1 X83.804 Y26.67 E15.20967
G1 X84.4 Y26.558 E15.22984
G1 X84.95 Y26.525 E15.24816
G1 X87.05 Y26.525 E15.31801
G1 X87.655 Y26.565 E15.33818
G1 X88.249 Y26.684 E15.35832
G1 X88.823 Y26.88 E15.3785
G1 X89.366 Y27.151 E15.39868
G1 X89.869 Y27.49 E15.41886
G1 X90.001 Y27.607 E15.42472
G1 X90.175 Y27.456 E15.43239
G1 X90.682 Y27.123 E15.45256
G1 X91.228 Y26.859 E15.47273
G1 X91.804 Y26.67 E15.4929
G1 X92.4 Y26.558 E15.51307
G1 X92.95 Y26.525 E15.53139
G1 X95.05 Y26.525 E15.60124
G1 X95.655 Y26.565 E15.6214
G1 X96.249 Y26.684 E15.64155
G1 X96.823 Y26.88 E15.66173
G1 X97.366 Y27.151 E15.68191
G1 X97.869 Y27.49 E15.70209
G1 X98.149 Y27.739 E15.71455
G1 X98.475 Y27.456 E15.72891
G1 X98.982 Y27.123 E15.74908
G1 X99.528 Y26.859 E15.76925
G1 X100.104 Y26.67 E15.78942
G1 X100.7 Y26.558 E15.80959
G1 X101.25 Y26.525 E15.82791
G1 X102.75 Y26.525 E15.8778
G1 X103.355 Y26.565 E15.89797
G1 X103.949 Y26.684 E15.91812
G1 X104.523 Y26.88 E15.93829
G1 X105.066 Y27.151 E15.95848
G1 X105.569 Y27.49 E15.97865
G1 X106 Y27.872 E15.99781
G1 X106.017 Y27.853 E15.99865
G1 X106.475 Y27.456 E16.01881
G1 X106.982 Y27.123 E16.03899
G1 X107.528 Y26.859 E16.05916
G1 X108.104 Y26.67 E16.07932
G1 X108.7 Y26.558 E16.09949
G1 X109.25 Y26.525 E16.11782
G1 X110.75 Y26.525 E16.16771
G1 X111.355 Y26.565 E16.18788
G1 X111.949 Y26.684 E16.20802
G1 X112.523 Y26.88 E16.2282
G1 X113.066 Y27.151 E16.24838
G1 X113.569 Y27.49 E16.26856
G1 X114 Y27.872 E16.28771
G1 X114.017 Y27.853 E16.28856
G1 X114.475 Y27.456 E16.30872
G1 X114.982 Y27.123 E16.3289
G1 X115.528 Y26.859 E16.34907
G1 X116.104 Y26.67 E16.36923
G1 X116.7 Y26.558 E16.3894
G1 X117.25 Y26.525 E16.40773
G1 X118.75 Y26.525 E16.45762
G1 X119.355 Y26.565 E16.47778
G1 X119.949 Y26.684 E16.49793
G1 X120.523 Y26.88 E16.5181
G1 X121.066 Y27.151 E16.53829
G1 X121.569 Y27.49 E16.55846
G1 X121.849 Y27.739 E16.57093
G1 X122.175 Y27.456 E16.58528
G1 X122.682 Y27.123 E16.60546
G1 X123.228 Y26.859 E16.62563
G1 X123.804 Y26.67 E16.64579
G1 X124.4 Y26.558 E16.66596
G1 X124.95 Y26.525 E16.68429
G1 X127.05 Y26.525 E16.75414
G1 X127.655 Y26.565 E16.7743
G1 X128.249 Y26.684 E16.79445
G1 X128.823 Y26.88 E16.81463
G1 X129.366 Y27.151 E16.83481
G1 X129.869 Y27.49 E16.85498
G1 X130.001 Y27.607 E16.86085
G1 X130.175 Y27.456 E16.86851
G1 X130.682 Y27.123 E16.88869
G1 X131.228 Y26.859 E16.90886
G1 X131.804 Y26.67 E16.92902
G1 X132.4 Y26.558 E16.94919
G1 X132.95 Y26.525 E16.96752
G1 X135.05 Y26.525 E17.03737
G1 X135.655 Y26.565 E17.05753
G1 X136.249 Y26.684 E17.07768
G1 X136.823 Y26.88 E17.09785
G1 X137.366 Y27.151 E17.11804
G1 X137.869 Y27.49 E17.13821
G1 X138.322 Y27.892 E17.15836
G1 X138.719 Y28.35 E17.17852
G1 X139.052 Y28.857 E17.19869
G1 X139.316 Y29.403 E17.21886
G1 X139.505 Y29.979 E17.23903
G1 X139.617 Y30.575 E17.2592
G1 X139.65 Y31.125 E17.27752
G1 X139.65 Y188.875 E22.52431
G1 X139.61 Y189.48 E22.54447
G1 X139.491 Y190.074 E22.56462
G1 X139.295 Y190.648 E22.5848
G1 X139.024 Y191.191 E22.60498
G1 X138.685 Y191.694 E22.62516
G1 X138.283 Y192.147 E22.6453
G1 X137.825 Y192.544 E22.66546
G1 X137.318 Y192.877 E22.68563
G1 X136.772 Y193.141 E22.70581
G1 X136.196 Y193.33 E22.72597
G1 X135.6 Y193.442 E22.74614
G1 X135.05 Y193.475 E22.76447
G1 X132.95 Y193.475 E22.83431
G1 X132.345 Y193.435 E22.85448
G1 X131.751 Y193.316 E22.87463
G1 X131.177 Y193.12 E22.8948
G1 X130.634 Y192.849 E22.91499
G1 X130.131 Y192.51 E22.93516
G1 X129.999 Y192.393 E22.94103
G1 X129.825 Y192.544 E22.94869
G1 X129.318 Y192.877 E22.96886
G1 X128.772 Y193.141 E22.98904
G1 X128.196 Y193.33 E23.0092
G1 X127.6 Y193.442 E23.02937
G1 X127.05 Y193.475 E23.04769
G1 X124.95 Y193.475 E23.11754
G1 X124.345 Y193.435 E23.13771
G1 X123.751 Y193.316 E23.15786
G1 X123.177 Y193.12 E23.17803
G1 X122.634 Y192.849 E23.19821
G1 X122.131 Y192.51 E23.21839
G1 X121.851 Y192.261 E23.23085
G1 X121.525 Y192.544 E23.24521
G1 X121.018 Y192.877 E23.26538
G1 X120.472 Y193.141 E23.28556
G1 X119.896 Y193.33 E23.30572
G1 X119.3 Y193.442 E23.32589
G1 X118.75 Y193.475 E23.34421
G1 X117.25 Y193.475 E23.39411
G1 X116.645 Y193.435 E23.41427
G1 X116.051 Y193.316 E23.43442
G1 X115.477 Y193.12 E23.45459
G1 X114.934 Y192.849 E23.47478
G1 X114.431 Y192.51 E23.49495
G1 X114 Y192.128 E23.51411
G1 X113.983 Y192.147 E23.51496
G1 X113.525 Y192.544 E23.53512
G1 X113.018 Y192.877 E23.55529
G1 X112.472 Y193.141 E23.57546
G1 X111.896 Y193.33 E23.59563
G1 X111.3 Y193.442 E23.6158
G1 X110.75 Y193.475 E23.63412
G1 X109.25 Y193.475 E23.68401
G1 X108.645 Y193.435 E23.70418
G1 X108.051 Y193.316 E23.72433
G1 X107.477 Y193.12 E23.7445
G1 X106.934 Y192.849 E23.76468
G1 X106.431 Y192.51 E23.78486
G1 X106 Y192.128 E23.80401
G1 X105.983 Y192.147 E23.80486
G1 X105.525 Y192.544 E23.82502
G1 X105.018 Y192.877 E23.8452
G1 X104.472 Y193.141 E23.86537
G1 X103.896 Y193.33 E23.88553
G1 X103.3 Y193.442 E23.9057
G1 X102.75 Y193.475 E23.92403
G1 X101.25 Y193.475 E23.97392
G1 X100.645 Y193.435 E23.99408
G1 X100.051 Y193.316 E24.01423
G1 X99.477 Y193.12 E24.03441
G1 X98.934 Y192.849 E24.05459
G1 X98.431 Y192.51 E24.07477
G1 X98.151 Y192.261 E24.08723
G1 X97.825 Y192.544 E24.10159
G1 X97.318 Y192.877 E24.12176
G1 X96.772 Y193.141 E24.14193
G1 X96.196 Y193.33 E24.1621
G1 X95.6 Y193.442 E24.18227
G1 X95.05 Y193.475 E24.20059
G1 X92.95 Y193.475 E24.27044
G1 X92.345 Y193.435 E24.2906
G1 X91.751 Y193.316 E24.31075
G1 X91.177 Y193.12 E24.33093
G1 X90.634 Y192.849 E24.35111
G1 X90.131 Y192.51 E24.37129
G1 X89.999 Y192.393 E24.37715
G1 X89.825 Y192.544 E24.38482
G1 X89.318 Y192.877 E24.40499
G1 X88.772 Y193.141 E24.42516
G1 X88.196 Y193.33 E24.44532
G1 X87.6 Y193.442 E24.46549
G1 X87.05 Y193.475 E24.48382
G1 X84.95 Y193.475 E24.55367
G1 X84.345 Y193.435 E24.57383
G1 X83.751 Y193.316 E24.59398
G1 X83.177 Y193.12 E24.61416
G1 X82.634 Y192.849 E24.63434
G1 X82.131 Y192.51 E24.65452
G1 X81.678 Y192.108 E24.67466
G1 X81.281 Y191.65 E24.69482
G1 X80.948 Y191.143 E24.71499
G1 X80.684 Y190.597 E24.73517
G1 X80.495 Y190.021 E24.75533
G1 X80.383 Y189.425 E24.7755
G1 X80.35 Y188.875 E24.79382
G1 X80.35 Y31.125 E30.04061
G1 X80.39 Y30.52 E30.06078
G1 X80.509 Y29.926 E30.08093
G1 X80.705 Y29.352 E30.1011
M204 S5000
M205 X30 Y30
G0 F7200 X81.105 Y29.435
M204 S500
M205 X20 Y20
G1 F1800 X81.374 Y28.922 E30.12037
G1 X81.711 Y28.451 E30.13963
G1 X82.11 Y28.031 E30.1589
G1 X82.563 Y27.669 E30.17818
G1 X83.061 Y27.374 E30.19743
G1 X83.595 Y27.149 E30.21671
G1 X84.155 Y27.001 E30.23597
G1 X84.95 Y26.925 E30.26253
G1 X87.05 Y26.925 E30.33238
G1 X87.628 Y26.965 E30.35165
G1 X88.195 Y27.084 E30.37092
G1 X88.74 Y27.28 E30.39018
G1 X89.253 Y27.549 E30.40945
G1 X89.724 Y27.886 E30.42871
G1 X89.999 Y28.148 E30.44135
G1 X90.11 Y28.031 E30.44671
G1 X90.563 Y27.669 E30.466
G1 X91.061 Y27.374 E30.48525
G1 X91.595 Y27.149 E30.50452
G1 X92.155 Y27.001 E30.52379
G1 X92.95 Y26.925 E30.55035
G1 X95.05 Y26.925 E30.62019
G1 X95.628 Y26.965 E30.63946
G1 X96.195 Y27.084 E30.65873
G1 X96.74 Y27.28 E30.678
G1 X97.253 Y27.549 E30.69726
G1 X97.724 Y27.886 E30.71653
G1 X98.144 Y28.285 E30.73579
G1 X98.155 Y28.299 E30.73639
G1 X98.41 Y28.031 E30.74869
G1 X98.863 Y27.669 E30.76798
G1 X99.361 Y27.374 E30.78723
G1 X99.895 Y27.149 E30.8065
G1 X100.455 Y27.001 E30.82577
G1 X101.25 Y26.925 E30.85233
G1 X102.75 Y26.925 E30.90222
G1 X103.328 Y26.965 E30.92149
G1 X103.895 Y27.084 E30.94076
G1 X104.44 Y27.28 E30.96002
G1 X104.953 Y27.549 E30.97929
G1 X105.424 Y27.886 E30.99855
G1 X105.844 Y28.285 E31.01782
G1 X105.995 Y28.474 E31.02586
G1 X106.011 Y28.451 E31.0268
G1 X106.41 Y28.031 E31.04606
G1 X106.863 Y27.669 E31.06535
G1 X107.361 Y27.374 E31.0846
G1 X107.895 Y27.149 E31.10388
G1 X108.455 Y27.001 E31.12314
G1 X109.25 Y26.925 E31.1497
G1 X110.75 Y26.925 E31.19959
G1 X111.328 Y26.965 E31.21886
G1 X111.895 Y27.084 E31.23813
G1 X112.44 Y27.28 E31.2574
G1 X112.953 Y27.549 E31.27666
G1 X113.424 Y27.886 E31.29592
G1 X113.844 Y28.285 E31.31519
G1 X113.995 Y28.474 E31.32324
G1 X114.011 Y28.451 E31.32417
G1 X114.41 Y28.031 E31.34344
G1 X114.863 Y27.669 E31.36273
G1 X115.361 Y27.374 E31.38198
G1 X115.895 Y27.149 E31.40125
G1 X116.455 Y27.001 E31.42052
G1 X117.25 Y26.925 E31.44708
G1 X118.75 Y26.925 E31.49697
G1 X119.328 Y26.965 E31.51624
G1 X119.895 Y27.084 E31.53551
G1 X120.44 Y27.28 E31.55477
G1 X120.953 Y27.549 E31.57404
G1 X121.424 Y27.886 E31.5933
G1 X121.844 Y28.285 E31.61257
G1 X121.855 Y28.299 E31.61316
G1 X122.11 Y28.031 E31.62546
G1 X122.563 Y27.669 E31.64475
