;FLAVOR:Marlin
;TIME:858
;Filament used: 0.673864m
;Layer height: 0.2
;Generated with Cura_SteamEngine 3.4.1
M190 S65
M104 S200
M109 S200
M82 ;absolute extrusion mode
; Pefix G-Code for most 200mm x 200mm 3D printers by www.DIY3DTech.com to clean nozzle
; Place as start G-Code in Slicer
; Use of this code is at your own risk (no warranties made or implied)
;
M117 Clean ; Indicate nozzle clean in progress on LCD
M107 ; Turn layer fan off
G21 ; Set to metric [change to G20 if you want Imperial]
G90                          ; Force coordinates to be absolute relative to the origin
G28                          ; Home X/Y/Z axis
G0 X1 Y0 Z0.15 F9000         ; Move in 1mm from edge and up [z] 0.15mm
G92 E0                       ; Set extruder to [0] zero
G1 Y190 E50 F500             ; Extrude 100mm filiment along Y axis 190mm long to prime and clean the nozzle
G92 E0                       ; Reset extruder to [0] zero end of cleaning run
G1 E-3 F500                  ; Retract filiment by 3 mm to reduce string effect
G1 X3 Y190 Z15 F9000      ; Move over and rise to safe Z height
G1 X3 Y0 Z15 F9000 ; Move back to front of bed at safe Z height to shear strings
;
; Ensure extruder is not reset by other code or it will be 3mm short [see next line also]
;G1 E3 F500 ; Uncomment if you believe exruder will be reset
; Recommend turning off SKIRT in the slicer to avoid strings pulled into first layer
M117 Printing ; Indicate printing on LCD
; Begin printing with sliced GCode after here
G92 E0
G1 F2400 E-5
;LAYER_COUNT:11
;LAYER:0
M107
M204 S5000
M205 X30 Y30
G0 F7200 X78.917 Y29.027 Z0.2
M204 S500
M205 X20 Y20
;TYPE:SKIRT
G1 F2400 E0
G1 F1800 X79.19 Y28.366 E0.02379
G1 X79.534 Y27.739 E0.04757
G1 X79.947 Y27.155 E0.07136
G1 X80.422 Y26.621 E0.09513
G1 X80.954 Y26.142 E0.11894
G1 X81.536 Y25.727 E0.14272
G1 X82.161 Y25.378 E0.16653
G1 X82.821 Y25.102 E0.19032
G1 X83.507 Y24.901 E0.2141
G1 X84.212 Y24.778 E0.2379
G1 X84.96 Y24.734 E0.26282
G1 X135.041 Y24.735 E1.92852
G1 X135.755 Y24.775 E1.95231
G1 X136.46 Y24.894 E1.97609
G1 X137.148 Y25.092 E1.9999
G1 X137.809 Y25.365 E2.02368
G1 X138.436 Y25.71 E2.04749
G1 X139.02 Y26.122 E2.07126
G1 X139.554 Y26.598 E2.09505
G1 X140.033 Y27.13 E2.11886
G1 X140.448 Y27.712 E2.14264
G1 X140.797 Y28.336 E2.16642
G1 X141.073 Y28.996 E2.19021
G1 X141.274 Y29.682 E2.21398
G1 X141.397 Y30.387 E2.23779
G1 X141.441 Y31.135 E2.26271
G1 X141.44 Y188.866 E7.50886
G1 X141.4 Y189.58 E7.53265
G1 X141.281 Y190.285 E7.55643
G1 X141.083 Y190.973 E7.58024
G1 X140.81 Y191.634 E7.60403
G1 X140.466 Y192.261 E7.62781
G1 X140.053 Y192.845 E7.6516
G1 X139.578 Y193.379 E7.67537
G1 X139.046 Y193.858 E7.69918
G1 X138.464 Y194.273 E7.72296
G1 X137.839 Y194.622 E7.74677
G1 X137.179 Y194.898 E7.77056
G1 X136.493 Y195.099 E7.79434
G1 X135.788 Y195.222 E7.81814
G1 X135.039 Y195.266 E7.84309
G1 X84.958 Y195.258 E9.5088
G1 X84.244 Y195.218 E9.53258
G1 X83.539 Y195.098 E9.55637
G1 X82.851 Y194.901 E9.58017
G1 X82.19 Y194.628 E9.60395
G1 X81.563 Y194.283 E9.62776
G1 X80.979 Y193.87 E9.65155
G1 X80.445 Y193.395 E9.67532
G1 X79.967 Y192.863 E9.69911
G1 X79.551 Y192.281 E9.7229
G1 X79.203 Y191.656 E9.74669
G1 X78.927 Y190.996 E9.77049
G1 X78.726 Y190.31 E9.79426
G1 X78.603 Y189.605 E9.81806
G1 X78.559 Y188.858 E9.84295
G1 X78.56 Y31.134 E15.08887
G1 X78.6 Y30.42 E15.11266
G1 X78.719 Y29.715 E15.13644
G1 X78.917 Y29.027 E15.16025
M204 S5000
M205 X30 Y30
G0 F7200 X79.317 Y29.097
M204 S500
M205 X20 Y20
G1 F1800 X79.589 Y28.46 E15.18329
G1 X79.933 Y27.859 E15.20632
G1 X80.344 Y27.301 E15.22937
G1 X80.816 Y26.795 E15.25239
G1 X81.344 Y26.346 E15.27544
G1 X81.919 Y25.961 E15.29845
G1 X82.536 Y25.646 E15.3215
G1 X83.184 Y25.403 E15.34451
G1 X83.857 Y25.236 E15.36758
G1 X84.544 Y25.148 E15.39061
G1 X84.96 Y25.134 E15.40446
G1 X135.041 Y25.135 E17.07016
G1 X135.732 Y25.175 E17.09318
G1 X136.415 Y25.294 E17.11624
G1 X137.079 Y25.492 E17.13928
G1 X137.715 Y25.764 E17.16229
G1 X138.316 Y26.108 E17.18532
G1 X138.874 Y26.519 E17.20837
G1 X139.38 Y26.991 E17.23139
G1 X139.829 Y27.519 E17.25444
G1 X140.214 Y28.095 E17.27748
G1 X140.529 Y28.711 E17.30049
G1 X140.772 Y29.359 E17.32351
G1 X140.939 Y30.032 E17.34658
G1 X141.027 Y30.719 E17.36961
G1 X141.041 Y31.135 E17.38346
G1 X141.04 Y188.866 E22.62961
G1 X141 Y189.557 E22.65263
G1 X140.881 Y190.24 E22.67569
G1 X140.683 Y190.903 E22.6987
G1 X140.411 Y191.54 E22.72174
G1 X140.067 Y192.141 E22.74477
G1 X139.656 Y192.699 E22.76782
G1 X139.184 Y193.205 E22.79084
G1 X138.656 Y193.654 E22.81389
G1 X138.081 Y194.039 E22.83691
G1 X137.464 Y194.354 E22.85995
G1 X136.816 Y194.597 E22.88297
G1 X136.143 Y194.764 E22.90603
G1 X135.456 Y194.852 E22.92907
G1 X135.039 Y194.866 E22.94294
G1 X84.958 Y194.858 E24.60864
G1 X84.267 Y194.818 E24.63167
G1 X83.585 Y194.698 E24.6547
G1 X82.921 Y194.501 E24.67773
G1 X82.284 Y194.229 E24.70077
G1 X81.683 Y193.885 E24.7238
G1 X81.126 Y193.474 E24.74683
G1 X80.619 Y193.001 E24.76989
G1 X80.171 Y192.474 E24.79289
G1 X79.786 Y191.898 E24.81594
G1 X79.47 Y191.281 E24.83899
G1 X79.227 Y190.633 E24.86201
G1 X79.061 Y189.961 E24.88503
G1 X78.973 Y189.274 E24.90807
G1 X78.959 Y188.858 E24.92192
G1 X78.96 Y31.134 E30.16784
G1 X79 Y30.443 E30.19086
G1 X79.119 Y29.76 E30.21392
G1 X79.317 Y29.097 E30.23693
M204 S5000
M205 X30 Y30
G0 F7200 X79.716 Y29.168
M204 S500
M205 X20 Y20
G1 F1800 X79.988 Y28.557 E30.25918
G1 X80.331 Y27.983 E30.28142
G1 X80.74 Y27.453 E30.30368
G1 X81.209 Y26.976 E30.32593
G1 X81.731 Y26.558 E30.34817
G1 X82.3 Y26.206 E30.37043
G1 X82.907 Y25.924 E30.39269
G1 X83.543 Y25.716 E30.41494
G1 X84.199 Y25.586 E30.43719
G1 X84.96 Y25.534 E30.46256
G1 X135.041 Y25.535 E32.12826
G1 X135.709 Y25.575 E32.15052
G1 X136.367 Y25.694 E32.17276
G1 X137.007 Y25.891 E32.19503
G1 X137.618 Y26.163 E32.21727
G1 X138.192 Y26.506 E32.23951
G1 X138.722 Y26.915 E32.26178
G1 X139.199 Y27.384 E32.28403
G1 X139.617 Y27.907 E32.3063
G1 X139.969 Y28.475 E32.32852
G1 X140.251 Y29.082 E32.35078
G1 X140.459 Y29.718 E32.37304
G1 X140.589 Y30.374 E32.39528
G1 X140.641 Y31.135 E32.42065
G1 X140.64 Y188.866 E37.66681
G1 X140.6 Y189.534 E37.68906
G1 X140.481 Y190.192 E37.7113
G1 X140.284 Y190.832 E37.73358
G1 X140.012 Y191.443 E37.75582
G1 X139.669 Y192.017 E37.77806
G1 X139.26 Y192.547 E37.80033
G1 X138.791 Y193.024 E37.82258
G1 X138.269 Y193.442 E37.84482
G1 X137.7 Y193.794 E37.86707
G1 X137.093 Y194.076 E37.88933
G1 X136.457 Y194.284 E37.91159
G1 X135.801 Y194.414 E37.93383
G1 X135.039 Y194.466 E37.95924
G1 X84.958 Y194.458 E39.62494
G1 X84.29 Y194.418 E39.64719
G1 X83.632 Y194.299 E39.66943
G1 X82.993 Y194.101 E39.69169
G1 X82.381 Y193.83 E39.71395
G1 X81.807 Y193.487 E39.73619
G1 X81.277 Y193.078 E39.75845
G1 X80.8 Y192.609 E39.7807
G1 X80.383 Y192.086 E39.80295
G1 X80.031 Y191.517 E39.8252
G1 X79.749 Y190.91 E39.84746
G1 X79.541 Y190.274 E39.86972
G1 X79.411 Y189.618 E39.89196
G1 X79.359 Y188.858 E39.9173
G1 X79.36 Y31.134 E45.16322
G1 X79.4 Y30.466 E45.18548
G1 X79.519 Y29.808 E45.20772
G1 X79.716 Y29.168 E45.22999
M204 S5000
M205 X30 Y30
G0 F7200 X80.116 Y29.243
M204 S500
M205 X20 Y20
G1 F1800 X80.387 Y28.658 E45.25144
G1 X80.729 Y28.111 E45.27289
G1 X81.135 Y27.611 E45.29431
G1 X81.601 Y27.165 E45.31577
G1 X82.117 Y26.78 E45.33718
G1 X82.678 Y26.461 E45.35865
G1 X83.274 Y26.215 E45.38009
G1 X83.895 Y26.044 E45.40151
G1 X84.533 Y25.952 E45.42295
G1 X84.96 Y25.934 E45.43717
G1 X135.041 Y25.935 E47.10287
G1 X135.685 Y25.975 E47.12433
G1 X136.318 Y26.094 E47.14575
G1 X136.932 Y26.291 E47.1672
G1 X137.517 Y26.562 E47.18864
G1 X138.064 Y26.904 E47.2101
G1 X138.564 Y27.31 E47.23152
G1 X139.01 Y27.776 E47.25298
G1 X139.395 Y28.293 E47.27442
G1 X139.714 Y28.853 E47.29585
G1 X139.96 Y29.449 E47.3173
G1 X140.131 Y30.07 E47.33872
G1 X140.223 Y30.708 E47.36016
G1 X140.241 Y31.135 E47.37437
G1 X140.24 Y188.866 E52.62053
G1 X140.2 Y189.509 E52.64196
G1 X140.081 Y190.143 E52.66341
G1 X139.884 Y190.757 E52.68486
G1 X139.613 Y191.342 E52.7063
G1 X139.271 Y191.889 E52.72776
G1 X138.865 Y192.389 E52.74918
G1 X138.399 Y192.835 E52.77063
G1 X137.883 Y193.22 E52.79205
G1 X137.322 Y193.539 E52.81351
G1 X136.726 Y193.785 E52.83496
G1 X136.105 Y193.956 E52.85638
G1 X135.467 Y194.048 E52.87782
G1 X135.039 Y194.066 E52.89207
G1 X84.958 Y194.058 E54.55777
G1 X84.315 Y194.018 E54.5792
G1 X83.681 Y193.899 E54.60065
G1 X83.067 Y193.702 E54.6221
G1 X82.483 Y193.43 E54.64353
G1 X81.936 Y193.089 E54.66496
G1 X81.436 Y192.682 E54.68641
G1 X80.989 Y192.217 E54.70786
G1 X80.604 Y191.7 E54.7293
G1 X80.286 Y191.139 E54.75075
G1 X80.04 Y190.543 E54.77219
G1 X79.869 Y189.922 E54.79362
G1 X79.776 Y189.284 E54.81506
G1 X79.759 Y188.858 E54.82924
G1 X79.76 Y31.134 E60.07516
G1 X79.8 Y30.491 E60.09659
G1 X79.919 Y29.857 E60.11805
G1 X80.116 Y29.243 E60.13949
M204 S5000
M205 X30 Y30
G1 F2400 E55.13949
G1 F300 Z1.2
G0 F7200 X86.45 Y188.275 Z1.2
M204 S500
M205 X20 Y20
;TYPE:WALL-INNER
G1 F300 Z0.2
G1 F2400 E60.13949
G1 F1800 X85.55 Y188.275 E60.16943
G1 X85.55 Y31.725 E65.3763
G1 X86.45 Y31.725 E65.40624
G1 X86.45 Y188.275 E70.61311
M204 S5000
M205 X30 Y30
G0 F7200 X86.85 Y188.675
M204 S500
M205 X20 Y20
;TYPE:WALL-OUTER
G1 F1800 X85.15 Y188.675 E70.66965
G1 X85.15 Y31.325 E75.90313
G1 X86.85 Y31.325 E75.95968
G1 X86.85 Y188.675 E81.19316
M204 S5000
M205 X30 Y30
G0 F7200 X86.65 Y188.675
G0 X86.41 Y188.235
G0 X86.06 Y187.885
M204 S500
M205 X20 Y20
;TYPE:SKIN
G1 F1800 X85.94 Y187.885 E81.19715
G1 X85.94 Y32.115 E86.37808
G1 X86.06 Y32.115 E86.38207
G1 X86.06 Y187.885 E91.563
M204 S5000
M205 X30 Y30
G1 F2400 E86.563
G1 F300 Z1.2
G0 F7200 X126.45 Y188.275 Z1.2
M204 S500
M205 X20 Y20
;TYPE:WALL-INNER
G1 F300 Z0.2
G1 F2400 E91.563
G1 F1800 X125.55 Y188.275 E91.59294
G1 X125.55 Y31.725 E96.79981
G1 X126.45 Y31.725 E96.82975
G1 X126.45 Y188.275 E102.03662
M204 S5000
M205 X30 Y30
G0 F7200 X126.85 Y188.675
M204 S500
M205 X20 Y20
;TYPE:WALL-OUTER
G1 F1800 X125.15 Y188.675 E102.09316
G1 X125.15 Y31.325 E107.32664
G1 X126.85 Y31.325 E107.38319
G1 X126.85 Y188.675 E112.61667
M204 S5000
M205 X30 Y30
G0 F7200 X126.65 Y188.675
G0 X126.41 Y188.235
G0 X126.06 Y187.885
M204 S500
M205 X20 Y20
;TYPE:SKIN
G1 F1800 X125.94 Y187.885 E112.62066
G1 X125.94 Y32.115 E117.80159
G1 X126.06 Y32.115 E117.80558
G1 X126.06 Y187.885 E122.98651
M204 S5000
M205 X30 Y30
G1 F2400 E117.98651
G1 F300 Z1.2
G0 F7200 X134.45 Y188.275 Z1.2
M204 S500
M205 X20 Y20
;TYPE:WALL-INNER
G1 F300 Z0.2
G1 F2400 E122.98651
G1 F1800 X133.55 Y188.275 E123.01645
G1 X133.55 Y31.725 E128.22332
G1 X134.45 Y31.725 E128.25326
G1 X134.45 Y188.275 E133.46013
M204 S5000
M205 X30 Y30
G0 F7200 X134.85 Y188.675
M204 S500
M205 X20 Y20
;TYPE:WALL-OUTER
G1 F1800 X133.15 Y188.675 E133.51667
G1 X133.15 Y31.325 E138.75015
G1 X134.85 Y31.325 E138.8067
G1 X134.85 Y188.675 E144.04018
M204 S5000
M205 X30 Y30
G0 F7200 X134.65 Y188.675
G0 X134.41 Y188.235
G0 X134.06 Y187.885
M204 S500
M205 X20 Y20
;TYPE:SKIN
G1 F1800 X133.94 Y187.885 E144.04417
G1 X133.94 Y32.115 E149.2251
G1 X134.06 Y32.115 E149.22909
G1 X134.06 Y187.885 E154.41002
M204 S5000
M205 X30 Y30
G1 F2400 E149.41002
G1 F300 Z1.2
G0 F7200 X118.15 Y188.275 Z1.2
M204 S500
M205 X20 Y20
;TYPE:WALL-INNER
G1 F300 Z0.2
G1 F2400 E154.41002
G1 F1800 X117.85 Y188.275 E154.42
G1 X117.85 Y31.725 E159.62688
G1 X118.15 Y31.725 E159.63685
G1 X118.15 Y188.275 E163.5518
M204 S5000
M205 X30 Y30
G0 F7200 X118.55 Y188.675
M204 S500
M205 X20 Y20
;TYPE:WALL-OUTER
G1 F1800 X117.45 Y188.675 E163.58838
G1 X117.45 Y31.325 E168.82187
G1 X118.55 Y31.325 E168.85845
G1 X118.55 Y188.675 E174.09193
M204 S5000
M205 X30 Y30
G0 F7200 X118.35 Y188.675
G0 X118.11 Y188.235
G1 F2400 E169.09193
G1 F300 Z1.2
G0 F7200 X110.15 Y188.275 Z1.2
M204 S500
M205 X20 Y20
;TYPE:WALL-INNER
G1 F300 Z0.2
G1 F2400 E174.09193
G1 F1800 X109.85 Y188.275 E174.10191
G1 X109.85 Y31.725 E179.30879
G1 X110.15 Y31.725 E179.31876
G1 X110.15 Y188.275 E183.23371
M204 S5000
M205 X30 Y30
G0 F7200 X110.55 Y188.675
M204 S500
M205 X20 Y20
;TYPE:WALL-OUTER
G1 F1800 X109.45 Y188.675 E183.27029
G1 X109.45 Y31.325 E188.50378
G1 X110.55 Y31.325 E188.54036
G1 X110.55 Y188.675 E193.77384
M204 S5000
M205 X30 Y30
G0 F7200 X110.35 Y188.675
G0 X110.11 Y188.235
G1 F2400 E188.77384
G1 F300 Z1.2
G0 F7200 X102.15 Y188.275 Z1.2
M204 S500
M205 X20 Y20
;TYPE:WALL-INNER
G1 F300 Z0.2
G1 F2400 E193.77384
G1 F1800 X101.85 Y188.275 E193.78382
G1 X101.85 Y31.725 E198.9907
G1 X102.15 Y31.725 E199.00067
G1 X102.15 Y188.275 E202.91562
M204 S5000
M205 X30 Y30
G0 F7200 X102.55 Y188.675
M204 S500
M205 X20 Y20
;TYPE:WALL-OUTER
G1 F1800 X101.45 Y188.675 E202.9522
G1 X101.45 Y31.325 E208.18569
G1 X102.55 Y31.325 E208.22227
G1 X102.55 Y188.675 E213.45575
M204 S5000
M205 X30 Y30
G0 F7200 X102.35 Y188.675
G0 X102.11 Y188.235
G1 F2400 E208.45575
G1 F300 Z1.2
G0 F7200 X94.45 Y188.275 Z1.2
M204 S500
M205 X20 Y20
;TYPE:WALL-INNER
G1 F300 Z0.2
G1 F2400 E213.45575
G1 F1800 X93.55 Y188.275 E213.48569
G1 X93.55 Y31.725 E218.69256
G1 X94.45 Y31.725 E218.7225
G1 X94.45 Y188.275 E223.92937
M204 S5000
M205 X30 Y30
G0 F7200 X94.85 Y188.675
M204 S500
M205 X20 Y20
;TYPE:WALL-OUTER
G1 F1800 X93.15 Y188.675 E223.98591
G1 X93.15 Y31.325 E229.2194
G1 X94.85 Y31.325 E229.27594
G1 X94.85 Y188.675 E234.50942
M204 S5000
M205 X30 Y30
G0 F7200 X94.65 Y188.675
G0 X94.41 Y188.235
G0 X94.06 Y187.885
M204 S500
M205 X20 Y20
;TYPE:SKIN
G1 F1800 X93.94 Y187.885 E234.51341
G1 X93.94 Y32.115 E239.69434
G1 X94.06 Y32.115 E239.69833
G1 X94.06 Y187.885 E244.87927
M204 S5000
M205 X30 Y30
G1 F2400 E239.87927
G1 F300 Z1.2
G0 F7200 X86.45 Y188.275 Z1.2
;TIME_ELAPSED:267.626017
;LAYER:1
M140 S65
M106 S255
G0 X86.45 Y188.275 Z1.4
M204 S500
M205 X20 Y20
;TYPE:WALL-INNER
G1 F300 Z0.4
G1 F2400 E244.87927
G1 F2250 X85.55 Y188.275 E244.9092
G1 X85.55 Y31.725 E250.11607
G1 X86.45 Y31.725 E250.14601
G1 X86.45 Y188.275 E255.35288
M204 S5000
M205 X30 Y30
G0 F7200 X86.85 Y188.675
M204 S500
M205 X20 Y20
;TYPE:WALL-OUTER
G1 F1800 X85.15 Y188.675 E255.40942
G1 X85.15 Y31.325 E260.64291
G1 X86.85 Y31.325 E260.69945
G1 X86.85 Y188.675 E265.93293
M204 S5000
M205 X30 Y30
G0 F7200 X86.65 Y188.675
G0 X86.41 Y188.235
G0 X86.06 Y187.885
M204 S500
M205 X20 Y20
;TYPE:SKIN
G1 F1800 X85.94 Y187.885 E265.93692
G1 X85.94 Y32.115 E271.11785
G1 X86.06 Y32.115 E271.12184
G1 X86.06 Y187.885 E276.30278
M204 S5000
M205 X30 Y30
G1 F2400 E271.30278
G1 F300 Z1.4
G0 F7200 X126.45 Y188.275 Z1.4
M204 S500
M205 X20 Y20
;TYPE:WALL-INNER
G1 F300 Z0.4
G1 F2400 E276.30278
G1 F2250 X125.55 Y188.275 E276.33271
G1 X125.55 Y31.725 E281.53958
G1 X126.45 Y31.725 E281.56952
G1 X126.45 Y188.275 E286.77639
M204 S5000
M205 X30 Y30
G0 F7200 X126.85 Y188.675
M204 S500
M205 X20 Y20
;TYPE:WALL-OUTER
G1 F1800 X125.15 Y188.675 E286.83293
G1 X125.15 Y31.325 E292.06642
G1 X126.85 Y31.325 E292.12296
G1 X126.85 Y188.675 E297.35644
M204 S5000
M205 X30 Y30
G0 F7200 X126.65 Y188.675
G0 X126.41 Y188.235
G0 X126.06 Y187.885
M204 S500
M205 X20 Y20
;TYPE:SKIN
G1 F1800 X125.94 Y187.885 E297.36043
G1 X125.94 Y32.115 E302.54136
G1 X126.06 Y32.115 E302.54535
G1 X126.06 Y187.885 E307.72629
M204 S5000
M205 X30 Y30
G1 F2400 E302.72629
G1 F300 Z1.4
G0 F7200 X134.45 Y188.275 Z1.4
M204 S500
M205 X20 Y20
;TYPE:WALL-INNER
G1 F300 Z0.4
G1 F2400 E307.72629
G1 F2250 X133.55 Y188.275 E307.75622
G1 X133.55 Y31.725 E312.96309
G1 X134.45 Y31.725 E312.99303
G1 X134.45 Y188.275 E318.1999
M204 S5000
M205 X30 Y30
G0 F7200 X134.85 Y188.675
M204 S500
M205 X20 Y20
;TYPE:WALL-OUTER
G1 F1800 X133.15 Y188.675 E318.25644
G1 X133.15 Y31.325 E323.48993
G1 X134.85 Y31.325 E323.54647
G1 X134.85 Y188.675 E328.77995
M204 S5000
M205 X30 Y30
G0 F7200 X134.65 Y188.675
G0 X134.41 Y188.235
G0 X134.06 Y187.885
M204 S500
M205 X20 Y20
;TYPE:SKIN
G1 F1800 X133.94 Y187.885 E328.78394
G1 X133.94 Y32.115 E333.96487
G1 X134.06 Y32.115 E333.96887
G1 X134.06 Y187.885 E339.1498
M204 S5000
M205 X30 Y30
G1 F2400 E334.1498
G1 F300 Z1.4
G0 F7200 X118.15 Y188.275 Z1.4
M204 S500
M205 X20 Y20
;TYPE:WALL-INNER
G1 F300 Z0.4
G1 F2400 E339.1498
G1 F2250 X117.85 Y188.275 E339.15977
G1 X117.85 Y31.725 E344.36665
G1 X118.15 Y31.725 E344.37663
G1 X118.15 Y188.275 E348.29157
M204 S5000
M205 X30 Y30
G0 F7200 X118.55 Y188.675
