;FLAVOR:Marlin
;TIME:287
;Filament used: 0.129589m
;Layer height: 0.2
;Generated with Cura_SteamEngine 3.4.1
M190 S70
M104 S205
M109 S205
M82 ;absolute extrusion mode
; Pefix G-Code for most 200mm x 200mm 3D printers by www.DIY3DTech.com to clean nozzle
; Place as start G-Code in Slicer
; Use of this code is at your own risk (no warranties made or implied)
;
M117 Clean ; Indicate nozzle clean in progress on LCD
M107 ; Turn layer fan off
G21 ; Set to metric [change to G20 if you want Imperial]
G90                          ; Force coordinates to be absolute relative to the origin
G28                          ; Home X/Y/Z axis
G0 X1 Y0 Z0.15 F9000         ; Move in 1mm from edge and up [z] 0.15mm
G92 E0                       ; Set extruder to [0] zero
G1 Y190 E50 F500             ; Extrude 100mm filiment along Y axis 190mm long to prime and clean the nozzle
G92 E0                       ; Reset extruder to [0] zero end of cleaning run
G1 E-3 F500                  ; Retract filiment by 3 mm to reduce string effect
G1 X3 Y190 Z15 F9000      ; Move over and rise to safe Z height
G1 X3 Y0 Z15 F9000 ; Move back to front of bed at safe Z height to shear strings
;
; Ensure extruder is not reset by other code or it will be 3mm short [see next line also]
;G1 E3 F500 ; Uncomment if you believe exruder will be reset
; Recommend turning off SKIRT in the slicer to avoid strings pulled into first layer
M117 Printing ; Indicate printing on LCD
; Begin printing with sliced GCode after here
G92 E0
G1 F3000 E-8
;LAYER_COUNT:5
;LAYER:0
M107
M204 S5000
M205 X30 Y30
G0 F3600 X113.262 Y40.718 Z0.2
M204 S500
M205 X20 Y20
;TYPE:SKIRT
G1 F3000 E0
G1 F1800 X113.534 Y40.107 E0.02224
G1 X113.877 Y39.533 E0.04448
G1 X114.286 Y39.003 E0.06675
G1 X114.755 Y38.526 E0.089
G1 X115.277 Y38.108 E0.11124
G1 X115.846 Y37.756 E0.1335
G1 X116.453 Y37.474 E0.15576
G1 X117.089 Y37.266 E0.17801
G1 X117.745 Y37.136 E0.20026
G1 X118.516 Y37.084 E0.22596
G1 X136.011 Y37.114 E0.80785
G1 X136.678 Y37.155 E0.83007
G1 X137.144 Y37.232 E0.84578
G1 X137.619 Y37.331 E0.86192
G1 X138.264 Y37.506 E0.88415
G1 X138.884 Y37.757 E0.90639
G1 X139.31 Y37.983 E0.92243
G1 X141.219 Y39.103 E0.99605
G1 X145.987 Y41.654 E1.1759
G1 X150.821 Y43.898 E1.35316
G1 X155.823 Y45.888 E1.53221
G1 X158.264 Y46.736 E1.61816
G1 X163.418 Y48.294 E1.79724
G1 X168.609 Y49.545 E1.97484
G1 X173.88 Y50.506 E2.15304
G1 X177.558 Y51 E2.27647
G1 X177.754 Y51.03 E2.28307
G1 X181.699 Y51.703 E2.41617
G1 X186.585 Y52.318 E2.57997
G1 X187.242 Y52.441 E2.6022
G1 X187.88 Y52.642 E2.62445
G1 X188.49 Y52.917 E2.6467
G1 X189.063 Y53.263 E2.66896
G1 X189.59 Y53.675 E2.69121
G1 X190.064 Y54.147 E2.71346
G1 X190.479 Y54.672 E2.73572
G1 X190.828 Y55.242 E2.75795
G1 X191.107 Y55.851 E2.78023
G1 X191.311 Y56.488 E2.80248
G1 X191.437 Y57.145 E2.82473
G1 X191.485 Y57.905 E2.85005
G1 X191.459 Y62.642 E3.00761
G1 X191.415 Y63.309 E3.02984
G1 X191.292 Y63.967 E3.05211
G1 X191.092 Y64.605 E3.07434
G1 X190.817 Y65.215 E3.0966
G1 X190.471 Y65.788 E3.11886
G1 X190.059 Y66.315 E3.14111
G1 X189.682 Y66.703 E3.15911
G1 X187.643 Y68.608 E3.25192
G1 X183.822 Y72.488 E3.43304
G1 X178.724 Y78.005 E3.68288
G1 X175.302 Y82.125 E3.86101
G1 X172.126 Y86.424 E4.03879
G1 X169.206 Y90.881 E4.21601
G1 X166.532 Y95.514 E4.39393
G1 X164.133 Y100.275 E4.57125
G1 X162.005 Y105.166 E4.74865
G1 X160.156 Y110.172 E4.92615
G1 X158.585 Y115.303 E5.10462
G1 X157.305 Y120.517 E5.28319
G1 X156.795 Y123.069 E5.36975
G1 X155.963 Y128.371 E5.54825
G1 X155.436 Y133.669 E5.72533
G1 X155.207 Y139.025 E5.90364
G1 X155.282 Y144.346 E6.08063
G1 X155.658 Y149.672 E6.25822
G1 X156.337 Y154.977 E6.4361
G1 X157.321 Y160.272 E6.61523
G1 X157.893 Y162.765 E6.7003
G1 X159.341 Y168.023 E6.88169
G1 X160.049 Y170.257 E6.95964
G1 X160.213 Y170.906 E6.9819
G1 X160.298 Y171.57 E7.00417
G1 X160.311 Y171.96 E7.01715
G1 X160.306 Y174.722 E7.10901
G1 X160.265 Y175.39 E7.13127
G1 X160.174 Y175.922 E7.14922
G1 X159.996 Y176.726 E7.17661
G1 X159.812 Y177.37 E7.19889
G1 X159.553 Y177.987 E7.22114
G1 X159.223 Y178.569 E7.2434
G1 X158.865 Y179.058 E7.26355
G1 X158.513 Y179.489 E7.28206
G1 X158.06 Y179.981 E7.30431
G1 X157.551 Y180.416 E7.32658
G1 X156.888 Y180.847 E7.35288
G1 X156.682 Y180.961 E7.36071
G1 X156.078 Y181.249 E7.38296
G1 X155.444 Y181.464 E7.40523
G1 X155.089 Y181.548 E7.41736
G1 X150.528 Y182.478 E7.57218
G1 X150.462 Y182.491 E7.57442
G1 X148.837 Y182.802 E7.62945
G1 X148.173 Y182.888 E7.65172
G1 X147.551 Y182.897 E7.67241
G1 X146.64 Y182.859 E7.70274
G1 X145.974 Y182.791 E7.725
G1 X145.232 Y182.618 E7.75034
G1 X138.717 Y180.621 E7.97698
G1 X133.507 Y179.337 E8.15545
G1 X130.887 Y178.806 E8.24437
G1 X128.328 Y178.366 E8.33073
G1 X122.974 Y177.673 E8.51029
G1 X117.666 Y177.29 E8.68729
G1 X112.325 Y177.206 E8.86496
G1 X106.988 Y177.426 E9.04262
G1 X101.689 Y177.944 E9.2197
G1 X96.381 Y178.769 E9.39837
G1 X91.382 Y179.825 E9.5683
G1 X90.72 Y179.924 E9.59057
G1 X90.22 Y179.946 E9.60721
G1 X70.738 Y179.928 E10.25519
G1 X70.347 Y179.914 E10.2682
G1 X64.855 Y179.525 E10.45132
G1 X59.534 Y179.449 E10.62832
G1 X54.142 Y179.678 E10.80782
G1 X52.59 Y179.809 E10.85962
G1 X52.528 Y179.814 E10.86169
G1 X50.805 Y179.94 E10.91915
G1 X50.394 Y179.955 E10.93283
G1 X34.111 Y179.945 E11.4744
G1 X33.443 Y179.905 E11.49666
G1 X32.785 Y179.785 E11.51891
G1 X32.145 Y179.588 E11.54118
G1 X31.534 Y179.315 E11.56344
G1 X30.96 Y178.972 E11.58568
G1 X30.43 Y178.563 E11.60795
G1 X29.954 Y178.094 E11.63017
G1 X29.536 Y177.571 E11.65244
G1 X29.184 Y177.002 E11.67469
G1 X28.903 Y176.395 E11.69694
G1 X28.695 Y175.759 E11.7192
G1 X28.565 Y175.103 E11.74144
G1 X28.514 Y174.344 E11.76674
G1 X28.515 Y168.984 E11.94501
G1 X28.555 Y168.316 E11.96727
G1 X28.675 Y167.658 E11.98952
G1 X28.872 Y167.019 E12.01176
G1 X29.144 Y166.407 E12.03403
G1 X29.486 Y165.833 E12.05626
G1 X29.895 Y165.303 E12.07852
G1 X30.365 Y164.826 E12.1008
G1 X30.887 Y164.409 E12.12302
G1 X31.456 Y164.056 E12.14529
G1 X32.063 Y163.775 E12.16754
G1 X32.699 Y163.567 E12.18979
G1 X33.261 Y163.45 E12.20888
G1 X36.897 Y162.889 E12.33125
G1 X42.201 Y161.822 E12.5112
G1 X44.717 Y161.203 E12.59737
G1 X47.27 Y160.499 E12.68546
G1 X52.408 Y158.842 E12.86501
G1 X57.377 Y156.924 E13.04217
G1 X62.256 Y154.716 E13.22029
G1 X66.967 Y152.255 E13.39707
G1 X71.557 Y149.515 E13.57486
G1 X76.001 Y146.509 E13.75331
G1 X80.232 Y143.283 E13.93027
G1 X84.281 Y139.819 E14.1075
G1 X88.139 Y136.119 E14.28529
G1 X91.816 Y132.171 E14.46474
G1 X93.497 Y130.205 E14.55077
G1 X96.803 Y125.987 E14.72902
G1 X99.871 Y121.584 E14.90751
G1 X102.658 Y117.056 E15.08435
G1 X105.201 Y112.35 E15.26226
G1 X107.465 Y107.522 E15.43962
G1 X109.489 Y102.491 E15.61999
G1 X110.335 Y100.092 E15.70459
G1 X111.909 Y94.953 E15.88336
G1 X113.196 Y89.71 E16.06292
G1 X113.718 Y87.119 E16.15082
G1 X114.156 Y84.557 E16.23727
G1 X114.842 Y79.208 E16.41664
G1 X115.221 Y73.876 E16.59443
G1 X115.298 Y68.556 E16.77139
G1 X115.073 Y63.218 E16.94909
G1 X114.547 Y57.902 E17.12677
G1 X113.715 Y52.589 E17.30563
G1 X113.018 Y49.159 E17.42204
G1 X112.924 Y48.496 E17.44432
G1 X112.906 Y48.044 E17.45936
G1 X112.906 Y42.684 E17.63764
G1 X112.946 Y42.016 E17.65989
G1 X113.065 Y41.358 E17.68213
G1 X113.262 Y40.718 E17.70441
M204 S5000
M205 X30 Y30
G0 F3600 X113.662 Y40.793
M204 S500
M205 X20 Y20
G1 F1800 X113.933 Y40.208 E17.72585
G1 X114.275 Y39.661 E17.74731
G1 X114.681 Y39.161 E17.76873
G1 X115.146 Y38.715 E17.79016
G1 X115.663 Y38.33 E17.8116
G1 X116.224 Y38.011 E17.83306
G1 X116.82 Y37.765 E17.85451
G1 X117.441 Y37.594 E17.87593
G1 X118.079 Y37.502 E17.89737
G1 X118.515 Y37.484 E17.91188
G1 X136.01 Y37.514 E18.49377
G1 X136.653 Y37.555 E18.5152
G1 X137.062 Y37.623 E18.52899
G1 X137.537 Y37.722 E18.54513
G1 X138.159 Y37.893 E18.56658
G1 X138.755 Y38.139 E18.58803
G1 X139.108 Y38.328 E18.60135
G1 X141.037 Y39.46 E18.67574
G1 X145.787 Y42.001 E18.85491
G1 X150.669 Y44.267 E19.03392
G1 X155.704 Y46.27 E19.21415
G1 X158.135 Y47.115 E19.29975
G1 X163.313 Y48.68 E19.47967
G1 X168.515 Y49.934 E19.65764
G1 X173.82 Y50.901 E19.837
G1 X177.504 Y51.396 E19.96063
G1 X177.686 Y51.424 E19.96675
G1 X181.648 Y52.1 E20.10043
G1 X186.535 Y52.715 E20.26426
G1 X187.168 Y52.835 E20.28569
G1 X187.782 Y53.032 E20.30713
G1 X188.366 Y53.304 E20.32856
G1 X188.913 Y53.646 E20.35002
G1 X189.412 Y54.053 E20.37143
G1 X189.858 Y54.519 E20.39289
G1 X190.243 Y55.037 E20.41435
G1 X190.56 Y55.598 E20.43579
G1 X190.806 Y56.194 E20.45723
G1 X190.976 Y56.815 E20.47865
G1 X191.068 Y57.453 E20.50009
G1 X191.085 Y57.903 E20.51506
G1 X191.059 Y62.64 E20.67262
G1 X191.015 Y63.283 E20.69405
G1 X190.893 Y63.916 E20.7155
G1 X190.693 Y64.528 E20.73691
G1 X190.418 Y65.112 E20.75838
G1 X190.074 Y65.657 E20.77982
G1 X189.664 Y66.155 E20.80127
G1 X189.409 Y66.41 E20.81327
G1 X187.38 Y68.306 E20.90563
G1 X183.525 Y72.22 E21.08835
G1 X178.423 Y77.742 E21.3384
G1 X174.981 Y81.886 E21.51758
G1 X171.802 Y86.188 E21.69549
G1 X168.868 Y90.667 E21.87358
G1 X166.179 Y95.326 E22.0525
G1 X163.768 Y100.111 E22.23071
G1 X161.636 Y105.01 E22.40841
G1 X159.774 Y110.053 E22.58721
G1 X158.203 Y115.184 E22.76569
G1 X156.908 Y120.456 E22.94625
G1 X156.405 Y122.974 E23.03165
G1 X155.566 Y128.321 E23.21167
G1 X155.036 Y133.648 E23.38972
G1 X154.807 Y139.014 E23.56835
G1 X154.882 Y144.362 E23.74625
G1 X155.261 Y149.717 E23.9248
G1 X155.939 Y155.02 E24.10262
G1 X156.932 Y160.365 E24.28343
G1 X157.506 Y162.869 E24.36888
G1 X158.951 Y168.116 E24.54989
G1 X159.668 Y170.378 E24.62881
G1 X159.824 Y171.004 E24.65027
G1 X159.911 Y171.959 E24.68217
G1 X159.906 Y174.721 E24.77403
G1 X159.865 Y175.365 E24.79549
G1 X159.783 Y175.836 E24.81139
G1 X159.605 Y176.64 E24.83878
G1 X159.427 Y177.26 E24.86024
G1 X159.174 Y177.852 E24.88165
G1 X158.849 Y178.409 E24.9031
G1 X158.555 Y178.805 E24.9195
G1 X158.203 Y179.236 E24.93801
G1 X157.766 Y179.709 E24.95943
G1 X157.272 Y180.125 E24.98091
G1 X156.694 Y180.497 E25.00377
G1 X156.488 Y180.611 E25.0116
G1 X155.906 Y180.887 E25.03303
G1 X155.009 Y181.156 E25.06417
G1 X150.448 Y182.086 E25.21899
G1 X150.386 Y182.098 E25.22109
G1 X148.761 Y182.409 E25.27612
G1 X148.122 Y182.491 E25.29755
G1 X147.567 Y182.497 E25.31601
G1 X146.656 Y182.459 E25.34634
G1 X146.015 Y182.393 E25.36777
G1 X145.349 Y182.236 E25.39053
G1 X138.824 Y180.236 E25.61752
G1 X133.585 Y178.944 E25.79699
G1 X130.968 Y178.415 E25.88579
G1 X128.37 Y177.967 E25.97347
G1 X123.038 Y177.277 E26.1523
G1 X117.666 Y176.889 E26.33143
G1 X112.332 Y176.806 E26.50887
G1 X106.951 Y177.027 E26.68799
G1 X101.625 Y177.549 E26.86598
G1 X96.327 Y178.372 E27.04431
G1 X91.299 Y179.434 E27.21523
G1 X90.661 Y179.528 E27.23668
G1 X90.22 Y179.546 E27.25136
G1 X70.738 Y179.528 E27.89933
G1 X70.375 Y179.515 E27.91141
G1 X64.871 Y179.125 E28.09494
G1 X59.523 Y179.049 E28.27283
G1 X54.138 Y179.278 E28.4521
G1 X52.556 Y179.411 E28.5049
G1 X52.499 Y179.415 E28.5068
G1 X50.776 Y179.541 E28.56426
G1 X50.394 Y179.555 E28.57697
G1 X34.111 Y179.545 E29.11855
G1 X33.467 Y179.505 E29.14001
G1 X32.834 Y179.385 E29.16144
G1 X32.22 Y179.188 E29.18289
G1 X31.635 Y178.916 E29.20434
G1 X31.089 Y178.574 E29.22577
G1 X30.589 Y178.168 E29.24719
G1 X30.143 Y177.702 E29.26865
G1 X29.758 Y177.185 E29.29009
G1 X29.44 Y176.624 E29.31154
G1 X29.194 Y176.028 E29.33298
G1 X29.023 Y175.407 E29.3544
G1 X28.931 Y174.768 E29.37588
G1 X28.914 Y174.344 E29.38999
G1 X28.915 Y168.984 E29.56826
G1 X28.955 Y168.341 E29.58969
G1 X29.074 Y167.707 E29.61115
G1 X29.271 Y167.093 E29.63259
G1 X29.543 Y166.508 E29.65405
G1 X29.884 Y165.962 E29.67546
G1 X30.291 Y165.461 E29.69693
G1 X30.756 Y165.015 E29.71836
G1 X31.273 Y164.63 E29.7398
G1 X31.834 Y164.312 E29.76125
G1 X32.43 Y164.066 E29.78269
G1 X33.322 Y163.846 E29.81325
G1 X36.95 Y163.286 E29.93535
G1 X42.278 Y162.214 E30.11611
G1 X44.823 Y161.589 E30.20327
G1 X47.402 Y160.877 E30.29226
G1 X52.532 Y159.222 E30.47154
G1 X57.543 Y157.288 E30.65019
G1 X62.413 Y155.084 E30.82798
G1 X67.178 Y152.595 E31.00679
G1 X71.781 Y149.847 E31.18509
G1 X76.213 Y146.849 E31.36306
G1 X80.49 Y143.589 E31.54192
G1 X84.554 Y140.112 E31.71981
G1 X88.427 Y136.398 E31.89829
G1 X92.108 Y132.446 E32.07792
G1 X93.811 Y130.453 E32.16511
G1 X97.131 Y126.218 E32.34409
G1 X100.198 Y121.817 E32.5225
G1 X103.005 Y117.255 E32.70066
G1 X105.558 Y112.532 E32.87923
G1 X107.838 Y107.669 E33.05787
G1 X109.856 Y102.653 E33.23769
G1 X110.715 Y100.217 E33.32361
G1 X112.299 Y95.045 E33.50351
G1 X113.583 Y89.816 E33.6826
G1 X114.109 Y87.2 E33.77135
G1 X114.554 Y84.602 E33.85902
G1 X115.239 Y79.252 E34.03841
G1 X115.621 Y73.892 E34.21714
G1 X115.698 Y68.545 E34.395
G1 X115.473 Y63.196 E34.57306
G1 X114.942 Y57.837 E34.75218
G1 X114.112 Y52.534 E34.9307
G1 X113.41 Y49.079 E35.04796
G1 X113.321 Y48.441 E35.06939
G1 X113.306 Y48.044 E35.0826
G1 X113.306 Y42.684 E35.26088
G1 X113.346 Y42.041 E35.28231
G1 X113.465 Y41.407 E35.30376
G1 X113.662 Y40.793 E35.32521
M204 S5000
M205 X30 Y30
G1 F3000 E27.32521
G0 F3600 X117.832 Y42.889
G0 X118.711 Y42.889
G0 X119.323 Y47.785
G0 X119.423 Y47.855
M204 S500
M205 X20 Y20
;TYPE:WALL-OUTER
G1 F3000 E35.32521
G1 F1800 X118.697 Y47.855 E35.34935
G1 X118.697 Y42.875 E35.51499
G1 X119.423 Y42.875 E35.53914
G1 X119.423 Y47.855 E35.70477
M204 S5000
M205 X30 Y30
G0 F3600 X119.223 Y47.855
G0 X119.054 Y47.495
G1 F1800 X119.059 Y47.217 E35.71254
G1 X119.059 Y46.934 E35.72045
G1 X119.059 Y46.651 E35.72835
G1 X119.059 Y46.368 E35.73626
G1 X119.059 Y46.085 E35.74417
G1 X119.059 Y45.803 E35.75205
G1 X119.059 Y45.52 E35.75995
G1 X119.059 Y45.237 E35.76786
G1 X119.059 Y44.954 E35.77577
G1 X119.059 Y44.671 E35.78367
G1 X119.059 Y44.388 E35.79158
G1 X119.059 Y44.106 E35.79946
G1 X119.059 Y43.823 E35.80736
G1 X119.059 Y43.54 E35.81527
G1 X119.059 Y43.257 E35.82318
G1 X119.191 Y43.106 E35.82798
G0 F3600 X119.155 Y43.07
G0 X118.891 Y47.615
M204 S500
M205 X20 Y20
;TYPE:SKIN
G1 F1800 X118.936 Y47.659 E35.82903
M204 S5000
M205 X30 Y30
G0 F3600 X119.097 Y47.455
G1 F3000 E27.82903
G0 F3600 X119.403 Y46.34
G0 X120.832 Y45.908
G0 X122.2 Y46.409
G0 X122.328 Y46.404
G0 X122.82 Y46.34
G0 X122.838 Y46.276
M204 S500
M205 X20 Y20
;TYPE:WALL-OUTER
G1 F3000 E35.82903
G1 F1800 X122.896 Y46.233 E35.83143
G1 X123.014 Y46.147 E35.83628
G1 X122.935 Y46.284 E35.837
G1 X122.897 Y46.327
G1 X122.795 Y46.443 E35.84194
G1 X122.751 Y46.479 E35.84384
G1 X122.719 Y46.505 E35.84521
G1 X122.642 Y46.555 E35.84826
G1 X122.602 Y46.573 E35.84972
G1 X122.487 Y46.626 E35.85393
G1 X122.444 Y46.646 E35.85551
G1 X122.279 Y46.685 E35.86115
G1 X122.23 Y46.697 E35.86283
G1 X122.099 Y46.706 E35.86719
G1 X122.002 Y46.713 E35.87043
G1 X121.922 Y46.704 E35.87311
G1 X121.631 Y46.671 E35.88285
G1 X121.38 Y46.576 E35.89177
G1 X121.171 Y46.432 E35.90021
G1 X121.077 Y46.34 E35.90459
G1 X121 Y46.246 E35.90863
G1 X120.814 Y45.915 E35.92126
G1 X120.697 Y45.533 E35.93455
G1 X120.644 Y45.174 E35.94662
G1 X120.626 Y44.792 E35.95934
G1 X120.69 Y44.074 E35.98331
G1 X120.773 Y43.759 E35.99415
G1 X120.866 Y43.537 E36.00215
G1 X120.976 Y43.35 E36.00937
G1 X121.155 Y43.144 E36.01844
G1 X121.343 Y43.009 E36.02614
G1 X121.535 Y42.928 E36.03307
G1 X121.711 Y42.889 E36.03907
G1 X121.912 Y42.876 E36.04577
G1 X122.021 Y42.888 E36.04941
G1 X122.172 Y42.903 E36.05446
G1 X122.317 Y42.919 E36.05931
G1 X122.451 Y42.966 E36.06404
G1 X122.565 Y43.007 E36.06807
G1 X122.632 Y43.05 E36.07071
G1 X122.759 Y43.134 E36.07578
G1 X122.776 Y43.152 E36.0766
G1 X122.899 Y43.284 E36.0826
G1 X122.91 Y43.295 E36.08312
G1 X123.003 Y43.448 E36.08908
G1 X122.872 Y43.348 E36.08938
G1 X122.849 Y43.33
G1 X122.702 Y43.266 E36.09057
G1 X122.67 Y43.252
G1 X122.522 Y43.219 E36.0928
G1 X122.367 Y43.207 E36.09609
G1 X122.35 Y43.208
G1 X122.138 Y43.232 E36.10185
G1 X121.995 Y43.284 E36.10648
G1 X121.94 Y43.304 E36.10842
G1 X121.779 Y43.411 E36.11485
G1 X121.649 Y43.549 E36.12116
G1 X121.548 Y43.709 E36.12745
G1 X121.454 Y43.939 E36.13572
G1 X121.37 Y44.353 E36.14977
G1 X121.347 Y44.79 E36.16432
G1 X121.382 Y45.333 E36.18242
G1 X121.453 Y45.654 E36.19335
G1 X121.577 Y45.941 E36.20375
G1 X121.717 Y46.124 E36.21142
G1 X121.83 Y46.219 E36.21633
G1 X121.952 Y46.292 E36.22106
G1 X121.999 Y46.311 E36.22274
