;FLAVOR:Marlin
;TIME:627
;Filament used: 0.336861m
;Layer height: 0.2
;Generated with Cura_SteamEngine 3.4.1
M190 S60
M104 S205
M109 S205
M82 ;absolute extrusion mode
; Pefix G-Code for most 200mm x 200mm 3D printers by www.DIY3DTech.com to clean nozzle
; Place as start G-Code in Slicer
; Use of this code is at your own risk (no warranties made or implied)
;
M117 Clean ; Indicate nozzle clean in progress on LCD
M107 ; Turn layer fan off
G21 ; Set to metric [change to G20 if you want Imperial]
G90                          ; Force coordinates to be absolute relative to the origin
G28                          ; Home X/Y/Z axis
G0 X1 Y0 Z0.15 F9000         ; Move in 1mm from edge and up [z] 0.15mm
G92 E0                       ; Set extruder to [0] zero
G1 Y190 E50 F500             ; Extrude 100mm filiment along Y axis 190mm long to prime and clean the nozzle
G92 E0                       ; Reset extruder to [0] zero end of cleaning run
G1 E-3 F500                  ; Retract filiment by 3 mm to reduce string effect
G1 X3 Y190 Z15 F9000      ; Move over and rise to safe Z height
G1 X3 Y0 Z15 F9000 ; Move back to front of bed at safe Z height to shear strings
;
; Ensure extruder is not reset by other code or it will be 3mm short [see next line also]
;G1 E3 F500 ; Uncomment if you believe exruder will be reset
; Recommend turning off SKIRT in the slicer to avoid strings pulled into first layer
M117 Printing ; Indicate printing on LCD
; Begin printing with sliced GCode after here
G92 E0
G1 F3000 E-8
;LAYER_COUNT:5
;LAYER:0
M107
M204 S5000
M205 X30 Y30
G0 F3600 X77.074 Y44.095 Z0.2
M204 S500
M205 X20 Y20
;TYPE:SKIRT
G1 F3000 E0
G1 F1800 X77.264 Y43.768 E0.01258
G1 X77.519 Y43.487 E0.0252
G1 X77.828 Y43.267 E0.03782
G1 X78.175 Y43.115 E0.05042
G1 X78.716 Y43.032 E0.06862
G1 X79.804 Y43.032 E0.10481
G1 X80.181 Y43.072 E0.11742
G1 X80.541 Y43.19 E0.13002
G1 X80.807 Y43.345 E0.14026
G1 X80.928 Y43.26 E0.14517
G1 X81.277 Y43.111 E0.1578
G1 X81.805 Y43.032 E0.17555
G1 X82.836 Y43.032 E0.20984
G1 X83.213 Y43.072 E0.22245
G1 X83.573 Y43.19 E0.23505
G1 X83.9 Y43.38 E0.24763
G1 X84.079 Y43.543 E0.25568
G1 X84.191 Y43.46 E0.26032
G1 X84.51 Y43.312 E0.27202
G1 X84.962 Y43.154 E0.28794
G1 X85.331 Y43.067 E0.30055
G1 X85.62 Y43.054 E0.31017
G1 X86.322 Y43.079 E0.33354
G1 X86.697 Y43.132 E0.34613
G1 X87.041 Y43.257 E0.35831
G1 X87.092 Y43.232 E0.3602
G1 X87.559 Y43.127 E0.37612
G1 X88.125 Y43.077 E0.39502
G1 X88.611 Y43.1 E0.4112
G1 X88.734 Y43.123 E0.41536
G1 X88.761 Y43.111 E0.41634
G1 X89.29 Y43.032 E0.43413
G1 X90.322 Y43.032 E0.46846
G1 X90.699 Y43.072 E0.48107
G1 X91.059 Y43.19 E0.49367
G1 X91.126 Y43.229 E0.49625
G1 X91.4 Y43.112 E0.50615
G1 X91.929 Y43.032 E0.52395
G1 X92.959 Y43.032 E0.55821
G1 X93.336 Y43.072 E0.57082
G1 X93.696 Y43.19 E0.58342
G1 X93.964 Y43.346 E0.59373
G1 X94.63 Y43.14 E0.61692
G1 X95.002 Y43.067 E0.62953
G1 X95.207 Y43.061 E0.63635
G1 X96.374 Y43.091 E0.67518
G1 X96.629 Y43.124 E0.68373
G1 X96.663 Y42.815 E0.69407
G1 X96.783 Y42.456 E0.70666
G1 X96.975 Y42.129 E0.71927
G1 X97.231 Y41.85 E0.73186
G1 X97.541 Y41.631 E0.74449
G1 X97.889 Y41.481 E0.75709
G1 X98.421 Y41.401 E0.77498
G1 X99.453 Y41.401 E0.80931
G1 X99.83 Y41.441 E0.82192
G1 X100.19 Y41.559 E0.83452
G1 X100.517 Y41.749 E0.8471
G1 X100.798 Y42.004 E0.85972
G1 X101.018 Y42.313 E0.87233
G1 X101.17 Y42.66 E0.88493
G1 X101.234 Y43.088 E0.89933
G1 X101.556 Y43.136 E0.91016
G1 X101.931 Y43.278 E0.92349
G1 X102.46 Y43.55 E0.94328
G1 X102.687 Y43.699 E0.95231
G1 X102.77 Y43.633 E0.95583
G1 X103.103 Y43.465 E0.96824
G1 X103.834 Y43.187 E0.99425
G1 X104.201 Y43.09 E1.00688
G1 X104.507 Y43.069 E1.01708
G1 X105.539 Y43.088 E1.05141
G1 X105.915 Y43.135 E1.06401
G1 X106.214 Y43.233 E1.07448
G1 X106.728 Y43.453 E1.09307
G1 X107.002 Y43.26 E1.10422
G1 X107.351 Y43.111 E1.11684
G1 X107.879 Y43.032 E1.1346
G1 X108.91 Y43.032 E1.16889
G1 X109.287 Y43.072 E1.1815
G1 X109.647 Y43.19 E1.1941
G1 X109.714 Y43.229 E1.19668
G1 X109.987 Y43.112 E1.20656
G1 X110.517 Y43.032 E1.22439
G1 X111.547 Y43.032 E1.25864
G1 X111.924 Y43.072 E1.27125
G1 X112.284 Y43.19 E1.28385
G1 X112.523 Y43.329 E1.29305
G1 X112.642 Y43.275 E1.2974
G1 X113.08 Y43.134 E1.3127
G1 X113.451 Y43.056 E1.32531
G1 X113.885 Y43.065 E1.33975
G1 X114.585 Y43.164 E1.36326
G1 X114.87 Y43.071 E1.37323
G1 X115.244 Y43.032 E1.38574
G1 X116.244 Y43.032 E1.419
G1 X116.621 Y43.072 E1.43161
G1 X116.981 Y43.19 E1.44421
G1 X117.308 Y43.38 E1.45679
G1 X117.345 Y43.413 E1.45844
G1 X117.955 Y43.183 E1.48012
G1 X118.322 Y43.087 E1.49274
G1 X118.642 Y43.068 E1.5034
G1 X119.705 Y43.098 E1.53877
G1 X120.08 Y43.148 E1.55135
G1 X120.427 Y43.271 E1.5636
G1 X120.686 Y43.394 E1.57313
G1 X120.877 Y43.26 E1.58089
G1 X121.226 Y43.111 E1.59351
G1 X121.754 Y43.032 E1.61127
G1 X122.785 Y43.032 E1.64556
G1 X123.162 Y43.072 E1.65817
G1 X123.522 Y43.19 E1.67077
G1 X123.849 Y43.38 E1.68335
G1 X124.13 Y43.635 E1.69597
G1 X124.35 Y43.944 E1.70859
G1 X124.502 Y44.291 E1.72119
G1 X124.585 Y44.832 E1.73939
G1 X124.585 Y46.387 E1.79111
G1 X124.737 Y46.423 E1.79631
G1 X125.079 Y46.587 E1.80892
G1 X125.379 Y46.818 E1.82151
G1 X125.624 Y47.107 E1.83412
G1 X125.803 Y47.441 E1.84672
G1 X125.908 Y47.805 E1.85932
G1 X125.936 Y48.12 E1.86984
G1 X125.936 Y48.979 E1.89841
G1 X125.896 Y49.356 E1.91102
G1 X125.778 Y49.716 E1.92362
G1 X125.588 Y50.043 E1.9362
G1 X125.333 Y50.324 E1.94882
G1 X125.024 Y50.544 E1.96143
G1 X124.677 Y50.696 E1.97403
G1 X124.258 Y50.775 E1.98822
G1 X123.727 Y50.811 E2.00592
G1 X123.348 Y50.797 E2.01853
G1 X123.202 Y50.757 E2.02357
G1 X123.16 Y50.773 E2.02506
G1 X122.707 Y50.831 E2.04025
G1 X121.723 Y50.831 E2.07298
G1 X121.346 Y50.791 E2.08559
G1 X120.986 Y50.673 E2.09819
G1 X120.659 Y50.483 E2.11077
G1 X120.636 Y50.462 E2.1118
G1 X120.186 Y50.652 E2.12805
G1 X119.824 Y50.762 E2.14063
G1 X119.456 Y50.794 E2.15292
G1 X118.478 Y50.778 E2.18545
G1 X118.101 Y50.732 E2.19808
G1 X117.993 Y50.696 E2.20187
G1 X117.972 Y50.885 E2.2082
G1 X117.852 Y51.245 E2.22082
G1 X117.66 Y51.571 E2.2334
G1 X117.403 Y51.85 E2.24602
G1 X117.094 Y52.069 E2.25861
G1 X116.746 Y52.219 E2.27122
G1 X116.214 Y52.299 E2.28911
G1 X115.182 Y52.299 E2.32344
G1 X114.805 Y52.259 E2.33605
G1 X114.445 Y52.141 E2.34865
G1 X114.118 Y51.951 E2.36122
G1 X113.837 Y51.696 E2.37385
G1 X113.617 Y51.387 E2.38646
G1 X113.465 Y51.04 E2.39906
G1 X113.42 Y50.76 E2.40849
G1 X112.83 Y50.626 E2.42862
G1 X112.471 Y50.504 E2.44123
G1 X112.084 Y50.251 E2.45661
G1 X112.068 Y50.265 E2.45731
G1 X111.773 Y50.438 E2.46869
G1 X111.384 Y50.618 E2.48294
G1 X110.839 Y50.772 E2.50178
G1 X110.44 Y50.819 E2.51514
G1 X109.928 Y50.806 E2.53218
G1 X109.426 Y50.721 E2.54911
G1 X109.19 Y50.795 E2.55734
G1 X108.832 Y50.831 E2.56931
G1 X107.848 Y50.831 E2.60203
G1 X107.471 Y50.791 E2.61464
G1 X107.111 Y50.673 E2.62724
G1 X106.784 Y50.483 E2.63982
G1 X106.749 Y50.451 E2.6414
G1 X106.59 Y50.527 E2.64726
G1 X106.157 Y50.67 E2.66243
G1 X105.536 Y50.79 E2.68346
G1 X105.087 Y50.82 E2.69843
G1 X104.281 Y50.772 E2.72529
G1 X103.907 Y50.71 E2.7379
G1 X103.676 Y50.628 E2.74605
G1 X102.959 Y50.319 E2.77202
G1 X102.703 Y50.175 E2.78179
G1 X102.531 Y50.295 E2.78876
G1 X102.085 Y50.543 E2.80573
G1 X101.736 Y50.691 E2.81834
G1 X101.461 Y50.752 E2.82771
G1 X101.028 Y50.813 E2.84226
G1 X100.649 Y50.826 E2.85487
G1 X100.404 Y50.792 E2.86309
G1 X100.015 Y50.71 E2.87632
G1 X99.835 Y50.776 E2.88269
G1 X99.394 Y50.831 E2.89748
G1 X98.391 Y50.831 E2.93084
G1 X98.014 Y50.791 E2.94344
G1 X97.654 Y50.673 E2.95605
G1 X97.363 Y50.504 E2.96724
G1 X97.334 Y50.519 E2.96832
G1 X96.98 Y50.656 E2.98095
G1 X96.752 Y50.702 E2.98868
G1 X95.915 Y50.815 E3.01678
G1 X95.393 Y50.809 E3.03414
G1 X94.406 Y50.653 E3.06737
G1 X94.04 Y50.555 E3.07998
G1 X93.674 Y50.363 E3.09372
G1 X93.501 Y50.245 E3.10069
G1 X93.474 Y50.27 E3.10191
G1 X93.172 Y50.445 E3.11352
G1 X92.787 Y50.621 E3.1276
G1 X92.25 Y50.772 E3.14615
G1 X91.852 Y50.819 E3.15948
G1 X91.34 Y50.806 E3.17652
G1 X90.836 Y50.72 E3.19352
G1 X90.638 Y50.787 E3.20048
G1 X90.244 Y50.831 E3.21366
G1 X89.26 Y50.831 E3.24639
G1 X88.883 Y50.791 E3.259
G1 X88.523 Y50.673 E3.2716
G1 X88.196 Y50.483 E3.28418
G1 X88.193 Y50.48 E3.28432
G1 X88.035 Y50.546 E3.29001
G1 X87.418 Y50.733 E3.31146
G1 X86.876 Y50.81 E3.32967
G1 X86.07 Y50.801 E3.35648
G1 X85.583 Y50.728 E3.37285
G1 X85.027 Y50.565 E3.39212
G1 X84.728 Y50.696 E3.40298
G1 X84.309 Y50.775 E3.41716
G1 X83.778 Y50.811 E3.43487
G1 X83.399 Y50.797 E3.44748
G1 X83.299 Y50.77 E3.45092
G1 X83.253 Y50.91 E3.45583
G1 X83.063 Y51.237 E3.4684
G1 X82.808 Y51.518 E3.48103
G1 X82.499 Y51.738 E3.49364
G1 X82.152 Y51.89 E3.50624
G1 X81.611 Y51.973 E3.52445
G1 X76.935 Y51.973 E3.67997
G1 X76.558 Y51.933 E3.69258
G1 X76.198 Y51.815 E3.70518
G1 X75.871 Y51.625 E3.71776
G1 X75.59 Y51.37 E3.73038
G1 X75.37 Y51.061 E3.743
G1 X75.218 Y50.714 E3.7556
G1 X75.135 Y50.173 E3.7738
G1 X75.135 Y49.341 E3.80147
G1 X75.175 Y48.964 E3.81408
G1 X75.293 Y48.604 E3.82668
G1 X75.483 Y48.277 E3.83926
G1 X75.738 Y47.996 E3.85188
G1 X76.047 Y47.776 E3.8645
G1 X76.394 Y47.624 E3.8771
G1 X76.916 Y47.544 E3.89466
G1 X76.916 Y44.832 E3.98486
G1 X76.956 Y44.455 E3.99747
G1 X77.074 Y44.095 E4.01007
M204 S5000
M205 X30 Y30
G0 F3600 X77.473 Y44.188
M204 S500
M205 X20 Y20
G1 F1800 X77.661 Y43.911 E4.02121
G1 X77.909 Y43.688 E4.0323
G1 X78.203 Y43.529 E4.04342
G1 X78.527 Y43.445 E4.05455
G1 X78.716 Y43.432 E4.06085
G1 X79.804 Y43.432 E4.09704
G1 X80.136 Y43.472 E4.10816
G1 X80.448 Y43.589 E4.11924
G1 X80.725 Y43.777 E4.13038
G1 X80.803 Y43.863 E4.13424
G1 X81.007 Y43.682 E4.14331
G1 X81.302 Y43.525 E4.15443
G1 X81.626 Y43.444 E4.16553
G1 X81.805 Y43.432 E4.1715
G1 X82.836 Y43.432 E4.20579
G1 X83.168 Y43.472 E4.21691
G1 X83.48 Y43.589 E4.228
G1 X83.757 Y43.777 E4.23913
G1 X83.98 Y44.025 E4.25022
G1 X84.022 Y44.104 E4.2532
G1 X84.157 Y43.98 E4.2593
G1 X84.428 Y43.785 E4.2704
G1 X84.642 Y43.689 E4.2782
G1 X85.094 Y43.531 E4.29413
G1 X85.42 Y43.46 E4.30522
G1 X85.606 Y43.454 E4.31141
G1 X86.308 Y43.479 E4.33478
G1 X86.638 Y43.531 E4.34589
G1 X86.871 Y43.619 E4.35417
G1 X87.042 Y43.702 E4.36049
G1 X87.269 Y43.594 E4.36886
G1 X87.594 Y43.525 E4.37991
G1 X88.16 Y43.475 E4.3988
G1 X88.538 Y43.493 E4.41139
G1 X88.769 Y43.536 E4.41921
G1 X88.787 Y43.526 E4.41989
G1 X89.111 Y43.444 E4.43101
G1 X89.29 Y43.432 E4.43697
G1 X90.322 Y43.432 E4.4713
G1 X90.654 Y43.472 E4.48242
G1 X90.966 Y43.589 E4.4935
G1 X91.118 Y43.692 E4.49961
G1 X91.13 Y43.682 E4.50013
G1 X91.425 Y43.526 E4.51123
G1 X91.749 Y43.444 E4.52235
G1 X91.929 Y43.432 E4.52835
G1 X92.959 Y43.432 E4.5626
G1 X93.291 Y43.472 E4.57373
G1 X93.603 Y43.589 E4.58481
G1 X93.88 Y43.777 E4.59594
G1 X93.892 Y43.791 E4.59656
G1 X93.944 Y43.77 E4.59842
G1 X94.748 Y43.522 E4.62641
G1 X95.197 Y43.46 E4.64148
G1 X96.364 Y43.49 E4.68031
G1 X96.838 Y43.586 E4.69639
G1 X97.019 Y43.657 E4.70286
G1 X97.021 Y43.194 E4.71826
G1 X97.063 Y42.862 E4.72939
G1 X97.181 Y42.55 E4.74049
G1 X97.371 Y42.275 E4.7516
G1 X97.62 Y42.053 E4.7627
G1 X97.915 Y41.896 E4.77381
G1 X98.239 Y41.813 E4.78494
G1 X98.421 Y41.801 E4.791
G1 X99.453 Y41.801 E4.82533
G1 X99.785 Y41.841 E4.83645
G1 X100.097 Y41.958 E4.84753
G1 X100.374 Y42.146 E4.85867
G1 X100.597 Y42.394 E4.86976
G1 X100.756 Y42.688 E4.88088
G1 X100.84 Y43.012 E4.89201
G1 X100.853 Y43.214 E4.89874
G1 X100.851 Y43.467 E4.90716
G1 X101.165 Y43.48 E4.91761
G1 X101.494 Y43.533 E4.92869
G1 X101.748 Y43.634 E4.93779
G1 X102.277 Y43.906 E4.95757
G1 X102.554 Y44.093 E4.96869
G1 X102.678 Y44.231 E4.97486
G1 X102.756 Y44.154 E4.9785
G1 X103.02 Y43.948 E4.98964
G1 X103.245 Y43.838 E4.99797
G1 X103.976 Y43.56 E5.02398
G1 X104.301 Y43.48 E5.03511
G1 X104.5 Y43.469 E5.04174
G1 X105.532 Y43.488 E5.07607
G1 X105.863 Y43.534 E5.08719
G1 X106.057 Y43.601 E5.09401
G1 X106.772 Y43.907 E5.11988
G1 X106.813 Y43.93 E5.12144
G1 X106.831 Y43.904 E5.1225
G1 X107.081 Y43.682 E5.13362
G1 X107.376 Y43.525 E5.14473
G1 X107.7 Y43.444 E5.15584
G1 X107.879 Y43.432 E5.16181
G1 X108.91 Y43.432 E5.1961
G1 X109.242 Y43.472 E5.20722
G1 X109.554 Y43.589 E5.2183
G1 X109.707 Y43.693 E5.22446
G1 X109.718 Y43.683 E5.22495
G1 X110.013 Y43.526 E5.23606
G1 X110.337 Y43.444 E5.24718
G1 X110.517 Y43.432 E5.25318
G1 X111.547 Y43.432 E5.28744
G1 X111.879 Y43.472 E5.29856
G1 X112.191 Y43.589 E5.30964
G1 X112.468 Y43.777 E5.32078
G1 X112.479 Y43.789 E5.32132
G1 X112.514 Y43.764 E5.32275
G1 X112.765 Y43.655 E5.33185
G1 X113.203 Y43.514 E5.34716
G1 X113.531 Y43.451 E5.35827
G1 X113.829 Y43.461 E5.36818
G1 X114.644 Y43.577 E5.39556
G1 X114.858 Y43.486 E5.4033
G1 X115.244 Y43.432 E5.41626
G1 X116.244 Y43.432 E5.44952
G1 X116.576 Y43.472 E5.46064
G1 X116.888 Y43.589 E5.47173
G1 X117.165 Y43.777 E5.48286
G1 X117.263 Y43.886 E5.48774
G1 X117.389 Y43.824 E5.49241
G1 X118.096 Y43.557 E5.51754
G1 X118.421 Y43.477 E5.52867
G1 X118.63 Y43.468 E5.53563
G1 X119.693 Y43.498 E5.571
G1 X120.024 Y43.547 E5.58213
G1 X120.255 Y43.633 E5.59033
G1 X120.748 Y43.867 E5.60848
G1 X120.956 Y43.682 E5.61774
G1 X121.251 Y43.525 E5.62885
G1 X121.575 Y43.444 E5.63996
G1 X121.754 Y43.432 E5.64593
G1 X122.785 Y43.432 E5.68022
G1 X123.117 Y43.472 E5.69134
G1 X123.429 Y43.589 E5.70242
G1 X123.706 Y43.777 E5.71356
G1 X123.929 Y44.025 E5.72465
G1 X124.088 Y44.319 E5.73577
G1 X124.172 Y44.643 E5.7469
G1 X124.185 Y44.832 E5.7532
G1 X124.185 Y46.731 E5.81636
G1 X124.356 Y46.737 E5.82205
G1 X124.677 Y46.829 E5.83316
G1 X124.968 Y46.994 E5.84429
G1 X125.211 Y47.223 E5.85539
G1 X125.393 Y47.503 E5.8665
G1 X125.503 Y47.819 E5.87763
G1 X125.536 Y48.12 E5.8877
G1 X125.536 Y48.979 E5.91627
G1 X125.496 Y49.311 E5.92739
G1 X125.379 Y49.623 E5.93847
G1 X125.191 Y49.9 E5.94961
G1 X124.943 Y50.123 E5.9607
G1 X124.649 Y50.282 E5.97182
G1 X124.231 Y50.376 E5.98607
G1 X123.7 Y50.412 E6.00377
G1 X123.366 Y50.394 E6.0149
G1 X123.186 Y50.342 E6.02113
G1 X123.153 Y50.358 E6.02235
G1 X122.707 Y50.431 E6.03738
G1 X121.723 Y50.431 E6.07011
G1 X121.391 Y50.391 E6.08123
G1 X121.079 Y50.274 E6.09231
G1 X120.802 Y50.086 E6.10345
G1 X120.716 Y49.99 E6.10773
G1 X120.699 Y50 E6.10839
G1 X120.03 Y50.283 E6.13255
G1 X119.709 Y50.376 E6.14366
G1 X119.462 Y50.394 E6.1519
G1 X118.484 Y50.378 E6.18443
G1 X118.153 Y50.333 E6.19554
G1 X117.956 Y50.265 E6.20248
G1 X117.616 Y50.119 E6.21478
G1 X117.614 Y50.506 E6.22766
G1 X117.572 Y50.838 E6.23879
G1 X117.453 Y51.15 E6.24989
G1 X117.264 Y51.425 E6.26099
G1 X117.015 Y51.648 E6.27211
G1 X116.72 Y51.804 E6.28321
G1 X116.396 Y51.887 E6.29433
G1 X116.214 Y51.899 E6.3004
G1 X115.182 Y51.899 E6.33472
G1 X114.85 Y51.859 E6.34584
G1 X114.538 Y51.742 E6.35693
G1 X114.261 Y51.554 E6.36806
G1 X114.038 Y51.306 E6.37915
G1 X113.879 Y51.012 E6.39027
G1 X113.795 Y50.688 E6.4014
G1 X113.782 Y50.518 E6.40707
G1 X113.781 Y50.421 E6.4103
G1 X113.623 Y50.396 E6.41562
G1 X112.919 Y50.236 E6.43963
G1 X112.604 Y50.124 E6.45075
G1 X112.304 Y49.922 E6.46278
G1 X112.075 Y49.721 E6.47292
G1 X112.054 Y49.744 E6.47395
G1 X111.802 Y49.963 E6.48506
G1 X111.605 Y50.075 E6.49259
G1 X111.216 Y50.255 E6.50685
G1 X110.792 Y50.374 E6.5215
G1 X110.393 Y50.421 E6.53486
G1 X109.995 Y50.411 E6.5481
G1 X109.465 Y50.321 E6.56598
G1 X109.397 Y50.301 E6.56834
G1 X109.205 Y50.38 E6.57524
G1 X108.832 Y50.431 E6.58777
G1 X107.848 Y50.431 E6.62049
G1 X107.516 Y50.391 E6.63162
G1 X107.204 Y50.274 E6.6427
G1 X106.927 Y50.086 E6.65383
G1 X106.818 Y49.965 E6.65925
G1 X106.772 Y49.997 E6.66111
G1 X106.418 Y50.166 E6.67416
G1 X106.081 Y50.278 E6.68597
G1 X105.46 Y50.398 E6.70701
G1 X105.111 Y50.421 E6.71864
G1 X104.305 Y50.373 E6.7455
G1 X103.834 Y50.261 E6.7616
G1 X103.117 Y49.952 E6.78757
G1 X102.828 Y49.784 E6.79869
G1 X102.687 Y49.655 E6.80504
G1 X102.536 Y49.81 E6.81224
G1 X102.336 Y49.946 E6.82028
G1 X101.89 Y50.194 E6.83726
G1 X101.581 Y50.32 E6.84836
G1 X101.405 Y50.356 E6.85433
G1 X100.972 Y50.417 E6.86887
G1 X100.487 Y50.401 E6.88501
G1 X99.977 Y50.293 E6.90235
G1 X99.83 Y50.361 E6.90774
G1 X99.394 Y50.431 E6.92243
G1 X98.391 Y50.431 E6.95579
G1 X98.059 Y50.391 E6.96691
G1 X97.747 Y50.274 E6.97799
G1 X97.47 Y50.086 E6.98913
G1 X97.417 Y50.027 E6.99177
G1 X97.151 Y50.163 E7.0017
G1 X96.698 Y50.305 E7.01749
G1 X95.861 Y50.418 E7.04558
