;FLAVOR:Marlin
;TIME:356
;Filament used: 0.170409m
;Layer height: 0.2
;Generated with Cura_SteamEngine 3.4.1
M190 S60
M104 S205
M109 S205
M82 ;absolute extrusion mode
; Pefix G-Code for most 200mm x 200mm 3D printers by www.DIY3DTech.com to clean nozzle
; Place as start G-Code in Slicer
; Use of this code is at your own risk (no warranties made or implied)
;
M117 Clean ; Indicate nozzle clean in progress on LCD
M107 ; Turn layer fan off
G21 ; Set to metric [change to G20 if you want Imperial]
G90                          ; Force coordinates to be absolute relative to the origin
G28                          ; Home X/Y/Z axis
G0 X1 Y0 Z0.15 F9000         ; Move in 1mm from edge and up [z] 0.15mm
G92 E0                       ; Set extruder to [0] zero
G1 Y190 E50 F500             ; Extrude 100mm filiment along Y axis 190mm long to prime and clean the nozzle
G92 E0                       ; Reset extruder to [0] zero end of cleaning run
G1 E-3 F500                  ; Retract filiment by 3 mm to reduce string effect
G1 X3 Y190 Z15 F9000      ; Move over and rise to safe Z height
G1 X3 Y0 Z15 F9000 ; Move back to front of bed at safe Z height to shear strings
;
; Ensure extruder is not reset by other code or it will be 3mm short [see next line also]
;G1 E3 F500 ; Uncomment if you believe exruder will be reset
; Recommend turning off SKIRT in the slicer to avoid strings pulled into first layer
M117 Printing ; Indicate printing on LCD
; Begin printing with sliced GCode after here
G92 E0
G1 F3000 E-8
;LAYER_COUNT:5
;LAYER:0
M107
M204 S5000
M205 X30 Y30
G0 F3600 X116.875 Y41.958 Z0.2
M204 S500
M205 X20 Y20
;TYPE:SKIRT
G1 F3000 E0
G1 F1800 X117.065 Y41.631 E0.01258
G1 X117.32 Y41.35 E0.0252
G1 X117.629 Y41.13 E0.03782
G1 X117.976 Y40.978 E0.05042
G1 X118.517 Y40.895 E0.06862
G1 X119.603 Y40.895 E0.10474
G1 X119.98 Y40.935 E0.11735
G1 X120.34 Y41.053 E0.12995
G1 X120.581 Y41.193 E0.13922
G1 X120.707 Y41.136 E0.14382
G1 X121.144 Y40.996 E0.15908
G1 X121.515 Y40.919 E0.17168
G1 X121.946 Y40.928 E0.18602
G1 X122.646 Y41.027 E0.20954
G1 X122.928 Y40.935 E0.2194
G1 X123.305 Y40.895 E0.23201
G1 X124.306 Y40.895 E0.26531
G1 X124.683 Y40.935 E0.27791
G1 X125.043 Y41.053 E0.29052
G1 X125.37 Y41.243 E0.30309
G1 X125.406 Y41.275 E0.3047
G1 X126.016 Y41.045 E0.32638
G1 X126.383 Y40.949 E0.339
G1 X126.704 Y40.93 E0.34969
G1 X127.767 Y40.961 E0.38506
G1 X128.143 Y41.012 E0.39768
G1 X128.488 Y41.134 E0.40985
G1 X128.738 Y41.253 E0.41906
G1 X128.923 Y41.123 E0.42658
G1 X129.272 Y40.974 E0.4392
G1 X129.8 Y40.895 E0.45696
G1 X130.831 Y40.895 E0.49125
G1 X131.208 Y40.935 E0.50386
G1 X131.568 Y41.053 E0.51646
G1 X131.635 Y41.092 E0.51904
G1 X131.908 Y40.975 E0.52892
G1 X132.438 Y40.895 E0.54675
G1 X133.468 Y40.895 E0.581
G1 X133.845 Y40.935 E0.59361
G1 X134.205 Y41.053 E0.60621
G1 X134.383 Y41.157 E0.61307
G1 X134.475 Y41.115 E0.61644
G1 X134.942 Y40.975 E0.63265
G1 X135.315 Y40.905 E0.64527
G1 X135.675 Y40.912 E0.65725
G1 X136.676 Y41.033 E0.69078
G1 X137.045 Y41.118 E0.70338
G1 X137.389 Y41.278 E0.716
G1 X137.691 Y41.507 E0.7286
G1 X137.939 Y41.794 E0.74122
G1 X138.121 Y42.126 E0.75381
G1 X138.229 Y42.489 E0.76641
G1 X138.26 Y42.82 E0.77747
G1 X138.26 Y43.446 E0.79829
G1 X138.22 Y43.823 E0.8109
G1 X138.102 Y44.183 E0.8235
G1 X137.912 Y44.51 E0.83608
G1 X137.657 Y44.791 E0.8487
G1 X137.578 Y44.847 E0.85192
G1 X137.759 Y45.011 E0.86004
G1 X137.979 Y45.32 E0.87266
G1 X138.131 Y45.667 E0.88526
G1 X138.214 Y46.208 E0.90346
G1 X138.214 Y46.894 E0.92628
G1 X138.174 Y47.271 E0.93889
G1 X138.056 Y47.631 E0.95149
G1 X137.866 Y47.958 E0.96407
G1 X137.611 Y48.239 E0.97669
G1 X137.326 Y48.442 E0.98832
G1 X137.271 Y48.609 E0.99417
G1 X137.081 Y48.936 E1.00675
G1 X136.826 Y49.217 E1.01937
G1 X136.517 Y49.437 E1.03199
G1 X136.17 Y49.589 E1.04459
G1 X135.629 Y49.672 E1.06279
G1 X134.99 Y49.672 E1.08405
G1 X134.613 Y49.632 E1.09665
G1 X134.253 Y49.514 E1.10926
G1 X133.926 Y49.324 E1.12183
G1 X133.645 Y49.069 E1.13445
G1 X133.425 Y48.76 E1.14707
G1 X133.315 Y48.518 E1.15591
G1 X133.27 Y48.491 E1.15766
G1 X132.76 Y48.635 E1.17528
G1 X132.361 Y48.682 E1.18865
G1 X131.849 Y48.669 E1.20568
G1 X131.347 Y48.584 E1.22262
G1 X131.114 Y48.658 E1.23075
G1 X130.754 Y48.694 E1.24278
G1 X129.769 Y48.694 E1.27554
G1 X129.392 Y48.654 E1.28815
G1 X129.032 Y48.536 E1.30075
G1 X128.705 Y48.346 E1.31333
G1 X128.686 Y48.329 E1.31418
G1 X128.247 Y48.514 E1.33002
G1 X127.884 Y48.624 E1.34264
G1 X127.518 Y48.656 E1.35486
G1 X126.54 Y48.64 E1.38739
G1 X126.163 Y48.594 E1.40002
G1 X126.054 Y48.558 E1.40384
G1 X126.033 Y48.748 E1.4102
G1 X125.913 Y49.108 E1.42282
G1 X125.721 Y49.434 E1.4354
G1 X125.464 Y49.713 E1.44802
G1 X125.155 Y49.932 E1.46062
G1 X124.807 Y50.082 E1.47322
G1 X124.275 Y50.162 E1.49111
G1 X123.243 Y50.162 E1.52544
G1 X122.866 Y50.122 E1.53805
G1 X122.506 Y50.004 E1.55065
G1 X122.179 Y49.814 E1.56323
G1 X121.898 Y49.559 E1.57585
G1 X121.678 Y49.25 E1.58846
G1 X121.526 Y48.903 E1.60106
G1 X121.481 Y48.623 E1.6105
G1 X121.307 Y48.583 E1.61643
G1 X121.245 Y48.772 E1.62305
G1 X121.055 Y49.099 E1.63563
G1 X120.8 Y49.38 E1.64825
G1 X120.491 Y49.6 E1.66087
G1 X120.144 Y49.752 E1.67347
G1 X119.603 Y49.835 E1.69167
G1 X118.517 Y49.835 E1.72779
G1 X118.14 Y49.795 E1.7404
G1 X117.78 Y49.677 E1.753
G1 X117.453 Y49.487 E1.76558
G1 X117.172 Y49.232 E1.7782
G1 X116.952 Y48.923 E1.79082
G1 X116.8 Y48.576 E1.80342
G1 X116.717 Y48.035 E1.82162
G1 X116.717 Y42.695 E1.99923
G1 X116.757 Y42.318 E2.01184
G1 X116.875 Y41.958 E2.02444
M204 S5000
M205 X30 Y30
G0 F3600 X117.274 Y42.051
M204 S500
M205 X20 Y20
G1 F1800 X117.462 Y41.774 E2.03557
G1 X117.71 Y41.551 E2.04667
G1 X118.004 Y41.392 E2.05778
G1 X118.328 Y41.308 E2.06892
G1 X118.517 Y41.295 E2.07522
G1 X119.603 Y41.295 E2.11134
G1 X119.935 Y41.335 E2.12246
G1 X120.247 Y41.452 E2.13354
G1 X120.524 Y41.64 E2.14468
G1 X120.537 Y41.654 E2.14531
G1 X120.576 Y41.626 E2.14691
G1 X120.829 Y41.517 E2.15607
G1 X121.266 Y41.377 E2.17133
G1 X121.594 Y41.314 E2.18244
G1 X121.89 Y41.324 E2.19229
G1 X122.706 Y41.44 E2.21971
G1 X122.918 Y41.35 E2.22737
G1 X123.305 Y41.295 E2.24037
G1 X124.306 Y41.295 E2.27366
G1 X124.638 Y41.335 E2.28478
G1 X124.95 Y41.452 E2.29587
G1 X125.227 Y41.64 E2.307
G1 X125.324 Y41.748 E2.31183
G1 X125.45 Y41.686 E2.3165
G1 X126.157 Y41.419 E2.34164
G1 X126.482 Y41.339 E2.35277
G1 X126.693 Y41.33 E2.35979
G1 X127.756 Y41.361 E2.39516
G1 X128.086 Y41.41 E2.40626
G1 X128.316 Y41.496 E2.41443
G1 X128.799 Y41.725 E2.4322
G1 X129.002 Y41.545 E2.44123
G1 X129.297 Y41.388 E2.45234
G1 X129.621 Y41.307 E2.46345
G1 X129.8 Y41.295 E2.46942
G1 X130.831 Y41.295 E2.50371
G1 X131.163 Y41.335 E2.51483
G1 X131.475 Y41.452 E2.52591
G1 X131.628 Y41.556 E2.53207
G1 X131.639 Y41.546 E2.53256
G1 X131.934 Y41.389 E2.54368
G1 X132.258 Y41.307 E2.55479
G1 X132.438 Y41.295 E2.56079
G1 X133.468 Y41.295 E2.59505
G1 X133.8 Y41.335 E2.60617
G1 X134.112 Y41.452 E2.61726
G1 X134.341 Y41.607 E2.62645
G1 X134.59 Y41.498 E2.63549
G1 X135.057 Y41.358 E2.65171
G1 X135.386 Y41.301 E2.66281
G1 X135.627 Y41.309 E2.67083
G1 X136.628 Y41.43 E2.70437
G1 X136.953 Y41.509 E2.71549
G1 X137.249 Y41.663 E2.72659
G1 X137.5 Y41.883 E2.73769
G1 X137.693 Y42.156 E2.74881
G1 X137.815 Y42.467 E2.75992
G1 X137.86 Y42.82 E2.77176
G1 X137.86 Y43.446 E2.79258
G1 X137.82 Y43.778 E2.8037
G1 X137.703 Y44.09 E2.81479
G1 X137.515 Y44.367 E2.82592
G1 X137.267 Y44.59 E2.83701
G1 X137.047 Y44.709 E2.84533
G1 X137.044 Y44.96 E2.85368
G1 X137.058 Y44.965 E2.85418
G1 X137.335 Y45.153 E2.86531
G1 X137.558 Y45.401 E2.8764
G1 X137.717 Y45.695 E2.88752
G1 X137.801 Y46.019 E2.89865
G1 X137.814 Y46.208 E2.90495
G1 X137.814 Y46.894 E2.92777
G1 X137.774 Y47.226 E2.93889
G1 X137.657 Y47.538 E2.94998
G1 X137.469 Y47.815 E2.96111
G1 X137.221 Y48.038 E2.9722
G1 X136.994 Y48.161 E2.98079
G1 X136.989 Y48.204 E2.98223
G1 X136.872 Y48.516 E2.99331
G1 X136.684 Y48.793 E3.00445
G1 X136.436 Y49.016 E3.01554
G1 X136.142 Y49.175 E3.02666
G1 X135.818 Y49.259 E3.03779
G1 X135.629 Y49.272 E3.04409
G1 X134.99 Y49.272 E3.06534
G1 X134.658 Y49.232 E3.07647
G1 X134.346 Y49.115 E3.08755
G1 X134.069 Y48.927 E3.09868
G1 X133.846 Y48.679 E3.10978
G1 X133.666 Y48.327 E3.12293
G1 X133.624 Y48.206 E3.12719
G1 X133.44 Y48.137 E3.13372
G1 X133.301 Y48.042 E3.13932
G1 X133.137 Y48.118 E3.14533
G1 X132.713 Y48.237 E3.15998
G1 X132.314 Y48.284 E3.17334
G1 X131.916 Y48.274 E3.18659
G1 X131.386 Y48.184 E3.20447
G1 X131.32 Y48.164 E3.20676
G1 X131.129 Y48.243 E3.21363
G1 X130.754 Y48.294 E3.22622
G1 X129.769 Y48.294 E3.25898
G1 X129.437 Y48.254 E3.2701
G1 X129.125 Y48.137 E3.28119
G1 X128.848 Y47.949 E3.29232
G1 X128.767 Y47.859 E3.29635
G1 X128.759 Y47.864 E3.29666
G1 X128.091 Y48.146 E3.32078
G1 X127.77 Y48.238 E3.33189
G1 X127.524 Y48.256 E3.34009
G1 X126.546 Y48.24 E3.37262
G1 X126.215 Y48.195 E3.38373
G1 X126.02 Y48.128 E3.39059
G1 X125.677 Y47.982 E3.40299
G1 X125.675 Y48.37 E3.41589
G1 X125.633 Y48.701 E3.42699
G1 X125.514 Y49.013 E3.4381
G1 X125.325 Y49.288 E3.4492
G1 X125.075 Y49.511 E3.46034
G1 X124.78 Y49.668 E3.47145
G1 X124.457 Y49.75 E3.48254
G1 X124.275 Y49.762 E3.4886
G1 X123.243 Y49.762 E3.52293
G1 X122.911 Y49.722 E3.53405
G1 X122.599 Y49.605 E3.54513
G1 X122.322 Y49.417 E3.55627
G1 X122.099 Y49.169 E3.56736
G1 X121.94 Y48.875 E3.57848
G1 X121.856 Y48.551 E3.58961
G1 X121.843 Y48.381 E3.59528
G1 X121.842 Y48.284 E3.59851
G1 X121.685 Y48.259 E3.6038
G1 X120.995 Y48.102 E3.62733
G1 X120.963 Y48.367 E3.63621
G1 X120.846 Y48.679 E3.64729
G1 X120.658 Y48.956 E3.65843
G1 X120.41 Y49.179 E3.66952
G1 X120.116 Y49.338 E3.68064
G1 X119.792 Y49.422 E3.69177
G1 X119.603 Y49.435 E3.69807
G1 X118.517 Y49.435 E3.73419
G1 X118.185 Y49.395 E3.74531
G1 X117.873 Y49.278 E3.7564
G1 X117.596 Y49.09 E3.76753
G1 X117.373 Y48.842 E3.77862
G1 X117.214 Y48.548 E3.78974
G1 X117.13 Y48.224 E3.80087
G1 X117.117 Y48.035 E3.80717
G1 X117.117 Y42.695 E3.98478
G1 X117.157 Y42.363 E3.9959
G1 X117.274 Y42.051 E4.00699
M204 S5000
M205 X30 Y30
G0 F3600 X117.557 Y42.416
M204 S500
M205 X20 Y20
G1 F1800 X117.673 Y42.159 E4.01637
G1 X117.856 Y41.944 E4.02576
G1 X118.092 Y41.79 E4.03513
G1 X118.362 Y41.707 E4.04452
G1 X118.517 Y41.695 E4.04969
G1 X119.603 Y41.695 E4.08582
G1 X119.882 Y41.735 E4.09519
G1 X120.139 Y41.851 E4.10457
G1 X120.354 Y42.034 E4.11396
G1 X120.471 Y42.214 E4.1211
G1 X120.577 Y42.116 E4.1259
G1 X120.809 Y41.956 E4.13527
G1 X120.951 Y41.898 E4.14038
G1 X121.388 Y41.758 E4.15564
G1 X121.666 Y41.71 E4.16502
G1 X121.833 Y41.72 E4.17059
G1 X122.777 Y41.854 E4.2023
G1 X122.968 Y41.754 E4.20947
G1 X123.305 Y41.695 E4.22085
G1 X124.306 Y41.695 E4.25414
G1 X124.585 Y41.735 E4.26352
G1 X124.842 Y41.851 E4.27289
G1 X125.057 Y42.034 E4.28228
G1 X125.211 Y42.27 E4.29166
G1 X125.222 Y42.305 E4.29288
G1 X125.233 Y42.294 E4.29339
G1 X125.458 Y42.123 E4.30279
G1 X125.592 Y42.06 E4.30772
G1 X126.299 Y41.793 E4.33285
G1 X126.681 Y41.729 E4.34574
G1 X127.744 Y41.76 E4.38111
G1 X128.144 Y41.857 E4.3948
G1 X128.855 Y42.195 E4.42098
G1 X128.92 Y42.238 E4.42357
G1 X128.96 Y42.152 E4.42673
G1 X129.145 Y41.939 E4.43611
G1 X129.382 Y41.786 E4.44549
G1 X129.653 Y41.706 E4.45489
G1 X129.8 Y41.695 E4.4598
G1 X130.831 Y41.695 E4.49409
G1 X131.11 Y41.735 E4.50346
G1 X131.367 Y41.851 E4.51284
G1 X131.582 Y42.034 E4.52223
G1 X131.633 Y42.112 E4.52533
G1 X131.782 Y41.94 E4.5329
G1 X132.019 Y41.787 E4.54228
G1 X132.29 Y41.706 E4.55169
G1 X132.438 Y41.695 E4.55662
G1 X133.468 Y41.695 E4.59088
G1 X133.747 Y41.735 E4.60026
G1 X134.004 Y41.851 E4.60964
G1 X134.219 Y42.034 E4.61903
G1 X134.284 Y42.133 E4.62296
G1 X134.291 Y42.126 E4.62329
G1 X134.518 Y41.958 E4.63269
G1 X134.705 Y41.881 E4.63941
G1 X135.172 Y41.741 E4.65563
G1 X135.579 Y41.706 E4.66922
G1 X136.58 Y41.827 E4.70275
G1 X136.853 Y41.9 E4.71215
G1 X137.094 Y42.047 E4.72154
G1 X137.285 Y42.254 E4.73091
G1 X137.41 Y42.507 E4.74029
G1 X137.46 Y42.82 E4.75084
G1 X137.46 Y43.446 E4.77166
G1 X137.42 Y43.725 E4.78103
G1 X137.304 Y43.982 E4.79041
G1 X137.121 Y44.197 E4.7998
G1 X136.885 Y44.351 E4.80917
G1 X136.65 Y44.423 E4.81735
G1 X136.641 Y45.24 E4.84452
G1 X136.693 Y45.248 E4.84627
G1 X136.95 Y45.364 E4.85565
G1 X137.165 Y45.547 E4.86504
G1 X137.319 Y45.783 E4.87441
G1 X137.402 Y46.053 E4.88381
G1 X137.414 Y46.208 E4.88898
G1 X137.414 Y46.894 E4.9118
G1 X137.374 Y47.173 E4.92117
G1 X137.258 Y47.43 E4.93055
G1 X137.075 Y47.645 E4.93994
G1 X136.839 Y47.799 E4.94931
G1 X136.629 Y47.864 E4.95662
G1 X136.629 Y47.872 E4.95689
G1 X136.589 Y48.151 E4.96626
G1 X136.473 Y48.408 E4.97564
G1 X136.29 Y48.623 E4.98503
G1 X136.054 Y48.777 E4.99441
G1 X135.784 Y48.86 E5.0038
G1 X135.629 Y48.872 E5.00897
G1 X134.99 Y48.872 E5.03022
G1 X134.711 Y48.832 E5.0396
G1 X134.454 Y48.716 E5.04898
G1 X134.239 Y48.533 E5.05837
G1 X134.044 Y48.197 E5.07129
G1 X133.932 Y47.872 E5.08272
G1 X133.805 Y47.854 E5.08699
G1 X133.548 Y47.738 E5.09637
G1 X133.357 Y47.575 E5.10472
G1 X132.969 Y47.755 E5.11894
G1 X132.666 Y47.84 E5.12941
G1 X132.267 Y47.887 E5.14277
G1 X131.983 Y47.88 E5.15222
G1 X131.453 Y47.79 E5.1701
G1 X131.297 Y47.728 E5.17569
G1 X131.082 Y47.839 E5.18373
G1 X130.754 Y47.894 E5.1948
G1 X129.769 Y47.894 E5.22756
G1 X129.49 Y47.854 E5.23693
G1 X129.233 Y47.738 E5.24631
G1 X129.018 Y47.555 E5.2557
G1 X128.865 Y47.321 E5.265
G1 X128.754 Y47.416 E5.26986
G1 X128.604 Y47.495 E5.2755
G1 X127.936 Y47.777 E5.29961
G1 X127.531 Y47.856 E5.31334
G1 X126.553 Y47.84 E5.34587
G1 X126.177 Y47.76 E5.35866
G1 X125.511 Y47.476 E5.38274
G1 X125.281 Y47.337 E5.39168
G1 X125.275 Y48.367 E5.42593
G1 X125.234 Y48.647 E5.43535
G1 X125.116 Y48.903 E5.44472
G1 X124.931 Y49.116 E5.4541
G1 X124.695 Y49.27 E5.46348
G1 X124.424 Y49.351 E5.47289
G1 X124.275 Y49.362 E5.47785
G1 X123.243 Y49.362 E5.51218
G1 X122.964 Y49.322 E5.52155
G1 X122.707 Y49.206 E5.53093
G1 X122.492 Y49.023 E5.54032
G1 X122.338 Y48.787 E5.54969
G1 X122.255 Y48.517 E5.55909
G1 X122.243 Y48.376 E5.5638
G1 X122.236 Y47.868 E5.58069
G1 X122.146 Y47.882 E5.58372
G1 X121.773 Y47.869 E5.59614
G1 X121.069 Y47.709 E5.62015
G1 X120.806 Y47.608 E5.62952
G1 X120.63 Y47.485 E5.63666
G1 X120.603 Y47.461 E5.63786
G1 X120.603 Y48.035 E5.65695
G1 X120.563 Y48.314 E5.66633
G1 X120.447 Y48.571 E5.67571
G1 X120.264 Y48.786 E5.6851
G1 X120.028 Y48.94 E5.69447
G1 X119.758 Y49.023 E5.70387
G1 X119.603 Y49.035 E5.70904
G1 X118.517 Y49.035 E5.74516
G1 X118.238 Y48.995 E5.75453
G1 X117.981 Y48.879 E5.76391
G1 X117.766 Y48.696 E5.7733
G1 X117.612 Y48.46 E5.78267
G1 X117.529 Y48.19 E5.79207
G1 X117.517 Y48.035 E5.79724
G1 X117.517 Y42.695 E5.97485
G1 X117.557 Y42.416 E5.98422
M204 S5000
M205 X30 Y30
G0 F3600 X117.957 Y42.48
M204 S500
M205 X20 Y20
G1 F1800 X118.07 Y42.294 E5.99146
G1 X118.243 Y42.161 E5.99872
G1 X118.517 Y42.095 E6.00809
G1 X119.603 Y42.095 E6.04421
G1 X119.818 Y42.135 E6.05149
G1 X120.004 Y42.248 E6.05872
G1 X120.137 Y42.421 E6.06598
G1 X120.203 Y42.695 E6.07536
G1 X120.203 Y43.155 E6.09066
G1 X120.29 Y42.98 E6.09716
G1 X120.419 Y42.807 E6.10433
G1 X120.848 Y42.41 E6.12377
G1 X121.073 Y42.279 E6.13243
G1 X121.51 Y42.139 E6.1477
G1 X121.777 Y42.116 E6.15661
G1 X122.729 Y42.251 E6.18859
G1 X122.866 Y42.297 E6.1934
G1 X122.898 Y42.254 E6.19518
G1 X123.083 Y42.138 E6.20244
G1 X123.305 Y42.095 E6.20996
G1 X124.306 Y42.095 E6.24326
G1 X124.521 Y42.135 E6.25053
G1 X124.707 Y42.248 E6.25777
G1 X124.84 Y42.421 E6.26503
G1 X124.906 Y42.698 E6.2745
G1 X124.902 Y43.339 E6.29582
G1 X124.943 Y43.231 E6.29966
G1 X125.077 Y43.022 E6.30792
G1 X125.518 Y42.575 E6.3288
G1 X125.733 Y42.435 E6.33734
G1 X126.44 Y42.168 E6.36247
G1 X126.669 Y42.129 E6.3702
G1 X127.732 Y42.16 E6.40557
G1 X127.973 Y42.218 E6.41381
G1 X128.684 Y42.556 E6.44
G1 X128.91 Y42.743 E6.44975
G1 X129.197 Y43.134 E6.46589
G1 X129.2 Y42.691 E6.48062
G1 X129.241 Y42.476 E6.4879
G1 X129.356 Y42.291 E6.49515
G1 X129.53 Y42.159 E6.50241
G1 X129.8 Y42.095 E6.51164
G1 X130.831 Y42.095 E6.54593
G1 X131.046 Y42.135 E6.5532
G1 X131.232 Y42.248 E6.56044
G1 X131.365 Y42.421 E6.5677
G1 X131.431 Y42.689 E6.57688
G1 X131.454 Y45.114 E6.65754
G1 X131.577 Y45.437 E6.66903
G1 X131.64 Y45.495 E6.67188
G1 X131.684 Y45.506 E6.67339
G1 X131.753 Y45.486 E6.67578
