;FLAVOR:Marlin
;TIME:952
;Filament used: 0.344278m
;Layer height: 0.1
;Generated with Cura_SteamEngine 3.4.1
M190 S60
M104 S205
M109 S205
M82 ;absolute extrusion mode
; Pefix G-Code for most 200mm x 200mm 3D printers by www.DIY3DTech.com to clean nozzle
; Place as start G-Code in Slicer
; Use of this code is at your own risk (no warranties made or implied)
;
M117 Clean ; Indicate nozzle clean in progress on LCD
M107 ; Turn layer fan off
G21 ; Set to metric [change to G20 if you want Imperial]
G90                          ; Force coordinates to be absolute relative to the origin
G28                          ; Home X/Y/Z axis
G0 X1 Y0 Z0.15 F9000         ; Move in 1mm from edge and up [z] 0.15mm
G92 E0                       ; Set extruder to [0] zero
G1 Y190 E50 F500             ; Extrude 100mm filiment along Y axis 190mm long to prime and clean the nozzle
G92 E0                       ; Reset extruder to [0] zero end of cleaning run
G1 E-3 F500                  ; Retract filiment by 3 mm to reduce string effect
G1 X3 Y190 Z15 F9000      ; Move over and rise to safe Z height
G1 X3 Y0 Z15 F9000 ; Move back to front of bed at safe Z height to shear strings
;
; Ensure extruder is not reset by other code or it will be 3mm short [see next line also]
;G1 E3 F500 ; Uncomment if you believe exruder will be reset
; Recommend turning off SKIRT in the slicer to avoid strings pulled into first layer
M117 Printing ; Indicate printing on LCD
; Begin printing with sliced GCode after here
G92 E0
G1 F3000 E-8
;LAYER_COUNT:8
;LAYER:0
M107
M204 S5000
M205 X30 Y30
G0 F3600 X77.054 Y44.075 Z0.2
M204 S500
M205 X20 Y20
;TYPE:SKIRT
G1 F3000 E0
G1 F1800 X77.244 Y43.748 E0.01258
G1 X77.499 Y43.467 E0.0252
G1 X77.808 Y43.247 E0.03782
G1 X78.155 Y43.095 E0.05042
G1 X78.696 Y43.012 E0.06862
G1 X79.824 Y43.012 E0.10614
G1 X80.201 Y43.052 E0.11875
G1 X80.561 Y43.17 E0.13135
G1 X80.806 Y43.312 E0.14077
G1 X80.908 Y43.24 E0.14492
G1 X81.257 Y43.091 E0.15754
G1 X81.785 Y43.012 E0.1753
G1 X82.856 Y43.012 E0.21092
G1 X83.233 Y43.052 E0.22353
G1 X83.593 Y43.17 E0.23613
G1 X83.92 Y43.36 E0.24871
G1 X84.087 Y43.512 E0.25622
G1 X84.178 Y43.444 E0.26
G1 X84.496 Y43.296 E0.27166
G1 X84.958 Y43.134 E0.28795
G1 X85.327 Y43.047 E0.30055
G1 X85.617 Y43.034 E0.31021
G1 X86.326 Y43.059 E0.33381
G1 X86.702 Y43.112 E0.34644
G1 X87.04 Y43.236 E0.35841
G1 X87.086 Y43.213 E0.36012
G1 X87.626 Y43.104 E0.37844
G1 X88.368 Y43.07 E0.40315
G1 X88.718 Y43.101 E0.41483
G1 X88.742 Y43.091 E0.4157
G1 X89.27 Y43.012 E0.43346
G1 X90.342 Y43.012 E0.46911
G1 X90.719 Y43.052 E0.48172
G1 X91.079 Y43.17 E0.49432
G1 X91.13 Y43.199 E0.49627
G1 X91.368 Y43.095 E0.50491
G1 X91.909 Y43.012 E0.52312
G1 X92.979 Y43.012 E0.5587
G1 X93.356 Y43.052 E0.57131
G1 X93.716 Y43.17 E0.58391
G1 X93.976 Y43.321 E0.59391
G1 X94.625 Y43.12 E0.61651
G1 X94.997 Y43.047 E0.62912
G1 X95.203 Y43.041 E0.63597
G1 X96.376 Y43.071 E0.675
G1 X96.609 Y43.101 E0.68282
G1 X96.643 Y42.795 E0.69306
G1 X96.763 Y42.435 E0.70568
G1 X96.955 Y42.109 E0.71826
G1 X97.212 Y41.83 E0.73088
G1 X97.521 Y41.611 E0.74347
G1 X97.869 Y41.461 E0.75608
G1 X98.401 Y41.381 E0.77397
G1 X99.473 Y41.381 E0.80963
G1 X99.85 Y41.421 E0.82224
G1 X100.21 Y41.539 E0.83484
G1 X100.537 Y41.729 E0.84741
G1 X100.818 Y41.984 E0.86004
G1 X101.038 Y42.293 E0.87265
G1 X101.19 Y42.64 E0.88525
G1 X101.26 Y43.091 E0.90043
G1 X101.814 Y43.218 E0.91934
G1 X102.172 Y43.341 E0.93193
G1 X102.603 Y43.623 E0.94906
G1 X102.674 Y43.685 E0.95219
G1 X102.764 Y43.613 E0.95602
G1 X103.095 Y43.446 E0.96836
G1 X103.833 Y43.166 E0.99461
G1 X104.2 Y43.07 E1.00723
G1 X104.505 Y43.049 E1.01739
G1 X105.542 Y43.068 E1.05189
G1 X105.918 Y43.115 E1.06449
G1 X106.219 Y43.214 E1.07503
G1 X106.716 Y43.427 E1.09302
G1 X106.982 Y43.24 E1.10383
G1 X107.331 Y43.091 E1.11645
G1 X107.859 Y43.012 E1.13421
G1 X108.93 Y43.012 E1.16983
G1 X109.307 Y43.052 E1.18244
G1 X109.667 Y43.17 E1.19504
G1 X109.718 Y43.199 E1.19699
G1 X109.956 Y43.095 E1.20563
G1 X110.497 Y43.012 E1.22384
G1 X111.567 Y43.012 E1.25942
G1 X111.944 Y43.052 E1.27203
G1 X112.304 Y43.17 E1.28463
G1 X112.531 Y43.302 E1.29337
G1 X112.629 Y43.258 E1.29694
G1 X113.074 Y43.114 E1.3125
G1 X113.445 Y43.036 E1.32511
G1 X113.881 Y43.045 E1.33961
G1 X114.571 Y43.143 E1.36279
G1 X114.851 Y43.052 E1.37258
G1 X115.226 Y43.012 E1.38513
G1 X116.265 Y43.012 E1.41968
G1 X116.642 Y43.052 E1.43229
G1 X117.002 Y43.17 E1.44489
G1 X117.329 Y43.36 E1.45747
G1 X117.359 Y43.387 E1.45882
G1 X117.954 Y43.163 E1.47996
G1 X118.321 Y43.067 E1.49258
G1 X118.639 Y43.048 E1.50317
G1 X119.709 Y43.078 E1.53878
G1 X120.085 Y43.128 E1.55139
G1 X120.432 Y43.251 E1.56364
G1 X120.677 Y43.367 E1.57265
G1 X120.857 Y43.24 E1.57998
G1 X121.206 Y43.091 E1.5926
G1 X121.734 Y43.012 E1.61036
G1 X122.805 Y43.012 E1.64598
G1 X123.182 Y43.052 E1.65859
G1 X123.542 Y43.17 E1.67119
G1 X123.869 Y43.36 E1.68377
G1 X124.15 Y43.615 E1.69639
G1 X124.37 Y43.924 E1.70901
G1 X124.522 Y44.271 E1.72161
G1 X124.605 Y44.812 E1.73981
G1 X124.605 Y46.363 E1.7914
G1 X124.75 Y46.397 E1.79635
G1 X125.092 Y46.559 E1.80894
G1 X125.393 Y46.789 E1.82154
G1 X125.64 Y47.077 E1.83415
G1 X125.82 Y47.41 E1.84674
G1 X125.927 Y47.774 E1.85936
G1 X125.956 Y48.096 E1.87012
G1 X125.956 Y48.994 E1.89998
G1 X125.916 Y49.371 E1.91259
G1 X125.798 Y49.731 E1.92519
G1 X125.608 Y50.058 E1.93777
G1 X125.353 Y50.339 E1.95039
G1 X125.044 Y50.559 E1.96301
G1 X124.697 Y50.711 E1.97561
G1 X124.289 Y50.789 E1.98943
G1 X123.736 Y50.83 E2.00787
G1 X123.357 Y50.818 E2.02048
G1 X123.208 Y50.778 E2.02561
G1 X123.119 Y50.808 E2.02874
G1 X122.726 Y50.851 E2.04189
G1 X121.702 Y50.851 E2.07594
G1 X121.325 Y50.811 E2.08855
G1 X120.965 Y50.693 E2.10115
G1 X120.638 Y50.503 E2.11373
G1 X120.622 Y50.489 E2.11444
G1 X120.19 Y50.672 E2.13004
G1 X119.827 Y50.782 E2.14266
G1 X119.459 Y50.814 E2.15495
G1 X118.475 Y50.798 E2.18768
G1 X118.099 Y50.752 E2.20028
G1 X118.012 Y50.723 E2.20333
G1 X117.992 Y50.905 E2.20942
G1 X117.872 Y51.265 E2.22204
G1 X117.68 Y51.591 E2.23462
G1 X117.423 Y51.87 E2.24724
G1 X117.114 Y52.089 E2.25983
G1 X116.766 Y52.239 E2.27244
G1 X116.234 Y52.319 E2.29033
G1 X115.162 Y52.319 E2.32599
G1 X114.785 Y52.279 E2.3386
G1 X114.425 Y52.161 E2.3512
G1 X114.098 Y51.971 E2.36378
G1 X113.817 Y51.716 E2.3764
G1 X113.597 Y51.407 E2.38901
G1 X113.445 Y51.06 E2.40161
G1 X113.399 Y50.775 E2.41121
G1 X112.824 Y50.645 E2.43082
G1 X112.465 Y50.523 E2.44343
G1 X112.086 Y50.277 E2.45846
G1 X112.081 Y50.281 E2.45867
G1 X111.781 Y50.456 E2.47023
G1 X111.383 Y50.639 E2.4848
G1 X110.84 Y50.792 E2.50356
G1 X110.437 Y50.839 E2.51705
G1 X109.925 Y50.825 E2.53409
G1 X109.438 Y50.742 E2.55052
G1 X109.242 Y50.808 E2.5574
G1 X108.851 Y50.851 E2.57048
G1 X107.827 Y50.851 E2.60454
G1 X107.45 Y50.811 E2.61715
G1 X107.09 Y50.693 E2.62975
G1 X106.763 Y50.503 E2.64233
G1 X106.724 Y50.468 E2.64407
G1 X106.036 Y50.713 E2.66836
G1 X105.667 Y50.802 E2.68099
G1 X105.394 Y50.817 E2.69008
G1 X104.347 Y50.795 E2.72491
G1 X103.971 Y50.747 E2.73752
G1 X103.672 Y50.648 E2.748
G1 X102.946 Y50.335 E2.77429
G1 X102.695 Y50.193 E2.78388
G1 X102.655 Y50.229 E2.78567
G1 X102.349 Y50.452 E2.79827
G1 X101.994 Y50.609 E2.81118
G1 X101.546 Y50.752 E2.82682
G1 X101.175 Y50.828 E2.83941
G1 X100.905 Y50.835 E2.8484
G1 X100.237 Y50.8 E2.87064
G1 X99.959 Y50.755 E2.88001
G1 X99.777 Y50.814 E2.88637
G1 X99.412 Y50.851 E2.89858
G1 X98.37 Y50.851 E2.93323
G1 X97.993 Y50.811 E2.94584
G1 X97.633 Y50.693 E2.95844
G1 X97.353 Y50.531 E2.9692
G1 X97.337 Y50.539 E2.9698
G1 X96.984 Y50.676 E2.98239
G1 X96.754 Y50.722 E2.99019
G1 X95.912 Y50.835 E3.01845
G1 X95.391 Y50.829 E3.03578
G1 X94.395 Y50.671 E3.06932
G1 X94.029 Y50.572 E3.08193
G1 X93.66 Y50.378 E3.0958
G1 X93.504 Y50.271 E3.10209
G1 X93.489 Y50.284 E3.10275
G1 X93.186 Y50.46 E3.1144
G1 X92.79 Y50.641 E3.12889
G1 X92.251 Y50.792 E3.1475
G1 X91.849 Y50.839 E3.16096
G1 X91.337 Y50.825 E3.178
G1 X90.851 Y50.742 E3.1944
G1 X90.655 Y50.808 E3.20128
G1 X90.263 Y50.851 E3.21439
G1 X89.239 Y50.851 E3.24845
G1 X88.862 Y50.811 E3.26106
G1 X88.502 Y50.693 E3.27366
G1 X88.175 Y50.503 E3.28624
G1 X88.171 Y50.499 E3.28643
G1 X88.1 Y50.538 E3.28912
G1 X87.751 Y50.684 E3.3017
G1 X87.474 Y50.743 E3.31112
G1 X86.784 Y50.835 E3.33428
G1 X86.283 Y50.832 E3.35094
G1 X85.408 Y50.703 E3.38036
G1 X85.034 Y50.586 E3.39339
G1 X84.748 Y50.711 E3.40377
G1 X84.34 Y50.789 E3.41759
G1 X83.787 Y50.83 E3.43603
G1 X83.408 Y50.818 E3.44864
G1 X83.318 Y50.794 E3.45174
G1 X83.273 Y50.93 E3.45651
G1 X83.083 Y51.257 E3.46909
G1 X82.828 Y51.538 E3.48171
G1 X82.519 Y51.758 E3.49432
G1 X82.172 Y51.91 E3.50692
G1 X81.631 Y51.993 E3.52513
G1 X76.915 Y51.993 E3.68198
G1 X76.538 Y51.953 E3.69459
G1 X76.178 Y51.835 E3.70719
G1 X75.851 Y51.645 E3.71977
G1 X75.57 Y51.39 E3.73239
G1 X75.35 Y51.081 E3.74501
G1 X75.198 Y50.734 E3.75761
G1 X75.115 Y50.193 E3.77581
G1 X75.115 Y49.321 E3.80481
G1 X75.155 Y48.944 E3.81742
G1 X75.273 Y48.584 E3.83002
G1 X75.463 Y48.257 E3.8426
G1 X75.718 Y47.976 E3.85522
G1 X76.027 Y47.756 E3.86784
G1 X76.374 Y47.604 E3.88044
G1 X76.896 Y47.524 E3.898
G1 X76.896 Y44.812 E3.98821
G1 X76.936 Y44.435 E4.00081
G1 X77.054 Y44.075 E4.01342
M204 S5000
M205 X30 Y30
G0 F3600 X77.453 Y44.168
M204 S500
M205 X20 Y20
G1 F1800 X77.641 Y43.891 E4.02455
G1 X77.889 Y43.668 E4.03564
G1 X78.183 Y43.509 E4.04676
G1 X78.507 Y43.425 E4.05789
G1 X78.696 Y43.412 E4.06419
G1 X79.824 Y43.412 E4.10171
G1 X80.156 Y43.452 E4.11283
G1 X80.468 Y43.569 E4.12392
G1 X80.745 Y43.757 E4.13505
G1 X80.805 Y43.823 E4.13802
G1 X80.987 Y43.662 E4.1461
G1 X81.282 Y43.505 E4.15721
G1 X81.606 Y43.423 E4.16833
G1 X81.785 Y43.412 E4.17429
G1 X82.856 Y43.412 E4.20992
G1 X83.188 Y43.452 E4.22104
G1 X83.5 Y43.569 E4.23212
G1 X83.777 Y43.757 E4.24326
G1 X84 Y44.005 E4.25435
G1 X84.033 Y44.066 E4.25666
G1 X84.144 Y43.964 E4.26167
G1 X84.415 Y43.769 E4.27277
G1 X84.629 Y43.674 E4.28056
G1 X85.091 Y43.512 E4.29684
G1 X85.417 Y43.44 E4.30795
G1 X85.603 Y43.434 E4.31414
G1 X86.312 Y43.459 E4.33773
G1 X86.642 Y43.51 E4.34884
G1 X86.876 Y43.599 E4.35717
G1 X87.041 Y43.679 E4.36327
G1 X87.262 Y43.575 E4.37139
G1 X87.644 Y43.503 E4.38432
G1 X88.386 Y43.469 E4.40902
G1 X88.76 Y43.503 E4.42151
G1 X88.77 Y43.505 E4.42185
G1 X89.091 Y43.424 E4.43286
G1 X89.27 Y43.412 E4.43883
G1 X90.342 Y43.412 E4.47449
G1 X90.674 Y43.452 E4.48561
G1 X90.986 Y43.569 E4.49669
G1 X91.119 Y43.659 E4.50203
G1 X91.396 Y43.509 E4.51251
G1 X91.72 Y43.425 E4.52364
G1 X91.909 Y43.412 E4.52994
G1 X92.979 Y43.412 E4.56553
G1 X93.311 Y43.452 E4.57665
G1 X93.623 Y43.569 E4.58774
G1 X93.9 Y43.757 E4.59887
G1 X93.906 Y43.764 E4.59918
G1 X93.932 Y43.754 E4.6001
G1 X94.743 Y43.503 E4.62834
G1 X95.193 Y43.44 E4.64345
G1 X96.366 Y43.47 E4.68248
G1 X96.84 Y43.566 E4.69857
G1 X96.999 Y43.628 E4.70424
G1 X97.001 Y43.174 E4.71934
G1 X97.043 Y42.842 E4.73047
G1 X97.162 Y42.53 E4.74158
G1 X97.351 Y42.255 E4.75268
G1 X97.6 Y42.033 E4.76377
G1 X97.895 Y41.876 E4.77489
G1 X98.219 Y41.793 E4.78601
G1 X98.401 Y41.781 E4.79208
G1 X99.473 Y41.781 E4.82773
G1 X99.805 Y41.821 E4.83886
G1 X100.117 Y41.938 E4.84994
G1 X100.394 Y42.126 E4.86107
G1 X100.617 Y42.374 E4.87217
G1 X100.776 Y42.668 E4.88328
G1 X100.86 Y42.992 E4.89442
G1 X100.873 Y43.177 E4.90058
G1 X100.874 Y43.425 E4.90883
G1 X101.02 Y43.447 E4.91374
G1 X101.725 Y43.608 E4.9378
G1 X102.039 Y43.721 E4.94889
G1 X102.339 Y43.923 E4.96092
G1 X102.669 Y44.214 E4.97556
G1 X102.749 Y44.134 E4.97932
G1 X103.013 Y43.929 E4.99044
G1 X103.237 Y43.82 E4.99872
G1 X103.975 Y43.54 E5.02498
G1 X104.3 Y43.46 E5.03611
G1 X104.498 Y43.449 E5.0427
G1 X105.535 Y43.468 E5.0772
G1 X105.866 Y43.514 E5.08832
G1 X106.061 Y43.581 E5.09517
G1 X106.786 Y43.892 E5.12141
G1 X106.799 Y43.9 E5.12192
G1 X106.811 Y43.883 E5.12261
G1 X107.061 Y43.662 E5.13371
G1 X107.356 Y43.505 E5.14482
G1 X107.68 Y43.423 E5.15594
G1 X107.859 Y43.412 E5.16191
G1 X108.93 Y43.412 E5.19753
G1 X109.262 Y43.452 E5.20865
G1 X109.574 Y43.569 E5.21973
G1 X109.707 Y43.659 E5.22507
G1 X109.984 Y43.509 E5.23555
G1 X110.308 Y43.425 E5.24668
G1 X110.497 Y43.412 E5.25298
G1 X111.567 Y43.412 E5.28857
G1 X111.899 Y43.452 E5.29969
G1 X112.211 Y43.569 E5.31078
G1 X112.488 Y43.757 E5.32191
G1 X112.489 Y43.758 E5.32196
G1 X112.502 Y43.748 E5.3225
G1 X112.752 Y43.639 E5.33158
G1 X113.197 Y43.495 E5.34713
G1 X113.525 Y43.431 E5.35825
G1 X113.825 Y43.441 E5.36823
G1 X114.629 Y43.555 E5.39524
G1 X114.84 Y43.466 E5.40286
G1 X115.226 Y43.412 E5.41582
G1 X116.265 Y43.412 E5.45038
G1 X116.597 Y43.452 E5.4615
G1 X116.909 Y43.569 E5.47258
G1 X117.186 Y43.757 E5.48372
G1 X117.276 Y43.857 E5.48819
G1 X117.381 Y43.806 E5.49207
G1 X118.095 Y43.537 E5.51745
G1 X118.42 Y43.457 E5.52858
G1 X118.628 Y43.448 E5.53551
G1 X119.698 Y43.478 E5.57111
G1 X120.029 Y43.527 E5.58224
G1 X120.26 Y43.613 E5.59044
G1 X120.736 Y43.839 E5.60796
G1 X120.936 Y43.662 E5.61685
G1 X121.231 Y43.505 E5.62796
G1 X121.555 Y43.423 E5.63908
G1 X121.734 Y43.412 E5.64504
G1 X122.805 Y43.412 E5.68066
G1 X123.137 Y43.452 E5.69179
G1 X123.449 Y43.569 E5.70287
G1 X123.726 Y43.757 E5.714
G1 X123.949 Y44.005 E5.7251
G1 X124.108 Y44.299 E5.73621
G1 X124.192 Y44.623 E5.74735
G1 X124.205 Y44.812 E5.75365
G1 X124.205 Y46.707 E5.81667
G1 X124.37 Y46.712 E5.82216
G1 X124.692 Y46.803 E5.83329
G1 X124.983 Y46.966 E5.84439
G1 X125.227 Y47.194 E5.85549
G1 X125.41 Y47.474 E5.86662
G1 X125.522 Y47.789 E5.87774
G1 X125.556 Y48.096 E5.88801
G1 X125.556 Y48.994 E5.91788
G1 X125.516 Y49.326 E5.929
G1 X125.399 Y49.638 E5.94009
G1 X125.211 Y49.915 E5.95122
G1 X124.963 Y50.138 E5.96231
G1 X124.669 Y50.297 E5.97343
G1 X124.26 Y50.39 E5.98738
G1 X123.707 Y50.431 E6.00582
G1 X123.373 Y50.416 E6.01694
G1 X123.192 Y50.364 E6.02321
G1 X123.126 Y50.393 E6.02561
G1 X122.726 Y50.451 E6.03905
G1 X121.702 Y50.451 E6.07311
G1 X121.37 Y50.411 E6.08423
G1 X121.058 Y50.294 E6.09531
G1 X120.781 Y50.106 E6.10645
G1 X120.703 Y50.02 E6.11031
G1 X120.034 Y50.303 E6.13447
G1 X119.713 Y50.396 E6.14558
G1 X119.465 Y50.414 E6.15385
G1 X118.481 Y50.398 E6.18659
G1 X118.15 Y50.353 E6.1977
G1 X117.952 Y50.285 E6.20466
G1 X117.636 Y50.15 E6.21609
G1 X117.634 Y50.527 E6.22863
G1 X117.592 Y50.858 E6.23973
G1 X117.473 Y51.17 E6.25083
G1 X117.284 Y51.445 E6.26193
G1 X117.034 Y51.668 E6.27307
G1 X116.74 Y51.825 E6.28416
G1 X116.416 Y51.907 E6.29527
G1 X116.234 Y51.919 E6.30134
G1 X115.162 Y51.919 E6.337
G1 X114.83 Y51.879 E6.34812
G1 X114.518 Y51.762 E6.3592
G1 X114.241 Y51.574 E6.37033
G1 X114.018 Y51.326 E6.38143
G1 X113.859 Y51.032 E6.39254
G1 X113.775 Y50.708 E6.40368
G1 X113.762 Y50.539 E6.40931
G1 X113.761 Y50.438 E6.41267
G1 X113.622 Y50.416 E6.41735
G1 X112.912 Y50.255 E6.44157
G1 X112.598 Y50.143 E6.45266
G1 X112.298 Y49.942 E6.46467
G1 X112.078 Y49.748 E6.47442
G1 X112.067 Y49.76 E6.47496
G1 X111.815 Y49.98 E6.48609
G1 X111.614 Y50.093 E6.49376
G1 X111.216 Y50.276 E6.50833
G1 X110.793 Y50.395 E6.52295
G1 X110.39 Y50.442 E6.53644
G1 X109.992 Y50.431 E6.54968
G1 X109.454 Y50.339 E6.56784
G1 X109.407 Y50.325 E6.56947
G1 X109.249 Y50.393 E6.57519
G1 X108.851 Y50.451 E6.58857
G1 X107.827 Y50.451 E6.62262
G1 X107.495 Y50.411 E6.63375
G1 X107.183 Y50.294 E6.64483
G1 X106.906 Y50.106 E6.65596
G1 X106.807 Y49.996 E6.66089
G1 X106.652 Y50.069 E6.66658
G1 X105.902 Y50.336 E6.69306
G1 X105.576 Y50.41 E6.70418
G1 X105.403 Y50.417 E6.70994
G1 X104.356 Y50.395 E6.74477
G1 X104.025 Y50.348 E6.75589
G1 X103.831 Y50.281 E6.76272
G1 X103.105 Y49.968 E6.78901
G1 X102.816 Y49.8 E6.80013
G1 X102.675 Y49.671 E6.80649
G1 X102.386 Y49.932 E6.81944
G1 X102.114 Y50.125 E6.83053
G1 X101.873 Y50.228 E6.83925
G1 X101.425 Y50.371 E6.85489
G1 X101.097 Y50.434 E6.866
G1 X100.926 Y50.435 E6.87169
G1 X100.258 Y50.4 E6.89394
G1 X99.929 Y50.343 E6.90504
G1 X99.927 Y50.342 E6.90512
G1 X99.791 Y50.399 E6.91002
G1 X99.412 Y50.451 E6.92274
G1 X98.37 Y50.451 E6.9574
G1 X98.038 Y50.411 E6.96852
G1 X97.726 Y50.294 E6.97961
G1 X97.449 Y50.106 E6.99074
G1 X97.403 Y50.055 E6.99302
G1 X97.155 Y50.183 E7.00231
G1 X96.701 Y50.326 E7.01814
G1 X95.859 Y50.439 E7.04639
G1 X95.454 Y50.434 E7.05987
G1 X94.458 Y50.276 E7.09341
G1 X94.136 Y50.184 E7.10455
G1 X93.886 Y50.048 E7.11401
