;FLAVOR:Marlin
;TIME:585
;Filament used: 0.160945m
;Layer height: 0.1
;Generated with Cura_SteamEngine 3.4.1
M190 S75
M104 S205
M109 S205
M82 ;absolute extrusion mode
; Pefix G-Code for most 200mm x 200mm 3D printers by www.DIY3DTech.com to clean nozzle
; Place as start G-Code in Slicer
; Use of this code is at your own risk (no warranties made or implied)
;
M117 Clean ; Indicate nozzle clean in progress on LCD
M107 ; Turn layer fan off
G21 ; Set to metric [change to G20 if you want Imperial]
G90                          ; Force coordinates to be absolute relative to the origin
G28                          ; Home X/Y/Z axis
G0 X1 Y0 Z0.15 F9000         ; Move in 1mm from edge and up [z] 0.15mm
G92 E0                       ; Set extruder to [0] zero
G1 Y190 E50 F500             ; Extrude 100mm filiment along Y axis 190mm long to prime and clean the nozzle
G92 E0                       ; Reset extruder to [0] zero end of cleaning run
G1 E-3 F500                  ; Retract filiment by 3 mm to reduce string effect
G1 X3 Y190 Z15 F9000      ; Move over and rise to safe Z height
G1 X3 Y0 Z15 F9000 ; Move back to front of bed at safe Z height to shear strings
;
; Ensure extruder is not reset by other code or it will be 3mm short [see next line also]
;G1 E3 F500 ; Uncomment if you believe exruder will be reset
; Recommend turning off SKIRT in the slicer to avoid strings pulled into first layer
M117 Printing ; Indicate printing on LCD
; Begin printing with sliced GCode after here
G92 E0
G1 F3000 E-8
;LAYER_COUNT:8
;LAYER:0
M107
M204 S5000
M205 X30 Y30
G0 F3600 X112.483 Y40.597 Z0.2
M204 S500
M205 X20 Y20
;TYPE:SKIRT
G1 F3000 E0
G1 F1650 X112.756 Y39.936 E0.02379
G1 X113.1 Y39.309 E0.04757
G1 X113.513 Y38.725 E0.07136
G1 X113.988 Y38.191 E0.09513
G1 X114.52 Y37.712 E0.11894
G1 X115.102 Y37.297 E0.14272
G1 X115.727 Y36.948 E0.16653
G1 X116.387 Y36.672 E0.19032
G1 X117.073 Y36.471 E0.2141
G1 X117.778 Y36.348 E0.2379
G1 X118.537 Y36.304 E0.26319
G1 X136.013 Y36.334 E0.84444
G1 X136.727 Y36.375 E0.86823
G1 X137.326 Y36.472 E0.88841
G1 X137.78 Y36.568 E0.90384
G1 X138.47 Y36.755 E0.92762
G1 X139.136 Y37.018 E0.95144
G1 X139.616 Y37.265 E0.96939
G1 X144.01 Y39.76 E1.13745
G1 X148.751 Y42.123 E1.31364
G1 X153.662 Y44.233 E1.49142
G1 X156.124 Y45.171 E1.57905
G1 X158.548 Y46.012 E1.66438
G1 X163.672 Y47.556 E1.84238
G1 X168.805 Y48.791 E2.01797
G1 X174.055 Y49.744 E2.19544
G1 X177.669 Y50.229 E2.31672
G1 X177.896 Y50.263 E2.32436
G1 X181.826 Y50.934 E2.45696
G1 X186.664 Y51.544 E2.61915
G1 X187.368 Y51.673 E2.64295
G1 X188.053 Y51.88 E2.66675
G1 X188.71 Y52.162 E2.69053
G1 X189.332 Y52.515 E2.71432
G1 X189.91 Y52.936 E2.7381
G1 X190.438 Y53.418 E2.76188
G1 X190.909 Y53.956 E2.78567
G1 X191.317 Y54.544 E2.80947
G1 X191.657 Y55.173 E2.83325
G1 X191.924 Y55.837 E2.85705
G1 X192.116 Y56.526 E2.88084
G1 X192.23 Y57.232 E2.90463
G1 X192.264 Y57.928 E2.92781
G1 X192.239 Y62.625 E3.08403
G1 X192.195 Y63.339 E3.10782
G1 X192.072 Y64.044 E3.13163
G1 X191.871 Y64.73 E3.1554
G1 X191.595 Y65.39 E3.1792
G1 X191.246 Y66.014 E3.20298
G1 X190.831 Y66.596 E3.22675
G1 X190.209 Y67.267 E3.25718
G1 X188.187 Y69.157 E3.34924
G1 X184.381 Y73.021 E3.52963
G1 X179.23 Y78.599 E3.78216
G1 X177.55 Y80.567 E3.86822
G1 X174.277 Y84.748 E4.04482
G1 X171.246 Y89.103 E4.2213
G1 X168.483 Y93.6 E4.39685
G1 X165.96 Y98.277 E4.5736
G1 X163.718 Y103.064 E4.74941
G1 X161.717 Y108.049 E4.92807
G1 X160.885 Y110.415 E5.01149
G1 X159.316 Y115.547 E5.18998
G1 X158.052 Y120.713 E5.36687
G1 X157.533 Y123.299 E5.45459
G1 X157.103 Y125.823 E5.53975
G1 X156.423 Y131.146 E5.71823
G1 X156.051 Y136.419 E5.89405
G1 X155.98 Y141.704 E6.06985
G1 X156.205 Y147.002 E6.24622
G1 X156.73 Y152.262 E6.42203
G1 X157.559 Y157.53 E6.5994
G1 X158.072 Y160.089 E6.68621
G1 X158.655 Y162.615 E6.77243
G1 X160.095 Y167.839 E6.95267
G1 X160.788 Y170.02 E7.02878
G1 X160.967 Y170.713 E7.05259
G1 X161.066 Y171.421 E7.07636
G1 X161.089 Y171.954 E7.09411
G1 X161.091 Y174.576 E7.18132
G1 X161.052 Y175.29 E7.2051
G1 X160.944 Y175.946 E7.22721
G1 X160.725 Y176.949 E7.26136
G1 X160.533 Y177.638 E7.28515
G1 X160.266 Y178.302 E7.30895
G1 X159.927 Y178.932 E7.33274
G1 X159.519 Y179.519 E7.35652
G1 X159.212 Y179.884 E7.37238
G1 X158.889 Y180.24 E7.38837
G1 X158.379 Y180.743 E7.4122
G1 X157.817 Y181.185 E7.43598
G1 X157.221 Y181.554 E7.45929
G1 X157.009 Y181.67 E7.46733
G1 X156.363 Y181.978 E7.49113
G1 X155.687 Y182.212 E7.51493
G1 X155.187 Y182.333 E7.53204
G1 X149.033 Y183.559 E7.74074
G1 X148.325 Y183.659 E7.76452
G1 X147.275 Y183.662 E7.79945
G1 X146.058 Y183.565 E7.84005
G1 X145.349 Y183.468 E7.86385
G1 X144.657 Y183.294 E7.88759
G1 X138.52 Y181.377 E8.10143
G1 X133.328 Y180.092 E8.27933
G1 X130.84 Y179.591 E8.36374
G1 X125.581 Y178.757 E8.54084
G1 X120.3 Y178.223 E8.71738
G1 X115.019 Y177.989 E8.8932
G1 X109.716 Y178.055 E9.06959
G1 X104.443 Y178.418 E9.24539
G1 X99.179 Y179.082 E9.42186
G1 X93.921 Y180.05 E9.59968
G1 X91.637 Y180.565 E9.67755
G1 X90.932 Y180.683 E9.70133
G1 X90.23 Y180.722 E9.72471
G1 X70.901 Y180.723 E10.3676
G1 X70.356 Y180.7 E10.38574
G1 X67.452 Y180.452 E10.48268
G1 X62.135 Y180.228 E10.65968
G1 X56.848 Y180.305 E10.83554
G1 X51.164 Y180.709 E11.02507
G1 X50.704 Y180.725 E11.04038
G1 X34.128 Y180.71 E11.5917
G1 X33.414 Y180.669 E11.61549
G1 X32.709 Y180.549 E11.63927
G1 X32.022 Y180.351 E11.66305
G1 X31.361 Y180.078 E11.68684
G1 X30.734 Y179.732 E11.71066
G1 X30.151 Y179.319 E11.73442
G1 X29.617 Y178.843 E11.75821
G1 X29.139 Y178.311 E11.782
G1 X28.724 Y177.729 E11.80578
G1 X28.376 Y177.104 E11.82957
G1 X28.1 Y176.444 E11.85336
G1 X27.9 Y175.757 E11.87716
G1 X27.777 Y175.052 E11.90096
G1 X27.734 Y174.309 E11.92572
G1 X27.735 Y169.004 E12.10216
G1 X27.775 Y168.29 E12.12595
G1 X27.895 Y167.584 E12.14977
G1 X28.092 Y166.897 E12.17354
G1 X28.365 Y166.236 E12.19732
G1 X28.71 Y165.609 E12.22112
G1 X29.123 Y165.025 E12.24492
G1 X29.598 Y164.491 E12.26869
G1 X30.13 Y164.013 E12.29247
G1 X30.712 Y163.597 E12.31627
G1 X31.337 Y163.249 E12.34006
G1 X31.997 Y162.973 E12.36385
G1 X32.683 Y162.772 E12.38763
G1 X33.159 Y162.68 E12.40375
G1 X36.813 Y162.116 E12.52673
G1 X42.052 Y161.059 E12.70449
G1 X44.596 Y160.433 E12.79162
G1 X47.1 Y159.742 E12.87802
G1 X52.186 Y158.101 E13.05577
G1 X57.132 Y156.189 E13.23214
G1 X61.95 Y154.007 E13.40805
G1 X66.634 Y151.558 E13.58385
G1 X71.215 Y148.821 E13.76134
G1 X73.371 Y147.407 E13.8471
G1 X77.688 Y144.303 E14.02394
G1 X81.819 Y140.964 E14.20061
G1 X85.734 Y137.416 E14.37634
G1 X89.449 Y133.644 E14.55243
G1 X92.984 Y129.625 E14.73045
G1 X94.595 Y127.626 E14.81584
G1 X97.753 Y123.352 E14.99259
G1 X100.652 Y118.926 E15.16857
G1 X103.306 Y114.325 E15.34523
G1 X105.679 Y109.615 E15.52065
G1 X107.812 Y104.71 E15.69854
G1 X108.769 Y102.228 E15.78702
G1 X109.608 Y99.846 E15.87102
G1 X111.177 Y94.72 E16.04932
G1 X112.45 Y89.528 E16.22712
G1 X112.966 Y86.965 E16.31407
G1 X113.4 Y84.419 E16.39997
G1 X114.076 Y79.13 E16.57732
G1 X114.452 Y73.836 E16.75384
G1 X114.526 Y68.553 E16.92957
G1 X114.302 Y63.27 E17.10544
G1 X113.778 Y57.991 E17.28189
G1 X112.952 Y52.721 E17.45931
G1 X112.255 Y49.302 E17.57536
G1 X112.151 Y48.594 E17.59916
G1 X112.126 Y48.024 E17.61814
G1 X112.126 Y42.704 E17.79508
G1 X112.166 Y41.99 E17.81887
G1 X112.285 Y41.285 E17.84265
G1 X112.483 Y40.597 E17.86646
M204 S5000
M205 X30 Y30
G0 F3600 X112.883 Y40.667
M204 S500
M205 X20 Y20
G1 F1650 X113.155 Y40.03 E17.8895
G1 X113.499 Y39.429 E17.91253
G1 X113.91 Y38.871 E17.93558
G1 X114.382 Y38.365 E17.9586
G1 X114.91 Y37.916 E17.98165
G1 X115.485 Y37.531 E18.00466
G1 X116.102 Y37.216 E18.0277
G1 X116.75 Y36.973 E18.05072
G1 X117.423 Y36.806 E18.07379
G1 X118.109 Y36.718 E18.09679
G1 X118.536 Y36.704 E18.111
G1 X136.012 Y36.734 E18.69225
G1 X136.704 Y36.775 E18.71531
G1 X137.243 Y36.864 E18.73348
G1 X137.697 Y36.96 E18.74891
G1 X138.365 Y37.142 E18.77194
G1 X139.008 Y37.4 E18.79499
G1 X139.419 Y37.613 E18.81038
G1 X143.82 Y40.113 E18.97873
G1 X148.578 Y42.483 E19.15553
G1 X153.522 Y44.608 E19.33451
G1 X155.988 Y45.547 E19.42227
G1 X158.421 Y46.392 E19.50794
G1 X163.556 Y47.939 E19.68631
G1 X168.728 Y49.183 E19.86324
G1 X173.992 Y50.139 E20.04118
G1 X177.616 Y50.625 E20.1628
G1 X177.828 Y50.658 E20.16993
G1 X181.752 Y51.328 E20.30233
G1 X186.614 Y51.941 E20.46533
G1 X187.295 Y52.067 E20.48836
G1 X187.957 Y52.271 E20.5114
G1 X188.591 Y52.55 E20.53444
G1 X189.189 Y52.899 E20.55747
G1 X189.742 Y53.316 E20.5805
G1 X190.244 Y53.793 E20.60354
G1 X190.687 Y54.325 E20.62656
G1 X191.066 Y54.905 E20.64961
G1 X191.376 Y55.524 E20.67263
G1 X191.612 Y56.175 E20.69566
G1 X191.772 Y56.849 E20.7187
G1 X191.853 Y57.537 E20.74174
G1 X191.864 Y57.926 E20.75469
G1 X191.839 Y62.623 E20.91091
G1 X191.795 Y63.314 E20.93394
G1 X191.672 Y63.996 E20.95699
G1 X191.472 Y64.658 E20.97999
G1 X191.196 Y65.294 E21.00305
G1 X190.849 Y65.893 E21.02608
G1 X190.435 Y66.448 E21.04911
G1 X189.935 Y66.975 E21.07327
G1 X187.911 Y68.867 E21.16542
G1 X184.085 Y72.751 E21.34675
G1 X178.939 Y78.323 E21.59902
G1 X177.246 Y80.307 E21.68577
G1 X173.951 Y84.515 E21.86353
G1 X170.912 Y88.883 E22.04051
G1 X168.136 Y93.401 E22.21688
G1 X165.607 Y98.09 E22.39407
G1 X163.35 Y102.909 E22.57106
G1 X161.343 Y107.907 E22.7502
G1 X160.501 Y110.299 E22.83454
G1 X158.934 Y115.428 E23.01292
G1 X157.659 Y120.636 E23.19125
G1 X157.141 Y123.219 E23.27887
G1 X156.705 Y125.779 E23.36525
G1 X156.026 Y131.101 E23.54369
G1 X155.652 Y136.403 E23.72047
G1 X155.58 Y141.698 E23.8966
G1 X155.807 Y147.042 E24.07451
G1 X156.332 Y152.31 E24.25059
G1 X157.165 Y157.602 E24.42877
G1 X157.682 Y160.179 E24.51619
G1 X158.27 Y162.725 E24.6031
G1 X159.705 Y167.933 E24.78277
G1 X160.407 Y170.141 E24.85983
G1 X160.578 Y170.812 E24.88286
G1 X160.671 Y171.499 E24.90592
G1 X160.689 Y171.954 E24.92106
G1 X160.691 Y174.576 E25.00827
G1 X160.652 Y175.268 E25.03133
G1 X160.553 Y175.861 E25.05132
G1 X160.334 Y176.864 E25.08547
G1 X160.147 Y177.531 E25.10851
G1 X159.885 Y178.172 E25.13154
G1 X159.551 Y178.778 E25.15455
G1 X159.149 Y179.342 E25.17759
G1 X158.916 Y179.616 E25.18955
G1 X158.593 Y179.972 E25.20554
G1 X158.098 Y180.457 E25.22859
G1 X157.552 Y180.882 E25.2516
G1 X157.029 Y181.204 E25.27203
G1 X156.817 Y181.32 E25.28007
G1 X156.191 Y181.616 E25.3031
G1 X155.536 Y181.839 E25.32611
G1 X155.109 Y181.94 E25.34071
G1 X148.955 Y183.166 E25.54941
G1 X148.269 Y183.262 E25.57245
G1 X147.306 Y183.263 E25.60448
G1 X146.089 Y183.166 E25.64509
G1 X145.403 Y183.071 E25.66812
G1 X144.777 Y182.912 E25.6896
G1 X138.639 Y180.994 E25.90349
G1 X133.411 Y179.701 E26.08261
G1 X130.912 Y179.197 E26.1674
G1 X125.629 Y178.36 E26.34531
G1 X120.322 Y177.823 E26.52272
G1 X115.032 Y177.589 E26.69884
G1 X109.702 Y177.655 E26.87613
G1 X104.4 Y178.02 E27.05289
G1 X99.125 Y178.686 E27.22973
G1 X93.839 Y179.659 E27.4085
G1 X91.549 Y180.175 E27.48657
G1 X90.866 Y180.288 E27.5096
G1 X90.23 Y180.322 E27.53078
G1 X70.901 Y180.323 E28.17367
G1 X70.39 Y180.301 E28.19068
G1 X67.502 Y180.054 E28.28708
G1 X62.128 Y179.828 E28.46598
G1 X56.83 Y179.905 E28.64221
G1 X51.135 Y180.31 E28.83211
G1 X50.705 Y180.325 E28.84642
G1 X34.129 Y180.31 E29.39774
G1 X33.437 Y180.269 E29.42079
G1 X32.755 Y180.149 E29.44383
G1 X32.091 Y179.952 E29.46686
G1 X31.455 Y179.679 E29.48988
G1 X30.854 Y179.334 E29.51293
G1 X30.297 Y178.923 E29.53595
G1 X29.791 Y178.45 E29.55899
G1 X29.343 Y177.922 E29.58202
G1 X28.959 Y177.346 E29.60505
G1 X28.643 Y176.729 E29.6281
G1 X28.401 Y176.081 E29.65111
G1 X28.235 Y175.408 E29.67417
G1 X28.148 Y174.721 E29.6972
G1 X28.134 Y174.309 E29.71091
G1 X28.135 Y169.004 E29.88735
G1 X28.175 Y168.312 E29.91041
G1 X28.295 Y167.63 E29.93344
G1 X28.492 Y166.967 E29.95645
G1 X28.764 Y166.33 E29.97948
G1 X29.108 Y165.729 E30.00251
G1 X29.519 Y165.171 E30.02556
G1 X29.992 Y164.665 E30.0486
G1 X30.52 Y164.217 E30.07163
G1 X31.095 Y163.832 E30.09465
G1 X31.712 Y163.516 E30.11771
G1 X32.36 Y163.273 E30.14072
G1 X33.22 Y163.075 E30.17008
G1 X36.887 Y162.509 E30.29348
G1 X42.152 Y161.446 E30.47213
G1 X44.668 Y160.827 E30.55831
G1 X47.225 Y160.122 E30.64653
G1 X52.316 Y158.479 E30.82446
G1 X57.284 Y156.559 E31.0016
G1 X62.129 Y154.365 E31.1785
G1 X66.824 Y151.91 E31.35472
G1 X71.451 Y149.145 E31.534
G1 X73.565 Y147.759 E31.61807
G1 X77.948 Y144.608 E31.79762
G1 X82.075 Y141.272 E31.97412
G1 X86.015 Y137.701 E32.15098
G1 X89.752 Y133.907 E32.3281
G1 X93.281 Y129.894 E32.50584
G1 X94.9 Y127.886 E32.59163
G1 X98.088 Y123.571 E32.77007
G1 X100.995 Y119.132 E32.94655
G1 X103.652 Y114.526 E33.12341
G1 X106.045 Y109.776 E33.30031
G1 X108.178 Y104.874 E33.47812
G1 X109.139 Y102.379 E33.56705
G1 X109.996 Y99.948 E33.65278
G1 X111.563 Y94.827 E33.8309
G1 X112.837 Y89.628 E34.00894
G1 X113.357 Y87.045 E34.09657
G1 X113.797 Y84.467 E34.18356
G1 X114.474 Y79.171 E34.36113
G1 X114.852 Y73.853 E34.53846
G1 X114.926 Y68.559 E34.71455
G1 X114.7 Y63.232 E34.89189
G1 X114.175 Y57.941 E35.06873
G1 X113.344 Y52.645 E35.24704
G1 X112.647 Y49.222 E35.36322
G1 X112.548 Y48.536 E35.38627
G1 X112.526 Y48.024 E35.40332
G1 X112.526 Y42.704 E35.58026
G1 X112.566 Y42.013 E35.60328
G1 X112.685 Y41.33 E35.62634
G1 X112.883 Y40.667 E35.64936
M204 S5000
M205 X30 Y30
G0 F3600 X113.282 Y40.738
M204 S500
M205 X20 Y20
G1 F1650 X113.554 Y40.127 E35.6716
G1 X113.897 Y39.553 E35.69384
G1 X114.306 Y39.023 E35.71611
G1 X114.775 Y38.546 E35.73836
G1 X115.297 Y38.128 E35.7606
G1 X115.866 Y37.776 E35.78285
G1 X116.473 Y37.494 E35.80511
G1 X117.109 Y37.286 E35.82737
G1 X117.765 Y37.156 E35.84961
G1 X118.536 Y37.104 E35.87531
G1 X136.012 Y37.134 E36.45657
G1 X136.679 Y37.175 E36.4788
G1 X137.161 Y37.255 E36.49505
G1 X137.615 Y37.351 E36.51048
G1 X138.26 Y37.528 E36.53273
G1 X138.879 Y37.781 E36.55497
G1 X139.221 Y37.96 E36.56781
G1 X143.637 Y40.468 E36.73672
G1 X148.421 Y42.852 E36.9145
G1 X153.37 Y44.978 E37.09365
G1 X155.84 Y45.919 E37.18156
G1 X158.294 Y46.771 E37.26796
G1 X163.453 Y48.325 E37.44716
G1 X168.652 Y49.576 E37.62502
G1 X173.934 Y50.535 E37.80357
G1 X177.563 Y51.022 E37.92535
G1 X177.761 Y51.052 E37.93201
G1 X181.704 Y51.725 E38.06506
G1 X186.564 Y52.338 E38.22798
G1 X187.222 Y52.461 E38.25025
G1 X187.86 Y52.662 E38.27249
G1 X188.47 Y52.937 E38.29475
G1 X189.042 Y53.283 E38.31698
G1 X189.569 Y53.695 E38.33923
G1 X190.044 Y54.167 E38.3615
G1 X190.458 Y54.692 E38.38374
G1 X190.807 Y55.263 E38.406
G1 X191.086 Y55.871 E38.42825
G1 X191.29 Y56.508 E38.4505
G1 X191.416 Y57.165 E38.47275
G1 X191.464 Y57.924 E38.49804
G1 X191.439 Y62.621 E38.65427
G1 X191.395 Y63.288 E38.6765
G1 X191.273 Y63.946 E38.69876
G1 X191.072 Y64.584 E38.721
G1 X190.797 Y65.194 E38.74326
G1 X190.451 Y65.767 E38.76552
G1 X190.04 Y66.294 E38.78775
G1 X189.662 Y66.683 E38.80579
G1 X187.623 Y68.588 E38.8986
G1 X183.803 Y72.467 E39.07968
G1 X178.637 Y78.061 E39.33294
G1 X176.944 Y80.045 E39.41968
G1 X173.63 Y84.277 E39.59846
G1 X170.573 Y88.671 E39.7765
G1 X167.789 Y93.202 E39.95337
G1 X165.242 Y97.922 E40.13176
G1 X162.99 Y102.733 E40.30844
G1 X160.969 Y107.766 E40.48883
G1 X160.116 Y110.19 E40.57429
G1 X158.548 Y115.321 E40.75274
G1 X157.272 Y120.532 E40.93118
G1 X156.74 Y123.184 E41.02115
G1 X156.311 Y125.704 E41.10617
G1 X155.628 Y131.059 E41.28572
G1 X155.252 Y136.388 E41.4634
G1 X155.179 Y141.709 E41.6404
G1 X155.408 Y147.064 E41.81867
G1 X155.935 Y152.36 E41.99568
G1 X156.774 Y157.693 E42.17524
G1 X157.279 Y160.209 E42.26059
G1 X157.883 Y162.824 E42.34986
G1 X159.325 Y168.057 E42.53039
G1 X160.026 Y170.262 E42.60735
G1 X160.19 Y170.911 E42.62961
G1 X160.276 Y171.575 E42.65188
G1 X160.289 Y171.955 E42.66453
G1 X160.291 Y174.577 E42.75174
G1 X160.252 Y175.245 E42.77399
G1 X160.162 Y175.776 E42.79191
G1 X159.943 Y176.779 E42.82605
G1 X159.762 Y177.423 E42.8483
G1 X159.505 Y178.04 E42.87053
G1 X159.176 Y178.623 E42.8928
G1 X158.619 Y179.347 E42.92318
G1 X158.296 Y179.703 E42.93917
G1 X157.818 Y180.171 E42.96142
G1 X157.287 Y180.578 E42.98367
G1 X156.837 Y180.853 E43.00121
G1 X156.625 Y180.969 E43.00925
G1 X156.02 Y181.254 E43.03149
G1 X155.385 Y181.465 E43.05375
G1 X155.031 Y181.548 E43.06584
G1 X148.877 Y182.774 E43.27454
G1 X148.214 Y182.865 E43.2968
G1 X147.338 Y182.864 E43.32594
