;FLAVOR:Marlin
;TIME:468
;Filament used: 0.223708m
;Layer height: 0.2
;Generated with Cura_SteamEngine 3.4.1
M190 S70
M104 S205
M109 S205
M82 ;absolute extrusion mode
; Pefix G-Code for most 200mm x 200mm 3D printers by www.DIY3DTech.com to clean nozzle
; Place as start G-Code in Slicer
; Use of this code is at your own risk (no warranties made or implied)
;
M117 Clean ; Indicate nozzle clean in progress on LCD
M107 ; Turn layer fan off
G21 ; Set to metric [change to G20 if you want Imperial]
G90                          ; Force coordinates to be absolute relative to the origin
G28                          ; Home X/Y/Z axis
G0 X1 Y0 Z0.15 F9000         ; Move in 1mm from edge and up [z] 0.15mm
G92 E0                       ; Set extruder to [0] zero
G1 Y190 E50 F500             ; Extrude 100mm filiment along Y axis 190mm long to prime and clean the nozzle
G92 E0                       ; Reset extruder to [0] zero end of cleaning run
G1 E-3 F500                  ; Retract filiment by 3 mm to reduce string effect
G1 X3 Y190 Z15 F9000      ; Move over and rise to safe Z height
G1 X3 Y0 Z15 F9000 ; Move back to front of bed at safe Z height to shear strings
;
; Ensure extruder is not reset by other code or it will be 3mm short [see next line also]
;G1 E3 F500 ; Uncomment if you believe exruder will be reset
; Recommend turning off SKIRT in the slicer to avoid strings pulled into first layer
M117 Printing ; Indicate printing on LCD
; Begin printing with sliced GCode after here
G92 E0
G1 F3000 E-8
;LAYER_COUNT:5
;LAYER:0
M107
M204 S5000
M205 X30 Y30
G0 F3600 X73.779 Y42.157 Z0.2
M204 S500
M205 X20 Y20
;TYPE:SKIRT
G1 F3000 E0
G1 F1800 X74.132 Y41.589 E0.02224
G1 X74.55 Y41.067 E0.04449
G1 X75.027 Y40.598 E0.06673
G1 X75.557 Y40.19 E0.08898
G1 X76.132 Y39.847 E0.11125
G1 X76.744 Y39.576 E0.13351
G1 X77.383 Y39.38 E0.15574
G1 X78.042 Y39.261 E0.17801
G1 X78.616 Y39.223 E0.19715
G1 X84.405 Y39.132 E0.38971
G1 X89.733 Y38.755 E0.56737
G1 X95.126 Y38.064 E0.74821
G1 X97.889 Y37.644 E0.84116
G1 X98.555 Y37.584 E0.8634
G1 X99.01 Y37.588 E0.87853
G1 X100.009 Y37.638 E0.9118
G1 X100.588 Y37.697 E0.93116
G1 X105.549 Y38.468 E1.09814
G1 X110.876 Y38.995 E1.27619
G1 X115.15 Y39.198 E1.4185
G1 X122.818 Y39.222 E1.67354
G1 X123.486 Y39.264 E1.6958
G1 X124.144 Y39.385 E1.71805
G1 X124.783 Y39.584 E1.74031
G1 X125.393 Y39.858 E1.76255
G1 X125.967 Y40.203 E1.78483
G1 X126.495 Y40.613 E1.80706
G1 X126.746 Y40.847 E1.81848
G1 X131.262 Y45.329 E2.0301
G1 X135.292 Y48.873 E2.20859
G1 X137.299 Y50.49 E2.29432
G1 X141.634 Y53.694 E2.47361
G1 X146.092 Y56.614 E2.65085
G1 X150.722 Y59.284 E2.82862
G1 X155.492 Y61.688 E3.00628
G1 X160.419 Y63.831 E3.18498
G1 X162.896 Y64.786 E3.27328
G1 X165.385 Y65.663 E3.36105
G1 X169.204 Y66.872 E3.49429
G1 X169.829 Y67.112 E3.51655
G1 X170.421 Y67.424 E3.53881
G1 X170.971 Y67.805 E3.56106
G1 X171.471 Y68.249 E3.58331
G1 X171.916 Y68.749 E3.60557
G1 X172.297 Y69.299 E3.62782
G1 X172.61 Y69.89 E3.65006
G1 X172.851 Y70.514 E3.67231
G1 X173.015 Y71.163 E3.69458
G1 X173.101 Y71.826 E3.71681
G1 X173.114 Y72.245 E3.73076
G1 X173.099 Y74.746 E3.81394
G1 X173.096 Y74.908 E3.81933
G1 X173.053 Y76.138 E3.86027
G1 X173 Y76.734 E3.88017
G1 X172.272 Y81.83 E4.05138
G1 X171.747 Y87.171 E4.22988
G1 X171.526 Y92.508 E4.40754
G1 X171.606 Y97.831 E4.5846
G1 X171.99 Y103.174 E4.76277
G1 X172.679 Y108.513 E4.94182
G1 X173.129 Y111.179 E5.03175
G1 X173.207 Y112.125 E5.06332
G1 X173.205 Y112.934 E5.09022
G1 X173.163 Y113.602 E5.11249
G1 X173.012 Y114.376 E5.13871
G1 X171.782 Y118.945 E5.29609
G1 X171.513 Y119.717 E5.32328
G1 X169.392 Y124.61 E5.50066
G1 X168.426 Y127.11 E5.5898
G1 X167.573 Y129.533 E5.67523
G1 X165.998 Y134.682 E5.85432
G1 X164.713 Y139.919 E6.03367
G1 X164.192 Y142.514 E6.12171
G1 X163.756 Y145.069 E6.20791
G1 X163.07 Y150.424 E6.38748
G1 X162.693 Y155.753 E6.56516
G1 X162.617 Y161.074 E6.74216
G1 X162.845 Y166.441 E6.92083
G1 X163.23 Y170.596 E7.05962
G1 X163.254 Y171.126 E7.07726
G1 X163.252 Y171.934 E7.10414
G1 X163.21 Y172.602 E7.1264
G1 X163.059 Y173.376 E7.15263
G1 X161.835 Y177.922 E7.30921
G1 X161.623 Y178.556 E7.33145
G1 X161.337 Y179.161 E7.3537
G1 X160.98 Y179.727 E7.37596
G1 X160.559 Y180.247 E7.39821
G1 X160.079 Y180.713 E7.42046
G1 X159.546 Y181.118 E7.44273
G1 X158.969 Y181.456 E7.46497
G1 X158.356 Y181.724 E7.48722
G1 X157.715 Y181.916 E7.50948
G1 X157.056 Y182.031 E7.53173
G1 X156.433 Y182.066 E7.55248
G1 X136.277 Y182.083 E8.22287
G1 X135.799 Y182.063 E8.23879
G1 X133.112 Y181.835 E8.32848
G1 X127.726 Y181.605 E8.50778
G1 X122.393 Y181.681 E8.68517
G1 X116.801 Y182.07 E8.87161
G1 X116.409 Y182.084 E8.88466
G1 X95.857 Y182.074 E9.56822
G1 X95.42 Y182.057 E9.58277
G1 X86.866 Y181.383 E9.86816
G1 X81.562 Y181.293 E10.04459
G1 X76.206 Y181.506 E10.22288
G1 X70.835 Y182.024 E10.40234
G1 X68.022 Y182.376 E10.49664
G1 X67.084 Y182.414 E10.52786
G1 X59.822 Y182.099 E10.76962
G1 X52.38 Y182.083 E11.01714
G1 X51.712 Y182.042 E11.0394
G1 X51.054 Y181.921 E11.06166
G1 X50.415 Y181.723 E11.08391
G1 X49.805 Y181.449 E11.10615
G1 X49.231 Y181.105 E11.1284
G1 X48.702 Y180.695 E11.15066
G1 X48.226 Y180.225 E11.17291
G1 X47.81 Y179.702 E11.19514
G1 X47.458 Y179.132 E11.21742
G1 X47.178 Y178.525 E11.23966
G1 X46.971 Y177.889 E11.2619
G1 X46.842 Y177.232 E11.28417
G1 X46.792 Y176.482 E11.30917
G1 X46.793 Y171.12 E11.48751
G1 X46.833 Y170.452 E11.50977
G1 X46.953 Y169.794 E11.53202
G1 X47.15 Y169.155 E11.55426
G1 X47.447 Y168.496 E11.5783
G1 X49.188 Y165.216 E11.70181
G1 X51.497 Y160.349 E11.88098
G1 X53.504 Y155.421 E12.05795
G1 X55.239 Y150.358 E12.23596
G1 X56.696 Y145.164 E12.41538
G1 X57.302 Y142.593 E12.50324
G1 X57.825 Y140.04 E12.58992
G1 X58.683 Y134.737 E12.76859
G1 X59.236 Y129.423 E12.94629
G1 X59.489 Y124.088 E13.12393
G1 X59.438 Y118.692 E13.30341
G1 X59.259 Y114.871 E13.43064
G1 X59.268 Y114.202 E13.45289
G1 X59.324 Y113.72 E13.46903
G1 X60.297 Y107.671 E13.6728
G1 X60.872 Y102.344 E13.85101
G1 X61.143 Y97.012 E14.02858
G1 X61.113 Y91.668 E14.20633
G1 X60.782 Y86.339 E14.38391
G1 X60.148 Y81.035 E14.56158
G1 X59.342 Y76.291 E14.72163
G1 X59.27 Y75.626 E14.74387
G1 X59.268 Y75.126 E14.7605
G1 X59.316 Y73.942 E14.79992
G1 X59.383 Y73.276 E14.82218
G1 X59.528 Y72.624 E14.8444
G1 X59.754 Y71.985 E14.86694
G1 X60.164 Y71.017 E14.9019
G1 X60.618 Y70.161 E14.93413
G1 X61.664 Y68.542 E14.99824
G1 X64.42 Y63.911 E15.17748
G1 X66.884 Y59.184 E15.35478
G1 X69.104 Y54.265 E15.53427
G1 X70.066 Y51.867 E15.62021
G1 X71.648 Y47.446 E15.77638
G1 X71.713 Y47.275 E15.78247
G1 X73.496 Y42.764 E15.9438
G1 X73.779 Y42.157 E15.96608
M204 S5000
M205 X30 Y30
G0 F3600 X74.142 Y42.327
M204 S500
M205 X20 Y20
G1 F1800 X74.486 Y41.782 E15.98751
G1 X74.894 Y41.283 E16.00895
G1 X75.361 Y40.839 E16.03038
G1 X75.88 Y40.456 E16.05184
G1 X76.442 Y40.14 E16.07328
G1 X77.039 Y39.896 E16.09473
G1 X77.661 Y39.728 E16.11616
G1 X78.299 Y39.638 E16.13759
G1 X78.623 Y39.623 E16.14838
G1 X84.421 Y39.532 E16.34124
G1 X89.778 Y39.153 E16.51986
G1 X95.192 Y38.459 E16.70141
G1 X97.949 Y38.04 E16.79416
G1 X98.591 Y37.983 E16.8156
G1 X98.99 Y37.988 E16.82887
G1 X99.989 Y38.038 E16.86214
G1 X100.527 Y38.093 E16.88012
G1 X105.485 Y38.863 E17.047
G1 X110.857 Y39.395 E17.22655
G1 X115.129 Y39.598 E17.3688
G1 X122.817 Y39.622 E17.6245
G1 X123.46 Y39.664 E17.64594
G1 X124.093 Y39.785 E17.66737
G1 X124.707 Y39.984 E17.68884
G1 X125.291 Y40.257 E17.71028
G1 X125.837 Y40.6 E17.73173
G1 X126.464 Y41.131 E17.75905
G1 X130.982 Y45.614 E17.97074
G1 X135.049 Y49.191 E18.15089
G1 X137.043 Y50.798 E18.23607
G1 X141.407 Y54.024 E18.41657
G1 X145.878 Y56.952 E18.59432
G1 X150.534 Y59.638 E18.7731
G1 X155.316 Y62.047 E18.9512
G1 X160.276 Y64.204 E19.13109
G1 X162.756 Y65.161 E19.2195
G1 X165.277 Y66.048 E19.30839
G1 X169.084 Y67.254 E19.44121
G1 X169.685 Y67.486 E19.46264
G1 X170.253 Y67.791 E19.48408
G1 X170.779 Y68.164 E19.50553
G1 X171.255 Y68.599 E19.52698
G1 X171.673 Y69.089 E19.5484
G1 X172.027 Y69.628 E19.56985
G1 X172.312 Y70.206 E19.59128
G1 X172.523 Y70.815 E19.61272
G1 X172.657 Y71.446 E19.63417
G1 X172.714 Y72.242 E19.66072
G1 X172.699 Y74.743 E19.7439
G1 X172.696 Y74.894 E19.74893
G1 X172.653 Y76.124 E19.78986
G1 X172.604 Y76.677 E19.80833
G1 X171.875 Y81.781 E19.97981
G1 X171.349 Y87.132 E20.15864
G1 X171.126 Y92.515 E20.33783
G1 X171.207 Y97.849 E20.51526
G1 X171.592 Y103.217 E20.69426
G1 X172.284 Y108.582 E20.87418
G1 X172.734 Y111.246 E20.96404
G1 X172.807 Y112.124 E20.99334
G1 X172.805 Y112.933 E21.02025
G1 X172.763 Y113.576 E21.04168
G1 X172.626 Y114.272 E21.06528
G1 X171.396 Y118.841 E21.22265
G1 X171.146 Y119.557 E21.24788
G1 X169.026 Y124.446 E21.42512
G1 X168.052 Y126.969 E21.51507
G1 X167.188 Y129.424 E21.60163
G1 X165.61 Y134.579 E21.78094
G1 X164.327 Y139.814 E21.96021
G1 X163.8 Y142.435 E22.04913
G1 X163.358 Y145.024 E22.13648
G1 X162.673 Y150.38 E22.31608
G1 X162.293 Y155.737 E22.4947
G1 X162.217 Y161.085 E22.67259
G1 X162.445 Y166.455 E22.85136
G1 X162.832 Y170.633 E22.99092
G1 X162.854 Y171.125 E23.0073
G1 X162.852 Y171.933 E23.03417
G1 X162.81 Y172.576 E23.0556
G1 X162.673 Y173.272 E23.0792
G1 X161.449 Y177.818 E23.23578
G1 X161.243 Y178.429 E23.25723
G1 X160.963 Y179.01 E23.27868
G1 X160.614 Y179.551 E23.30009
G1 X160.2 Y180.045 E23.32153
G1 X159.728 Y180.485 E23.34299
G1 X159.205 Y180.862 E23.36443
G1 X158.64 Y181.172 E23.38587
G1 X158.041 Y181.41 E23.40731
G1 X157.417 Y181.571 E23.42874
G1 X156.777 Y181.654 E23.45021
G1 X156.432 Y181.666 E23.46169
G1 X136.276 Y181.683 E24.13208
G1 X135.833 Y181.664 E24.14683
G1 X133.14 Y181.436 E24.23672
G1 X127.737 Y181.205 E24.41659
G1 X122.377 Y181.281 E24.59488
G1 X116.773 Y181.671 E24.78172
G1 X116.409 Y181.684 E24.79383
G1 X95.857 Y181.674 E25.47739
G1 X95.451 Y181.658 E25.49091
G1 X86.887 Y180.983 E25.77663
G1 X81.553 Y180.893 E25.95407
G1 X76.186 Y181.106 E26.13271
G1 X70.783 Y181.627 E26.31325
G1 X67.972 Y181.979 E26.40748
G1 X67.101 Y182.014 E26.43647
G1 X59.84 Y181.699 E26.6782
G1 X52.381 Y181.683 E26.92629
G1 X51.738 Y181.642 E26.94772
G1 X51.104 Y181.521 E26.96918
G1 X50.491 Y181.323 E26.99061
G1 X49.907 Y181.051 E27.01204
G1 X49.361 Y180.708 E27.03348
G1 X48.861 Y180.3 E27.05495
G1 X48.416 Y179.834 E27.07638
G1 X48.032 Y179.316 E27.09782
G1 X47.715 Y178.755 E27.11926
G1 X47.469 Y178.159 E27.1407
G1 X47.3 Y177.537 E27.16214
G1 X47.209 Y176.899 E27.18357
G1 X47.192 Y176.482 E27.19746
G1 X47.193 Y171.12 E27.3758
G1 X47.233 Y170.477 E27.39722
G1 X47.352 Y169.843 E27.41868
G1 X47.549 Y169.229 E27.44013
G1 X47.8 Y168.683 E27.46011
G1 X49.549 Y165.388 E27.58419
G1 X51.862 Y160.515 E27.7636
G1 X53.886 Y155.544 E27.94211
G1 X55.617 Y150.49 E28.11979
G1 X57.082 Y145.267 E28.30022
G1 X57.693 Y142.679 E28.38866
G1 X58.219 Y140.111 E28.47584
G1 X59.08 Y134.791 E28.65509
G1 X59.636 Y129.447 E28.83379
G1 X59.889 Y124.104 E29.0117
G1 X59.838 Y118.669 E29.19248
G1 X59.659 Y114.852 E29.31957
G1 X59.669 Y114.208 E29.34099
G1 X59.719 Y113.783 E29.35523
G1 X60.695 Y107.719 E29.55951
G1 X61.272 Y102.372 E29.73839
G1 X61.543 Y97.029 E29.91632
G1 X61.513 Y91.659 E30.09493
G1 X61.18 Y86.302 E30.27345
G1 X60.544 Y80.98 E30.45172
G1 X59.736 Y76.224 E30.61217
G1 X59.668 Y75.583 E30.63361
G1 X59.667 Y75.142 E30.64828
G1 X59.715 Y73.958 E30.68769
G1 X59.781 Y73.317 E30.70912
G1 X59.926 Y72.689 E30.73056
G1 X60.123 Y72.141 E30.74993
G1 X60.533 Y71.173 E30.78489
G1 X60.954 Y70.378 E30.81481
G1 X61.998 Y68.762 E30.8788
G1 X64.772 Y64.102 E31.05918
G1 X67.25 Y59.347 E31.23752
G1 X69.465 Y54.438 E31.41664
G1 X70.446 Y51.993 E31.50427
G1 X72.025 Y47.581 E31.66012
G1 X72.085 Y47.422 E31.66578
G1 X73.868 Y42.911 E31.82711
G1 X74.142 Y42.327 E31.84856
M204 S5000
M205 X30 Y30
G1 F3000 E23.84856
G0 F3600 X78.031 Y45.026
G0 X78.91 Y45.026
G0 X79.554 Y49.591
G0 X79.624 Y49.521
M204 S500
M205 X20 Y20
;TYPE:WALL-OUTER
G1 F3000 E31.84856
G1 F1800 X81.431 Y49.521 E31.90866
G1 X81.431 Y49.993 E31.92436
G1 X77.115 Y49.993 E32.06791
G1 X77.115 Y49.521 E32.08361
G1 X78.896 Y49.521 E32.14285
G1 X78.896 Y45.012 E32.29282
G1 X79.624 Y45.012 E32.31703
G1 X79.624 Y49.521 E32.467
M204 S5000
M205 X30 Y30
G0 F3600 X79.824 Y49.521
G0 X79.738 Y49.756
G1 F1800 X80.021 Y49.756 E32.46893
G1 X80.303 Y49.756 E32.47085
G1 X80.586 Y49.756 E32.47278
G1 X80.869 Y49.756 E32.47471
G1 X81.152 Y49.756 E32.47664
G0 F3600 X81.193 Y49.797
G0 X79.496 Y49.797
G0 X79.292 Y49.594
G1 F1800 X79.258 Y49.277 E32.48544
G1 X79.258 Y48.994 E32.49342
G1 X79.258 Y48.711 E32.5014
G1 X79.258 Y48.429 E32.50935
G1 X79.258 Y48.146 E32.51733
G1 X79.258 Y47.863 E32.5253
G1 X79.258 Y47.58 E32.53328
G1 X79.258 Y47.297 E32.54126
G1 X79.258 Y47.014 E32.54923
G1 X79.258 Y46.731 E32.55721
G1 X79.258 Y46.449 E32.56516
G1 X79.258 Y46.166 E32.57314
G1 X79.258 Y45.883 E32.58111
G1 X79.258 Y45.6 E32.58909
G1 X79.287 Y45.346 E32.5964
G0 F3600 X79.428 Y45.487
G0 X79.089 Y49.674
G0 X79.151 Y49.735
G1 F1800 X78.889 Y49.756 E32.59881
G1 X78.606 Y49.756 E32.60074
G1 X78.324 Y49.756 E32.60266
G1 X78.041 Y49.756 E32.60459
G1 X77.758 Y49.756 E32.60652
G1 X77.475 Y49.756 E32.60845
G0 F3600 X77.434 Y49.593
G1 F3000 E24.60845
G0 F3600 X77.434 Y49.621
G0 X81.417 Y49.535
G0 X81.978 Y48.838
G0 X82.568 Y47.816
G0 X82.636 Y47.888
M204 S500
M205 X20 Y20
G1 F3000 E32.60845
G1 F1800 X82.587 Y48.851 E32.64052
G1 X82.061 Y48.851 E32.65802
G1 X81.964 Y48.851 E32.66124
G1 X81.974 Y48.643 E32.66817
G1 X81.975 Y48.546 E32.67085
G1 X81.984 Y48.057 E32.68711
G1 X81.984 Y45.012 E32.78839
G1 X82.656 Y45.012 E32.81074
G1 X82.656 Y46.863 E32.87231
G1 X82.698 Y47.367 E32.88913
G1 X82.781 Y47.67 E32.89958
G1 X82.839 Y47.783 E32.9038
G1 X82.894 Y47.888 E32.90774
G1 X82.781 Y47.888 E32.9087
G1 X82.636 Y47.888 E32.91138
M204 S5000
M205 X30 Y30
G0 F3600 X82.626 Y48.087
G0 X83.088 Y48.125
M204 S500
M205 X20 Y20
G1 F1800 X83.211 Y48.214 E32.91643
G1 X83.23 Y48.224 E32.91714
G1 X83.341 Y48.28 E32.92127
G1 X83.386 Y48.294 E32.92284
G1 X83.477 Y48.324 E32.92603
G1 X83.605 Y48.345 E32.93034
G1 X83.739 Y48.353 E32.93481
G1 X84.007 Y48.321 E32.94378
G1 X84.007 Y48.353
G1 X84.007 Y48.84 E32.95998
G1 X83.861 Y48.851 E32.96485
G1 X83.69 Y48.838 E32.97056
G1 X83.595 Y48.815 E32.97381
G1 X83.519 Y48.785 E32.97652
G1 X83.435 Y48.734 E32.97979
G1 X83.364 Y48.671 E32.98295
G1 X83.303 Y48.597 E32.98567
G1 X83.293 Y48.586 E32.98575
G1 X83.264 Y48.531 E32.98716
G1 X83.225 Y48.46 E32.98863
G1 X83.176 Y48.37 E32.99009
G1 X83.166 Y48.353
G1 X83.124 Y48.25 E32.99103
G1 X83.075 Y48.131 E32.99142
G1 X83.059 Y48.093
G1 X83.088 Y48.125
M204 S5000
M205 X30 Y30
G0 F3600 X83.211 Y48.214
G0 X83.23 Y48.224
G0 X83.255 Y48.236
G0 X83.613 Y48.541
M204 S500
M205 X20 Y20
;TYPE:SKIN
G1 F1800 X83.716 Y48.643 E32.99383
M204 S5000
M205 X30 Y30
G1 F3000 E24.99383
G0 F3600 X83.098 Y48.187
G0 X82.604 Y48.16
G0 X82.41 Y48.469
G0 X82.292 Y48.351
G1 F3000 E32.99383
G1 F1800 X82.301 Y48.077 E32.99946
G1 X82.308 Y47.801 E33.00541
G1 X82.33 Y47.54 E33.01205
G1 X82.346 Y47.274 E33.01956
G1 X82.329 Y46.974 E33.02708
G1 X82.319 Y46.681 E33.03396
G1 X82.319 Y46.398 E33.04059
G1 X82.319 Y46.115 E33.04723
G1 X82.319 Y45.832 E33.05386
G1 X82.319 Y45.549 E33.0605
G1 X82.359 Y45.307 E33.06615
G0 F3600 X82.46 Y45.408
G0 X82.17 Y48.512
M204 S500
M205 X20 Y20
G1 F1800 X82.314 Y48.656 E33.06954
M204 S5000
M205 X30 Y30
G0 F3600 X82.208 Y48.445
G1 F3000 E25.06954
G0 F3600 X82.623 Y47.874
G0 X83.634 Y47.439
G0 X84.239 Y47.204
G0 X85.017 Y48.024
G0 X86.275 Y48.578
G0 X86.738 Y48.574
G0 X87.066 Y48.422
G0 X87.292 Y48.048
G0 X87.392 Y47.166
G0 X87.321 Y47.236
M204 S500
M205 X20 Y20
;TYPE:WALL-OUTER
G1 F3000 E33.06954
G1 F1800 X87.319 Y47.236 E33.0696
G1 X87.117 Y47.233 E33.07632
G1 X86.544 Y47.226 E33.09538
G1 X86.22 Y47.221 E33.10616
G1 X86.197 Y47.22 E33.10692
G1 X85.915 Y47.197 E33.11633
G1 X85.791 Y47.187 E33.12047
G1 X85.716 Y47.168 E33.12305
G1 X85.584 Y47.133 E33.12759
G1 X85.56 Y47.127 E33.12841
G1 X85.411 Y47.087 E33.13354
G1 X85.25 Y47.01 E33.13948
G1 X85.112 Y46.917 E33.14501
G1 X84.958 Y46.759 E33.15235
G1 X84.849 Y46.572 E33.15955
G1 X84.782 Y46.352 E33.1672
G1 X84.765 Y46.224 E33.17149
G1 X84.759 Y46.082 E33.17622
G1 X84.79 Y45.766 E33.18678
