;FLAVOR:Marlin
;TIME:1577
;Filament used: 0.53m
;Layer height: 0.2
;Generated with Cura_SteamEngine 3.4.1
M190 S60
M104 S205
M109 S205
M82 ;absolute extrusion mode
; Pefix G-Code for most 200mm x 200mm 3D printers by www.DIY3DTech.com to clean nozzle
; Place as start G-Code in Slicer
; Use of this code is at your own risk (no warranties made or implied)
;
M117 Clean ; Indicate nozzle clean in progress on LCD
M107 ; Turn layer fan off
G21 ; Set to metric [change to G20 if you want Imperial]
G90                          ; Force coordinates to be absolute relative to the origin
G28                          ; Home X/Y/Z axis
G0 X1 Y0 Z0.15 F9000         ; Move in 1mm from edge and up [z] 0.15mm
G92 E0                       ; Set extruder to [0] zero
G1 Y190 E50 F500             ; Extrude 100mm filiment along Y axis 190mm long to prime and clean the nozzle
G92 E0                       ; Reset extruder to [0] zero end of cleaning run
G1 E-3 F500                  ; Retract filiment by 3 mm to reduce string effect
G1 X3 Y190 Z15 F9000      ; Move over and rise to safe Z height
G1 X3 Y0 Z15 F9000 ; Move back to front of bed at safe Z height to shear strings
;
; Ensure extruder is not reset by other code or it will be 3mm short [see next line also]
;G1 E3 F500 ; Uncomment if you believe exruder will be reset
; Recommend turning off SKIRT in the slicer to avoid strings pulled into first layer
M117 Printing ; Indicate printing on LCD
; Begin printing with sliced GCode after here
G92 E0
G1 F3000 E-8
;LAYER_COUNT:150
;LAYER:-6
M107
M204 S5000
M205 X30 Y30
G0 F7200 X80.771 Y101.557 Z0.24
M204 S500
M205 X20 Y20
G1 F3000 E0
G1 F1350 X81.006 Y101.394 E0.02283
G1 X81.452 Y101.133 E0.06408
G1 X81.614 Y101.054 E0.07847
G1 X81.948 Y100.906 E0.10763
G1 X82.201 Y100.81 E0.12923
G1 X82.654 Y100.674 E0.16698
G1 X82.869 Y100.627 E0.18455
G1 X83.256 Y100.559 E0.21592
G1 X83.509 Y100.529 E0.23625
G1 X83.951 Y100.508 E0.27158
G1 X84.163 Y100.512 E0.2885
G1 X84.523 Y100.533 E0.31729
G1 X84.81 Y100.568 E0.34037
G1 X85.326 Y100.669 E0.38234
G1 X85.852 Y100.829 E0.42622
G1 X86.106 Y100.927 E0.44796
G1 X86.496 Y101.106 E0.48221
G1 X86.696 Y101.216 E0.50043
G1 X87.003 Y101.402 E0.52908
G1 X87.259 Y101.579 E0.55393
G1 X87.531 Y101.794 E0.5816
G1 X87.678 Y101.92 E0.59706
G1 X88.06 Y102.301 E0.64013
G1 X88.227 Y102.492 E0.66038
G1 X88.504 Y102.854 E0.69676
G1 X88.604 Y103.007 E0.71135
G1 X88.808 Y103.347 E0.743
G1 X88.942 Y103.605 E0.76621
G1 X89.144 Y104.076 E0.80712
G1 X89.305 Y104.581 E0.84943
G1 X89.365 Y104.823 E0.86933
G1 X89.426 Y105.155 E0.89628
G1 X89.456 Y105.362 E0.91297
G1 X89.49 Y105.881 E0.95449
G1 X89.489 Y106.173 E0.9778
G1 X89.46 Y106.603 E1.0122
G1 X89.431 Y106.811 E1.02897
G1 X89.359 Y107.194 E1.06008
G1 X89.29 Y107.471 E1.08286
G1 X89.149 Y107.911 E1.11974
G1 X88.946 Y108.446 E1.16542
G1 X88.964 Y108.452 E1.16694
G1 X88.924 Y108.568 E1.17673
G1 X88.784 Y109.237 E1.23129
G1 X88.731 Y109.918 E1.28581
G1 X88.764 Y110.599 E1.34024
G1 X88.883 Y111.275 E1.39503
G1 X88.981 Y111.575 E1.42022
G1 X88.958 Y111.585 E1.42222
G1 X89.183 Y112.188 E1.4736
G1 X89.308 Y112.591 E1.50728
G1 X89.365 Y112.823 E1.52635
G1 X89.455 Y113.352 E1.56919
G1 X89.468 Y113.486 E1.57993
G1 X89.49 Y113.882 E1.61159
G1 X89.49 Y114.159 E1.6337
G1 X89.469 Y114.499 E1.66089
G1 X89.451 Y114.682 E1.67557
G1 X89.359 Y115.194 E1.7171
G1 X89.29 Y115.471 E1.73988
G1 X89.185 Y115.806 E1.76791
G1 X89.059 Y116.131 E1.79573
G1 X88.917 Y116.443 E1.8231
G1 X88.776 Y116.711 E1.84727
G1 X88.539 Y117.094 E1.88322
G1 X88.423 Y117.254 E1.899
G1 X88.179 Y117.564 E1.93049
G1 X88.023 Y117.741 E1.94932
G1 X87.687 Y118.072 E1.98697
G1 X87.55 Y118.191 E2.00146
G1 X87.222 Y118.448 E2.03472
G1 X87.003 Y118.599 E2.05595
G1 X86.572 Y118.855 E2.09597
G1 X86.401 Y118.939 E2.11118
G1 X86.028 Y119.104 E2.14373
G1 X85.786 Y119.194 E2.16434
G1 X85.275 Y119.344 E2.20686
G1 X84.755 Y119.441 E2.24908
G1 X84.505 Y119.47 E2.26917
G1 X84.027 Y119.493 E2.30737
G1 X83.843 Y119.489 E2.32206
G1 X83.457 Y119.465 E2.35293
G1 X83.165 Y119.429 E2.37642
G1 X82.729 Y119.344 E2.41188
G1 X82.503 Y119.283 E2.43056
G1 X82.165 Y119.177 E2.45884
G1 X81.888 Y119.071 E2.48251
G1 X81.446 Y118.863 E2.52151
G1 X80.991 Y118.594 E2.5637
G1 X80.741 Y118.421 E2.58797
G1 X80.368 Y118.121 E2.62618
G1 X80.224 Y117.987 E2.64188
G1 X79.94 Y117.699 E2.67417
G1 X79.769 Y117.504 E2.69487
G1 X79.498 Y117.148 E2.73058
G1 X79.387 Y116.979 E2.74672
G1 X79.193 Y116.655 E2.77687
G1 X79.062 Y116.401 E2.79968
G1 X78.871 Y115.964 E2.83775
G1 X78.805 Y115.775 E2.85373
G1 X78.695 Y115.419 E2.88348
G1 X78.635 Y115.175 E2.90353
G1 X78.55 Y114.678 E2.94378
G1 X78.531 Y114.497 E2.95831
G1 X78.51 Y114.119 E2.98853
G1 X78.511 Y113.816 E3.01272
G1 X78.544 Y113.365 E3.04881
G1 X78.64 Y112.809 E3.09385
G1 X78.712 Y112.521 E3.11755
G1 X78.815 Y112.194 E3.14492
G1 X79.055 Y111.555 E3.1994
G1 X79.036 Y111.549 E3.20099
G1 X79.076 Y111.432 E3.21086
G1 X79.216 Y110.763 E3.26542
G1 X79.269 Y110.082 E3.31995
G1 X79.236 Y109.401 E3.37437
G1 X79.117 Y108.725 E3.42916
G1 X79.019 Y108.425 E3.45436
G1 X79.042 Y108.415 E3.45636
G1 X78.811 Y107.795 E3.50917
G1 X78.695 Y107.419 E3.54058
G1 X78.635 Y107.175 E3.56064
G1 X78.55 Y106.678 E3.60089
G1 X78.531 Y106.493 E3.61573
G1 X78.51 Y106.119 E3.64563
G1 X78.511 Y105.82 E3.6695
G1 X78.543 Y105.373 E3.70527
G1 X78.57 Y105.184 E3.72051
G1 X78.64 Y104.809 E3.75097
G1 X78.71 Y104.529 E3.774
G1 X78.861 Y104.062 E3.81318
G1 X79.09 Y103.544 E3.85839
G1 X79.218 Y103.299 E3.88046
G1 X79.461 Y102.906 E3.91734
G1 X79.573 Y102.75 E3.93267
G1 X79.82 Y102.437 E3.9645
G1 X79.992 Y102.244 E3.98513
G1 X80.371 Y101.876 E4.0273
G1 X80.771 Y101.557 E4.06814
M204 S5000
M205 X30 Y30
G1 F3000 E-3.93186
G0 F7200 X86.621 Y100.633
G0 X102.097 Y93.097
G0 X103.82 Y90.437
M204 S500
M205 X20 Y20
G1 F3000 E4.06814
G1 F1350 X103.992 Y90.244 E4.08878
G1 X104.371 Y89.876 E4.13095
G1 X104.771 Y89.557 E4.17179
G1 X105.006 Y89.394 E4.19462
G1 X105.452 Y89.133 E4.23587
G1 X105.614 Y89.054 E4.25025
G1 X105.948 Y88.906 E4.27942
G1 X106.201 Y88.81 E4.30102
G1 X106.654 Y88.674 E4.33877
G1 X106.869 Y88.627 E4.35634
G1 X107.256 Y88.559 E4.3877
G1 X107.509 Y88.529 E4.40804
G1 X107.951 Y88.508 E4.44336
G1 X108.163 Y88.512 E4.46029
G1 X108.523 Y88.533 E4.48907
G1 X108.81 Y88.568 E4.51215
G1 X109.326 Y88.669 E4.55412
G1 X109.852 Y88.829 E4.59801
G1 X110.106 Y88.927 E4.61974
G1 X110.496 Y89.106 E4.654
G1 X110.696 Y89.216 E4.67222
G1 X111.003 Y89.402 E4.70087
G1 X111.259 Y89.579 E4.72572
G1 X111.531 Y89.794 E4.75339
G1 X111.678 Y89.92 E4.76885
G1 X112.06 Y90.301 E4.81191
G1 X112.231 Y90.497 E4.83268
G1 X112.504 Y90.854 E4.86855
G1 X112.613 Y91.021 E4.88447
G1 X112.804 Y91.339 E4.91408
G1 X112.942 Y91.605 E4.938
G1 X113.144 Y92.076 E4.97891
G1 X113.305 Y92.581 E5.02122
G1 X113.365 Y92.823 E5.04112
G1 X113.449 Y93.316 E5.08104
G1 X113.468 Y93.486 E5.0947
G1 X113.49 Y93.881 E5.12628
G1 X113.489 Y94.172 E5.14951
G1 X113.46 Y94.604 E5.18407
G1 X113.431 Y94.811 E5.20075
G1 X113.359 Y95.194 E5.23186
G1 X113.29 Y95.471 E5.25465
G1 X113.149 Y95.911 E5.29153
G1 X112.946 Y96.446 E5.33721
G1 X112.964 Y96.452 E5.33872
G1 X112.924 Y96.568 E5.34852
G1 X112.784 Y97.237 E5.40308
G1 X112.731 Y97.918 E5.4576
G1 X112.764 Y98.599 E5.51203
G1 X112.883 Y99.275 E5.56682
G1 X112.981 Y99.575 E5.59201
G1 X112.958 Y99.585 E5.59401
G1 X113.189 Y100.206 E5.6469
G1 X113.301 Y100.567 E5.67707
G1 X113.369 Y100.846 E5.69999
G1 X113.424 Y101.143 E5.72411
G1 X113.468 Y101.486 E5.75171
G1 X113.49 Y101.881 E5.78329
G1 X113.489 Y102.173 E5.8066
G1 X113.459 Y102.612 E5.84172
G1 X113.44 Y102.753 E5.85308
G1 X113.381 Y103.42 E5.90653
G1 X113.407 Y104.103 E5.96109
G1 X113.52 Y104.777 E6.01564
G1 X113.716 Y105.43 E6.07006
G1 X113.995 Y106.057 E6.12485
G1 X114.409 Y106.725 E6.18758
G1 X114.53 Y106.892 E6.20404
G1 X114.796 Y107.326 E6.24467
G1 X114.946 Y107.614 E6.27059
G1 X115.128 Y108.034 E6.30713
G1 X115.182 Y108.185 E6.31993
G1 X115.308 Y108.591 E6.35387
G1 X115.365 Y108.823 E6.37294
G1 X115.449 Y109.316 E6.41286
G1 X115.468 Y109.486 E6.42651
G1 X115.49 Y109.881 E6.45809
G1 X115.489 Y110.173 E6.4814
G1 X115.46 Y110.604 E6.51588
G1 X115.431 Y110.811 E6.53257
G1 X115.359 Y111.194 E6.56368
G1 X115.29 Y111.471 E6.58646
G1 X115.186 Y111.803 E6.61424
G1 X115.15 Y111.91 E6.62325
G1 X115.061 Y112.127 E6.64197
G1 X114.661 Y113.014 E6.71964
G1 X114.635 Y113.099 E6.72674
G1 X114.261 Y113.471 E6.76884
G1 X114.008 Y113.756 E6.79926
G1 X113.686 Y114.073 E6.83533
G1 X113.538 Y114.201 E6.85095
G1 X112.777 Y114.799 E6.92821
G1 X112.786 Y114.81 E6.92934
G1 X112.357 Y115.239 E6.97777
G1 X111.939 Y115.779 E7.03228
G1 X111.593 Y116.368 E7.08681
G1 X111.323 Y116.994 E7.14123
G1 X111.135 Y117.651 E7.19578
G1 X111.03 Y118.326 E7.25031
G1 X111.011 Y119.009 E7.30485
G1 X111.08 Y119.688 E7.35933
G1 X111.248 Y120.398 E7.41757
G1 X111.306 Y120.587 E7.43335
G1 X111.365 Y120.823 E7.45277
G1 X111.449 Y121.316 E7.49269
G1 X111.468 Y121.486 E7.50635
G1 X111.49 Y121.881 E7.53793
G1 X111.489 Y122.172 E7.56116
G1 X111.46 Y122.604 E7.59572
G1 X111.431 Y122.811 E7.6124
G1 X111.359 Y123.194 E7.64351
G1 X111.29 Y123.471 E7.6663
G1 X111.185 Y123.806 E7.69432
G1 X111.059 Y124.132 E7.72222
G1 X110.92 Y124.439 E7.74912
G1 X110.783 Y124.7 E7.77265
G1 X110.539 Y125.094 E7.80964
G1 X110.429 Y125.247 E7.82469
G1 X110.187 Y125.555 E7.85595
G1 X110.012 Y125.752 E7.87699
G1 X109.687 Y126.072 E7.9134
G1 X109.55 Y126.191 E7.92788
G1 X109.222 Y126.448 E7.96114
G1 X109.003 Y126.599 E7.98238
G1 X108.561 Y126.861 E8.02339
G1 X108.051 Y127.124 E8.0692
G1 X108.061 Y127.14 E8.0707
G1 X107.954 Y127.2 E8.0805
G1 X107.405 Y127.607 E8.13505
G1 X106.913 Y128.079 E8.18947
G1 X106.484 Y128.61 E8.24396
G1 X106.125 Y129.19 E8.29841
G1 X105.842 Y129.812 E8.35296
G1 X105.64 Y130.465 E8.40752
G1 X105.522 Y131.143 E8.46246
G1 X105.519 Y131.329 E8.47731
G1 X105.493 Y131.329 E8.47938
G1 X105.489 Y132.172 E8.54668
G1 X105.46 Y132.604 E8.58124
G1 X105.431 Y132.81 E8.59784
G1 X105.36 Y133.191 E8.62878
G1 X105.29 Y133.471 E8.65182
G1 X105.185 Y133.806 E8.67984
G1 X105.059 Y134.131 E8.70767
G1 X104.91 Y134.457 E8.73628
G1 X104.783 Y134.7 E8.75817
G1 X104.616 Y134.974 E8.78378
G1 X104.429 Y135.247 E8.81019
G1 X104.187 Y135.555 E8.84146
G1 X104.012 Y135.752 E8.86249
G1 X103.687 Y136.072 E8.8989
G1 X103.55 Y136.191 E8.91339
G1 X103.222 Y136.448 E8.94665
G1 X103.003 Y136.599 E8.96788
G1 X102.572 Y136.855 E9.0079
G1 X102.401 Y136.939 E9.02311
G1 X102.028 Y137.104 E9.05567
G1 X101.786 Y137.194 E9.07628
G1 X101.275 Y137.344 E9.11879
G1 X100.755 Y137.441 E9.16101
G1 X100.505 Y137.47 E9.1811
G1 X100.027 Y137.493 E9.2193
G1 X99.843 Y137.489 E9.23399
G1 X99.457 Y137.465 E9.26486
G1 X99.165 Y137.429 E9.28835
G1 X98.729 Y137.344 E9.32381
G1 X98.515 Y137.287 E9.34149
G1 X98.16 Y137.175 E9.3712
G1 X97.888 Y137.071 E9.39445
G1 X97.49 Y136.887 E9.42945
G1 X97.304 Y136.784 E9.44642
G1 X96.991 Y136.594 E9.47565
G1 X96.741 Y136.421 E9.49992
G1 X96.368 Y136.121 E9.53812
G1 X96.224 Y135.987 E9.55383
G1 X95.94 Y135.699 E9.58611
G1 X95.769 Y135.504 E9.60682
G1 X95.498 Y135.148 E9.64253
G1 X95.387 Y134.979 E9.65867
G1 X95.196 Y134.661 E9.68828
G1 X95.058 Y134.395 E9.7122
G1 X94.869 Y133.958 E9.75021
G1 X94.811 Y133.796 E9.76394
G1 X94.695 Y133.419 E9.79543
G1 X94.635 Y133.175 E9.81549
G1 X94.55 Y132.678 E9.85574
G1 X94.531 Y132.499 E9.8701
G1 X94.51 Y132.119 E9.90048
G1 X94.511 Y131.829 E9.92363
G1 X94.532 Y131.488 E9.95091
G1 X94.552 Y131.308 E9.96536
G1 X94.64 Y130.809 E10.00581
G1 X94.71 Y130.529 E10.02885
G1 X94.856 Y130.075 E10.06692
G1 X94.941 Y129.869 E10.0847
G1 X95.09 Y129.543 E10.11332
G1 X95.217 Y129.3 E10.1352
G1 X95.384 Y129.026 E10.16082
G1 X95.574 Y128.749 E10.18763
G1 X95.82 Y128.437 E10.21935
G1 X95.988 Y128.248 E10.23953
G1 X96.324 Y127.917 E10.27718
G1 X96.45 Y127.809 E10.29043
G1 X96.771 Y127.557 E10.323
G1 X97.006 Y127.394 E10.34583
G1 X97.472 Y127.123 E10.38886
G1 X97.89 Y126.902 E10.42661
G1 X97.885 Y126.892 E10.4275
G1 X98.041 Y126.804 E10.4418
G1 X98.589 Y126.398 E10.49624
G1 X99.083 Y125.926 E10.55078
G1 X99.513 Y125.395 E10.60532
G1 X99.872 Y124.814 E10.65984
G1 X100.155 Y124.193 E10.71431
G1 X100.358 Y123.541 E10.76882
G1 X100.478 Y122.862 E10.82386
G1 X100.481 Y122.671 E10.83911
G1 X100.507 Y122.671 E10.84119
G1 X100.511 Y121.821 E10.90904
G1 X100.542 Y121.382 E10.94417
G1 X100.57 Y121.184 E10.96013
G1 X100.64 Y120.809 E10.99058
G1 X100.71 Y120.529 E11.01362
G1 X100.851 Y120.089 E11.0505
G1 X100.941 Y119.869 E11.06948
G1 X101.09 Y119.543 E11.09809
G1 X101.217 Y119.3 E11.11997
G1 X101.478 Y118.88 E11.15945
G1 X101.821 Y118.436 E11.20423
G1 X101.992 Y118.244 E11.22476
G1 X102.371 Y117.876 E11.26693
G1 X103.223 Y117.201 E11.35369
G1 X103.214 Y117.19 E11.35483
G1 X103.643 Y116.761 E11.40326
G1 X104.061 Y116.221 E11.45777
G1 X104.407 Y115.632 E11.5123
G1 X104.677 Y115.006 E11.56672
G1 X104.865 Y114.349 E11.62126
G1 X104.97 Y113.674 E11.67579
G1 X104.989 Y112.991 E11.73034
G1 X104.92 Y112.312 E11.78482
G1 X104.752 Y111.602 E11.84306
G1 X104.694 Y111.413 E11.85884
G1 X104.634 Y111.174 E11.87851
G1 X104.55 Y110.678 E11.91866
G1 X104.531 Y110.493 E11.93351
G1 X104.51 Y110.119 E11.96341
G1 X104.511 Y109.82 E11.98728
G1 X104.542 Y109.382 E12.02233
G1 X104.56 Y109.248 E12.03312
G1 X104.619 Y108.58 E12.08665
G1 X104.593 Y107.897 E12.14121
G1 X104.48 Y107.223 E12.19576
G1 X104.284 Y106.57 E12.25019
G1 X104.005 Y105.943 E12.30497
G1 X103.591 Y105.275 E12.3677
G1 X103.494 Y105.142 E12.38084
G1 X103.381 Y104.969 E12.39733
G1 X103.196 Y104.661 E12.42601
G1 X103.058 Y104.395 E12.44994
G1 X102.869 Y103.958 E12.48794
G1 X102.804 Y103.774 E12.50352
G1 X102.695 Y103.419 E12.53316
G1 X102.635 Y103.175 E12.55322
G1 X102.55 Y102.678 E12.59347
G1 X102.531 Y102.493 E12.60831
G1 X102.51 Y102.119 E12.63821
G1 X102.511 Y101.82 E12.66208
G1 X102.542 Y101.382 E12.69713
G1 X102.57 Y101.184 E12.71309
G1 X102.641 Y100.805 E12.74387
G1 X102.71 Y100.529 E12.76658
G1 X102.852 Y100.086 E12.80372
G1 X103.054 Y99.554 E12.84914
G1 X103.036 Y99.548 E12.85066
G1 X103.076 Y99.432 E12.86045
G1 X103.216 Y98.763 E12.91501
G1 X103.269 Y98.082 E12.96954
G1 X103.236 Y97.401 E13.02396
G1 X103.117 Y96.725 E13.07875
G1 X103.019 Y96.425 E13.10394
G1 X103.042 Y96.415 E13.10595
G1 X102.805 Y95.777 E13.16027
G1 X102.695 Y95.419 E13.19017
G1 X102.635 Y95.175 E13.21023
G1 X102.55 Y94.678 E13.25048
G1 X102.531 Y94.499 E13.26485
G1 X102.51 Y94.119 E13.29522
G1 X102.511 Y93.82 E13.31909
G1 X102.542 Y93.382 E13.35414
G1 X102.57 Y93.184 E13.37011
G1 X102.64 Y92.809 E13.40056
G1 X102.71 Y92.529 E13.4236
G1 X102.861 Y92.061 E13.46285
G1 X103.09 Y91.543 E13.50806
G1 X103.217 Y91.3 E13.52995
G1 X103.384 Y91.026 E13.55556
G1 X103.573 Y90.75 E13.58226
G1 X103.82 Y90.437 E13.61409
M204 S5000
M205 X30 Y30
G1 F3000 E5.61409
G0 F7200 X115.838 Y108.735
G0 X123.994 Y117.568
G0 X123.992 Y118.244
M204 S500
M205 X20 Y20
G1 F3000 E13.61409
G1 F1350 X124.371 Y117.876 E13.65626
G1 X124.771 Y117.557 E13.6971
G1 X125.006 Y117.394 E13.71993
G1 X125.452 Y117.133 E13.76118
G1 X125.949 Y116.905 E13.80483
G1 X126.201 Y116.81 E13.82632
G1 X126.654 Y116.674 E13.86408
G1 X126.869 Y116.627 E13.88165
G1 X127.256 Y116.559 E13.91301
G1 X127.509 Y116.529 E13.93335
G1 X127.951 Y116.508 E13.96867
G1 X128.163 Y116.512 E13.9856
G1 X128.523 Y116.533 E14.01438
G1 X128.81 Y116.568 E14.03746
G1 X129.326 Y116.669 E14.07943
G1 X129.852 Y116.829 E14.12332
G1 X130.106 Y116.927 E14.14505
G1 X130.496 Y117.106 E14.1793
G1 X130.696 Y117.216 E14.19752
G1 X131.003 Y117.402 E14.22618
G1 X131.259 Y117.579 E14.25102
G1 X131.63 Y117.877 E14.28901
G1 X132.06 Y118.301 E14.33721
G1 X132.231 Y118.497 E14.35797
G1 X132.505 Y118.856 E14.39402
G1 X132.613 Y119.021 E14.40977
G1 X132.804 Y119.339 E14.43938
G1 X132.936 Y119.593 E14.46223
G1 X133.125 Y120.026 E14.49994
G1 X133.189 Y120.205 E14.51511
G1 X133.303 Y120.574 E14.54594
G1 X133.365 Y120.823 E14.56643
G1 X133.449 Y121.316 E14.60635
G1 X133.468 Y121.486 E14.62
G1 X133.49 Y121.881 E14.65158
G1 X133.489 Y122.172 E14.67481
G1 X133.46 Y122.604 E14.70937
G1 X133.431 Y122.811 E14.72606
G1 X133.359 Y123.194 E14.75717
G1 X133.29 Y123.471 E14.77995
