;FLAVOR:Marlin
;TIME:789
;Filament used: 0.243917m
;Layer height: 0.1
;Generated with Cura_SteamEngine 3.4.1
M190 S60
M104 S205
M109 S205
M82 ;absolute extrusion mode
; Pefix G-Code for most 200mm x 200mm 3D printers by www.DIY3DTech.com to clean nozzle
; Place as start G-Code in Slicer
; Use of this code is at your own risk (no warranties made or implied)
;
M117 Clean ; Indicate nozzle clean in progress on LCD
M107 ; Turn layer fan off
G21 ; Set to metric [change to G20 if you want Imperial]
G90                          ; Force coordinates to be absolute relative to the origin
G28                          ; Home X/Y/Z axis
G0 X1 Y0 Z0.15 F9000         ; Move in 1mm from edge and up [z] 0.15mm
G92 E0                       ; Set extruder to [0] zero
G1 Y190 E50 F500             ; Extrude 100mm filiment along Y axis 190mm long to prime and clean the nozzle
G92 E0                       ; Reset extruder to [0] zero end of cleaning run
G1 E-3 F500                  ; Retract filiment by 3 mm to reduce string effect
G1 X3 Y190 Z15 F9000      ; Move over and rise to safe Z height
G1 X3 Y0 Z15 F9000 ; Move back to front of bed at safe Z height to shear strings
;
; Ensure extruder is not reset by other code or it will be 3mm short [see next line also]
;G1 E3 F500 ; Uncomment if you believe exruder will be reset
; Recommend turning off SKIRT in the slicer to avoid strings pulled into first layer
M117 Printing ; Indicate printing on LCD
; Begin printing with sliced GCode after here
G92 E0
G1 F3000 E-8
;LAYER_COUNT:8
;LAYER:0
M107
M204 S5000
M205 X30 Y30
G0 F3600 X73.078 Y41.856 Z0.2
M204 S500
M205 X20 Y20
;TYPE:SKIRT
G1 F3000 E0
G1 F1800 X73.448 Y41.243 E0.02381
G1 X73.883 Y40.676 E0.04758
G1 X74.379 Y40.161 E0.07137
G1 X74.93 Y39.704 E0.09517
G1 X75.528 Y39.312 E0.11896
G1 X76.166 Y38.989 E0.14274
G1 X76.836 Y38.739 E0.16653
G1 X77.53 Y38.565 E0.19032
G1 X78.239 Y38.47 E0.21412
G1 X78.713 Y38.451 E0.22989
G1 X81.68 Y38.441 E0.32858
G1 X87.008 Y38.216 E0.50594
G1 X92.302 Y37.691 E0.68289
G1 X97.466 Y36.895 E0.85667
G1 X98.178 Y36.825 E0.88047
G1 X98.646 Y36.823 E0.89603
G1 X99.897 Y36.863 E0.93766
G1 X100.673 Y36.936 E0.96359
G1 X105.628 Y37.705 E1.13036
G1 X110.918 Y38.228 E1.30717
G1 X115.168 Y38.429 E1.44868
G1 X122.788 Y38.452 E1.70212
G1 X123.502 Y38.494 E1.72591
G1 X124.207 Y38.616 E1.74971
G1 X124.894 Y38.815 E1.7735
G1 X125.554 Y39.09 E1.79728
G1 X126.18 Y39.437 E1.82109
G1 X126.763 Y39.851 E1.84487
G1 X127.337 Y40.369 E1.87058
G1 X129.832 Y42.911 E1.98905
G1 X133.758 Y46.566 E2.16746
G1 X135.721 Y48.243 E2.25333
G1 X139.901 Y51.517 E2.42993
G1 X144.252 Y54.547 E2.60627
G1 X148.761 Y57.321 E2.78235
G1 X153.414 Y59.834 E2.95824
G1 X158.205 Y62.079 E3.13422
G1 X163.211 Y64.09 E3.31365
G1 X165.6 Y64.932 E3.3979
G1 X169.416 Y66.14 E3.53103
G1 X170.085 Y66.393 E3.55482
G1 X170.721 Y66.72 E3.5786
G1 X171.317 Y67.116 E3.6024
G1 X171.865 Y67.575 E3.62618
G1 X172.358 Y68.093 E3.64996
G1 X172.79 Y68.663 E3.67375
G1 X173.157 Y69.277 E3.69754
G1 X173.452 Y69.929 E3.72134
G1 X173.673 Y70.609 E3.74512
G1 X173.816 Y71.31 E3.76892
G1 X173.883 Y72.34 E3.80325
G1 X173.826 Y76.01 E3.92533
G1 X173.763 Y76.815 E3.95219
G1 X173.049 Y81.821 E4.12037
G1 X172.523 Y87.122 E4.29755
G1 X172.286 Y93.792 E4.51953
G1 X172.435 Y99.047 E4.69439
G1 X172.882 Y104.314 E4.8702
G1 X173.907 Y111.199 E5.10172
G1 X173.977 Y112.158 E5.1337
G1 X173.975 Y112.907 E5.15861
G1 X173.933 Y113.621 E5.1824
G1 X173.755 Y114.554 E5.21399
G1 X172.528 Y119.11 E5.37092
G1 X172.185 Y120.071 E5.40486
G1 X171.169 Y122.329 E5.48721
G1 X169.134 Y127.389 E5.66861
G1 X168.306 Y129.74 E5.75151
G1 X166.741 Y134.848 E5.9292
G1 X165.463 Y140.054 E6.10749
G1 X164.946 Y142.624 E6.19469
G1 X164.514 Y145.147 E6.27982
G1 X163.834 Y150.45 E6.45765
G1 X163.457 Y155.744 E6.63417
G1 X163.382 Y161.027 E6.8099
G1 X163.605 Y166.324 E6.98624
G1 X163.998 Y170.563 E7.12783
G1 X164.025 Y171.18 E7.14837
G1 X164.022 Y171.916 E7.17285
G1 X163.979 Y172.63 E7.19664
G1 X163.802 Y173.555 E7.22797
G1 X162.575 Y178.11 E7.38487
G1 X162.35 Y178.789 E7.40866
G1 X162.052 Y179.439 E7.43244
G1 X161.682 Y180.051 E7.45623
G1 X161.247 Y180.619 E7.48002
G1 X160.751 Y181.134 E7.5038
G1 X160.2 Y181.591 E7.52761
G1 X159.602 Y181.983 E7.55139
G1 X158.964 Y182.307 E7.57519
G1 X158.294 Y182.557 E7.59898
G1 X157.6 Y182.73 E7.62277
G1 X156.892 Y182.826 E7.64653
G1 X156.397 Y182.845 E7.66301
G1 X136.28 Y182.851 E8.3321
G1 X135.825 Y182.835 E8.34724
G1 X130.363 Y182.447 E8.52937
G1 X125.08 Y182.373 E8.7051
G1 X119.751 Y182.598 E8.8825
G1 X118.328 Y182.719 E8.93
G1 X118.237 Y182.726 E8.93304
G1 X116.538 Y182.846 E8.98969
G1 X116.068 Y182.862 E9.00533
G1 X94.839 Y182.799 E9.71141
G1 X94.163 Y182.761 E9.73393
G1 X92.139 Y182.54 E9.80165
G1 X86.787 Y182.149 E9.98013
G1 X81.502 Y182.062 E10.15593
G1 X76.201 Y182.276 E10.33239
G1 X70.895 Y182.791 E10.5097
G1 X68.486 Y183.121 E10.59057
G1 X67.773 Y183.178 E10.61436
G1 X67.356 Y183.175 E10.62823
G1 X59.824 Y182.869 E10.87895
G1 X52.408 Y182.853 E11.12561
G1 X51.694 Y182.812 E11.1494
G1 X50.989 Y182.691 E11.17319
G1 X50.302 Y182.492 E11.19698
G1 X49.642 Y182.218 E11.22074
G1 X49.016 Y181.871 E11.24455
G1 X48.433 Y181.457 E11.26833
G1 X47.899 Y180.981 E11.29213
G1 X47.422 Y180.448 E11.31592
G1 X47.007 Y179.865 E11.33972
G1 X46.661 Y179.24 E11.36348
G1 X46.386 Y178.579 E11.38729
G1 X46.186 Y177.892 E11.41109
G1 X46.064 Y177.188 E11.43485
G1 X46.022 Y176.452 E11.45937
G1 X46.023 Y171.15 E11.63572
G1 X46.063 Y170.436 E11.6595
G1 X46.183 Y169.73 E11.68332
G1 X46.38 Y169.043 E11.70709
G1 X46.759 Y168.171 E11.73871
G1 X48.831 Y164.234 E11.88669
G1 X51.074 Y159.415 E12.06348
G1 X53.063 Y154.426 E12.24211
G1 X53.893 Y152.049 E12.32585
G1 X55.443 Y146.934 E12.50362
G1 X56.693 Y141.778 E12.68008
G1 X57.646 Y136.577 E12.85594
G1 X58.303 Y131.331 E13.03179
G1 X58.662 Y126.056 E13.20764
G1 X58.723 Y120.743 E13.38436
G1 X58.475 Y115.106 E13.57203
G1 X58.484 Y114.391 E13.59582
G1 X58.552 Y113.797 E13.6157
G1 X59.137 Y110.202 E13.73684
G1 X59.862 Y104.882 E13.91542
G1 X60.279 Y99.597 E14.09175
G1 X60.396 Y94.312 E14.26757
G1 X60.215 Y89.031 E14.44332
G1 X59.727 Y83.686 E14.62184
G1 X59.387 Y81.15 E14.70694
G1 X58.582 Y76.405 E14.86701
G1 X58.492 Y75.393 E14.90081
G1 X58.486 Y74.726 E14.92299
G1 X58.52 Y74.011 E14.9468
G1 X58.575 Y73.606 E14.96039
G1 X58.692 Y72.911 E14.98384
G1 X58.85 Y72.213 E15.00764
G1 X59.184 Y71.308 E15.03972
G1 X59.533 Y70.546 E15.0676
G1 X59.889 Y69.878 E15.09277
G1 X63.668 Y63.685 E15.33407
G1 X66.117 Y59.011 E15.50958
G1 X68.31 Y54.182 E15.68598
G1 X70.264 Y49.138 E15.86589
G1 X71.248 Y46.402 E15.9626
G1 X71.315 Y46.223 E15.96895
G1 X72.779 Y42.506 E16.10183
G1 X73.078 Y41.856 E16.12562
M204 S5000
M205 X30 Y30
G0 F3600 X73.442 Y42.024
M204 S500
M205 X20 Y20
G1 F1800 X73.803 Y41.433 E16.14866
G1 X74.23 Y40.887 E16.17171
G1 X74.717 Y40.395 E16.19474
G1 X75.257 Y39.961 E16.21778
G1 X75.843 Y39.593 E16.24079
G1 X76.468 Y39.295 E16.26382
G1 X77.124 Y39.071 E16.28688
G1 X77.801 Y38.924 E16.30992
G1 X78.715 Y38.851 E16.34042
G1 X81.672 Y38.841 E16.43877
G1 X87.047 Y38.614 E16.6177
G1 X92.348 Y38.089 E16.79487
G1 X97.527 Y37.29 E16.96917
G1 X98.216 Y37.224 E16.99219
G1 X98.633 Y37.223 E17.00606
G1 X99.884 Y37.263 E17.04769
G1 X100.612 Y37.331 E17.07201
G1 X105.581 Y38.102 E17.23925
G1 X110.9 Y38.628 E17.41703
G1 X115.148 Y38.829 E17.55847
G1 X122.787 Y38.852 E17.81255
G1 X123.478 Y38.894 E17.83557
G1 X124.16 Y39.015 E17.85861
G1 X124.823 Y39.215 E17.88164
G1 X125.459 Y39.489 E17.90468
G1 X126.059 Y39.835 E17.92771
G1 X126.615 Y40.247 E17.95073
G1 X127.051 Y40.649 E17.97046
G1 X129.545 Y43.19 E18.08888
G1 X133.497 Y46.869 E18.26846
G1 X135.448 Y48.535 E18.35379
G1 X139.672 Y51.844 E18.53226
G1 X144.041 Y54.886 E18.70932
G1 X148.562 Y57.668 E18.88588
G1 X153.233 Y60.19 E19.06244
G1 X158.059 Y62.452 E19.23971
G1 X163.042 Y64.454 E19.41832
G1 X165.482 Y65.314 E19.50437
G1 X169.295 Y66.521 E19.63739
G1 X169.942 Y66.768 E19.66043
G1 X170.557 Y67.087 E19.68347
G1 X171.13 Y67.476 E19.7065
G1 X171.655 Y67.928 E19.72955
G1 X172.124 Y68.437 E19.75257
G1 X172.531 Y68.997 E19.77559
G1 X172.872 Y69.6 E19.79863
G1 X173.14 Y70.239 E19.82168
G1 X173.333 Y70.904 E19.84471
G1 X173.448 Y71.587 E19.86775
G1 X173.483 Y72.334 E19.89262
G1 X173.426 Y76.004 E20.0147
G1 X173.367 Y76.758 E20.03985
G1 X172.652 Y81.772 E20.20831
G1 X172.123 Y87.099 E20.38635
G1 X171.886 Y93.774 E20.6085
G1 X172.037 Y99.092 E20.78545
G1 X172.483 Y104.343 E20.96073
G1 X173.512 Y111.258 E21.19326
G1 X173.577 Y112.157 E21.22324
G1 X173.575 Y112.906 E21.24815
G1 X173.533 Y113.597 E21.27117
G1 X173.369 Y114.45 E21.30006
G1 X172.142 Y119.006 E21.457
G1 X171.82 Y119.907 E21.48882
G1 X170.792 Y122.194 E21.57222
G1 X168.773 Y127.212 E21.75212
G1 X167.926 Y129.617 E21.83693
G1 X166.351 Y134.757 E22.01573
G1 X165.075 Y139.954 E22.19372
G1 X164.554 Y142.543 E22.28155
G1 X164.116 Y145.102 E22.3679
G1 X163.436 Y150.406 E22.54576
G1 X163.057 Y155.727 E22.72318
G1 X162.982 Y161.021 E22.89928
G1 X163.207 Y166.377 E23.07758
G1 X163.599 Y170.6 E23.21864
G1 X163.625 Y171.178 E23.23788
G1 X163.622 Y171.914 E23.26236
G1 X163.579 Y172.606 E23.28542
G1 X163.415 Y173.451 E23.31405
G1 X162.188 Y178.006 E23.47095
G1 X161.97 Y178.663 E23.49398
G1 X161.677 Y179.29 E23.517
G1 X161.314 Y179.88 E23.54004
G1 X160.886 Y180.424 E23.56306
G1 X160.397 Y180.915 E23.58611
G1 X159.856 Y181.347 E23.60913
G1 X159.268 Y181.713 E23.63217
G1 X158.642 Y182.009 E23.6552
G1 X157.986 Y182.23 E23.67822
G1 X157.308 Y182.375 E23.70128
G1 X156.397 Y182.445 E23.73167
G1 X136.28 Y182.451 E24.40077
G1 X135.853 Y182.436 E24.41498
G1 X130.379 Y182.047 E24.5975
G1 X125.087 Y181.973 E24.77353
G1 X119.7 Y182.2 E24.95286
G1 X118.294 Y182.32 E24.9998
G1 X118.209 Y182.327 E25.00264
G1 X116.51 Y182.447 E25.05929
G1 X116.069 Y182.462 E25.07396
G1 X94.84 Y182.399 E25.78004
G1 X94.206 Y182.364 E25.80116
G1 X92.155 Y182.14 E25.86979
G1 X86.805 Y181.749 E26.0482
G1 X81.493 Y181.662 E26.2249
G1 X76.181 Y181.876 E26.40172
G1 X70.827 Y182.395 E26.58063
G1 X68.431 Y182.724 E26.66107
G1 X67.741 Y182.779 E26.68409
G1 X67.372 Y182.775 E26.69637
G1 X59.841 Y182.469 E26.94706
G1 X52.409 Y182.453 E27.19425
G1 X51.718 Y182.412 E27.21727
G1 X51.036 Y182.291 E27.24031
G1 X50.373 Y182.092 E27.26333
G1 X49.736 Y181.818 E27.28639
G1 X49.136 Y181.473 E27.30941
G1 X48.58 Y181.061 E27.33243
G1 X48.074 Y180.588 E27.35547
G1 X47.627 Y180.059 E27.3785
G1 X47.243 Y179.483 E27.40153
G1 X46.928 Y178.866 E27.42457
G1 X46.687 Y178.217 E27.4476
G1 X46.522 Y177.544 E27.47064
G1 X46.436 Y176.857 E27.49367
G1 X46.422 Y176.452 E27.50715
G1 X46.423 Y171.15 E27.68349
G1 X46.463 Y170.458 E27.70655
G1 X46.583 Y169.776 E27.72958
G1 X46.78 Y169.113 E27.75259
G1 X47.113 Y168.357 E27.78006
G1 X49.194 Y164.402 E27.9287
G1 X51.442 Y159.575 E28.10581
G1 X53.43 Y154.586 E28.28443
G1 X54.279 Y152.156 E28.37004
G1 X55.829 Y147.039 E28.54787
G1 X57.082 Y141.873 E28.72468
G1 X58.042 Y136.63 E28.90196
G1 X58.701 Y131.37 E29.07827
G1 X59.062 Y126.071 E29.25493
G1 X59.123 Y120.731 E29.43255
G1 X58.875 Y115.089 E29.62038
G1 X58.884 Y114.396 E29.64343
G1 X58.947 Y113.861 E29.66135
G1 X59.53 Y110.28 E29.78202
G1 X60.261 Y104.916 E29.96208
G1 X60.677 Y99.637 E30.1382
G1 X60.796 Y94.289 E30.31612
G1 X60.614 Y88.998 E30.49221
G1 X60.128 Y83.668 E30.67022
G1 X59.781 Y81.086 E30.75687
G1 X58.976 Y76.338 E30.91704
G1 X58.892 Y75.389 E30.94873
G1 X58.886 Y74.722 E30.97091
G1 X58.92 Y74.03 E30.99396
G1 X58.969 Y73.672 E31.00598
G1 X59.086 Y72.977 E31.02942
G1 X59.24 Y72.302 E31.05245
G1 X59.548 Y71.475 E31.0818
G1 X59.897 Y70.713 E31.10967
G1 X60.23 Y70.086 E31.13329
G1 X64.026 Y63.864 E31.3757
G1 X66.479 Y59.184 E31.55145
G1 X68.671 Y54.356 E31.7278
G1 X70.639 Y49.277 E31.90897
G1 X71.624 Y46.538 E32.00578
G1 X71.687 Y46.369 E32.01178
G1 X73.151 Y42.652 E32.14465
G1 X73.442 Y42.024 E32.16767
M204 S5000
M205 X30 Y30
G0 F3600 X73.806 Y42.192
M204 S500
M205 X20 Y20
G1 F1800 X74.158 Y41.623 E32.18992
G1 X74.575 Y41.101 E32.21215
G1 X75.052 Y40.631 E32.23442
G1 X75.582 Y40.222 E32.25669
G1 X76.156 Y39.88 E32.27891
G1 X76.768 Y39.608 E32.30118
G1 X77.407 Y39.411 E32.32342
G1 X78.065 Y39.291 E32.34567
G1 X78.716 Y39.251 E32.36736
G1 X81.69 Y39.241 E32.46628
G1 X87.069 Y39.014 E32.64534
G1 X92.392 Y38.486 E32.82326
G1 X97.588 Y37.685 E32.99812
G1 X98.254 Y37.623 E33.02037
G1 X98.62 Y37.623 E33.03254
G1 X99.871 Y37.663 E33.07417
G1 X100.551 Y37.726 E33.09688
G1 X105.535 Y38.499 E33.26463
G1 X110.862 Y39.026 E33.44267
G1 X115.15 Y39.229 E33.58545
G1 X122.786 Y39.252 E33.83943
G1 X123.453 Y39.294 E33.86166
G1 X124.111 Y39.415 E33.88391
G1 X124.75 Y39.614 E33.90617
G1 X125.361 Y39.888 E33.92844
G1 X125.934 Y40.232 E33.95067
G1 X126.462 Y40.643 E33.97292
G1 X126.766 Y40.929 E33.98681
G1 X129.27 Y43.48 E34.1057
G1 X133.235 Y47.171 E34.28587
G1 X135.199 Y48.849 E34.37179
G1 X139.442 Y52.173 E34.55106
G1 X143.803 Y55.21 E34.72781
G1 X148.368 Y58.018 E34.90607
G1 X153.045 Y60.543 E35.08285
G1 X157.904 Y62.821 E35.26134
G1 X162.9 Y64.828 E35.44042
G1 X165.355 Y65.693 E35.52699
G1 X169.174 Y66.902 E35.66022
G1 X169.799 Y67.142 E35.68249
G1 X170.391 Y67.454 E35.70475
G1 X170.941 Y67.835 E35.727
G1 X171.441 Y68.279 E35.74924
G1 X171.886 Y68.779 E35.7715
G1 X172.267 Y69.329 E35.79376
G1 X172.58 Y69.92 E35.816
G1 X172.821 Y70.544 E35.83825
G1 X172.985 Y71.193 E35.86051
G1 X173.071 Y71.856 E35.88275
G1 X173.083 Y72.328 E35.89845
G1 X173.026 Y75.998 E36.02053
G1 X172.971 Y76.702 E36.04402
G1 X172.255 Y81.725 E36.21277
G1 X171.723 Y87.075 E36.39159
G1 X171.486 Y93.771 E36.61444
G1 X171.637 Y99.102 E36.79182
G1 X172.087 Y104.404 E36.9688
G1 X173.116 Y111.317 E37.20126
G1 X173.177 Y112.156 E37.22924
G1 X173.175 Y112.905 E37.25416
G1 X173.133 Y113.573 E37.27642
G1 X172.982 Y114.346 E37.30261
G1 X171.755 Y118.902 E37.45955
G1 X171.455 Y119.743 E37.48924
G1 X170.427 Y122.029 E37.57261
G1 X168.399 Y127.07 E37.75333
G1 X167.54 Y129.508 E37.83931
G1 X165.97 Y134.634 E38.01762
G1 X164.683 Y139.877 E38.19718
G1 X164.161 Y142.468 E38.28509
G1 X163.723 Y145.03 E38.37153
G1 X163.037 Y150.379 E38.5509
G1 X162.658 Y155.711 E38.72869
G1 X162.581 Y161.031 E38.90565
G1 X162.807 Y166.392 E39.08412
G1 X163.201 Y170.637 E39.22591
G1 X163.225 Y171.177 E39.24389
G1 X163.222 Y171.913 E39.26837
G1 X163.179 Y172.58 E39.2906
G1 X163.029 Y173.347 E39.3166
G1 X161.802 Y177.902 E39.4735
G1 X161.59 Y178.536 E39.49573
G1 X161.304 Y179.141 E39.51799
G1 X160.947 Y179.707 E39.54025
G1 X160.526 Y180.226 E39.56247
G1 X160.045 Y180.692 E39.58475
G1 X159.513 Y181.097 E39.60699
G1 X158.936 Y181.436 E39.62924
G1 X158.322 Y181.703 E39.65151
G1 X157.681 Y181.895 E39.67377
G1 X157.022 Y182.01 E39.69602
G1 X156.397 Y182.045 E39.71684
G1 X136.28 Y182.051 E40.38593
G1 X135.882 Y182.037 E40.39918
G1 X130.396 Y181.648 E40.5821
G1 X125.076 Y181.572 E40.75906
G1 X119.698 Y181.8 E40.9381
G1 X118.261 Y181.922 E40.98606
G1 X118.181 Y181.928 E40.98873
G1 X116.482 Y182.048 E41.04538
G1 X116.07 Y182.062 E41.05909
G1 X94.841 Y181.999 E41.76518
G1 X94.25 Y181.966 E41.78486
G1 X92.202 Y181.742 E41.85339
G1 X86.823 Y181.349 E42.03277
G1 X81.483 Y181.262 E42.2104
G1 X76.163 Y181.476 E42.38749
G1 X70.784 Y181.998 E42.56724
G1 X68.377 Y182.328 E42.64804
G1 X67.388 Y182.375 E42.68097
G1 X59.858 Y182.069 E42.93163
G1 X52.41 Y182.053 E43.17935
G1 X51.742 Y182.012 E43.20161
G1 X51.084 Y181.891 E43.22386
G1 X50.445 Y181.693 E43.24611
G1 X49.835 Y181.419 E43.26835
G1 X49.261 Y181.075 E43.29061
G1 X48.732 Y180.665 E43.31287
G1 X48.256 Y180.195 E43.33512
G1 X47.84 Y179.672 E43.35735
G1 X47.488 Y179.102 E43.37963
G1 X47.208 Y178.495 E43.40186
G1 X47.001 Y177.859 E43.42411
G1 X46.872 Y177.202 E43.44638
G1 X46.822 Y176.452 E43.47138
G1 X46.823 Y171.15 E43.64772
G1 X46.863 Y170.482 E43.66998
G1 X46.983 Y169.824 E43.69223
G1 X47.18 Y169.184 E43.7145
G1 X47.467 Y168.543 E43.73786
G1 X49.545 Y164.594 E43.88628
G1 X51.811 Y159.727 E44.06484
G1 X53.813 Y154.706 E44.24462
G1 X54.658 Y152.284 E44.32994
G1 X56.216 Y147.144 E44.50858
G1 X57.475 Y141.95 E44.68634
G1 X58.434 Y136.715 E44.86335
G1 X59.1 Y131.395 E45.04168
