;FLAVOR:Marlin
;TIME:3874
;Filament used: 2.49634m
;Layer height: 0.2
;Generated with Cura_SteamEngine 3.4.1
M190 S60
M104 S200
M109 S200
M82 ;absolute extrusion mode
G28 ;Home
G1 Z15.0 F6000 ;Move the platform down 15mm
;Prime the extruder
G92 E0
G1 F200 E3
G92 E0
G92 E0
G1 F1800 E-6
;LAYER_COUNT:188
;LAYER:0
M107
M204 S5000
M205 X30 Y30
G0 F3600 X33.284 Y93.972 Z0.2
M204 S500
M205 X20 Y20
;TYPE:SKIRT
G1 F1800 E0
G1 X33.681 Y93.846 E0.01385
G1 X35.561 Y93.315 E0.07883
G1 X40.658 Y91.669 E0.25698
G1 X45.592 Y89.761 E0.43292
G1 X50.414 Y87.575 E0.60902
G1 X55.101 Y85.122 E0.78497
G1 X59.699 Y82.375 E0.96311
G1 X61.811 Y80.988 E1.04715
G1 X66.16 Y77.86 E1.22533
G1 X70.282 Y74.526 E1.40166
G1 X74.195 Y70.978 E1.57734
G1 X77.898 Y67.216 E1.75291
G1 X82.575 Y61.818 E1.99046
G1 X83.073 Y61.304 E2.01427
G1 X83.625 Y60.849 E2.03806
G1 X84.225 Y60.459 E2.06186
G1 X84.864 Y60.138 E2.08564
G1 X85.535 Y59.89 E2.10944
G1 X86.229 Y59.719 E2.13321
G1 X86.939 Y59.627 E2.15702
G1 X87.412 Y59.609 E2.17277
G1 X132.591 Y59.61 E3.67543
G1 X133.305 Y59.65 E3.69921
G1 X134.011 Y59.769 E3.72302
G1 X134.698 Y59.967 E3.7468
G1 X135.359 Y60.24 E3.77059
G1 X135.986 Y60.585 E3.79439
G1 X136.57 Y60.997 E3.81816
G1 X137.104 Y61.473 E3.84196
G1 X137.583 Y62.005 E3.86577
G1 X137.998 Y62.587 E3.88954
G1 X138.218 Y62.961 E3.90397
G1 X139.498 Y65.324 E3.99336
G1 X142.239 Y69.915 E4.1712
G1 X145.211 Y74.309 E4.34763
G1 X148.417 Y78.514 E4.5235
G1 X151.861 Y82.538 E4.69967
G1 X155.525 Y86.36 E4.87577
G1 X159.428 Y89.993 E5.05312
G1 X161.403 Y91.683 E5.13957
G1 X163.997 Y93.766 E5.25022
G1 X164.529 Y94.245 E5.27403
G1 X165.004 Y94.779 E5.2978
G1 X165.416 Y95.364 E5.3216
G1 X165.761 Y95.99 E5.34537
G1 X166.034 Y96.652 E5.36919
G1 X166.231 Y97.339 E5.39296
G1 X166.35 Y98.044 E5.41674
G1 X166.39 Y98.834 E5.44305
G1 X166.334 Y103.542 E5.59965
G1 X166.39 Y111.199 E5.85433
G1 X166.355 Y111.913 E5.87811
G1 X166.241 Y112.619 E5.90189
G1 X166.049 Y113.308 E5.92568
G1 X165.781 Y113.971 E5.94947
G1 X165.44 Y114.601 E5.97329
G1 X165.032 Y115.188 E5.99707
G1 X164.442 Y115.844 E6.02642
G1 X161.054 Y119.124 E6.18326
G1 X157.406 Y123.045 E6.36138
G1 X155.72 Y125.016 E6.44765
G1 X154.089 Y127.04 E6.53411
G1 X150.909 Y131.343 E6.71207
G1 X148.017 Y135.759 E6.88764
G1 X145.366 Y140.354 E7.06408
G1 X142.984 Y145.084 E7.24022
G1 X140.859 Y149.972 E7.4175
G1 X139.91 Y152.431 E7.50516
G1 X138.632 Y156.098 E7.63432
G1 X138.359 Y156.759 E7.65811
G1 X138.015 Y157.386 E7.68189
G1 X137.602 Y157.97 E7.70568
G1 X137.127 Y158.504 E7.72946
G1 X136.595 Y158.982 E7.75324
G1 X136.013 Y159.398 E7.77704
G1 X135.388 Y159.747 E7.80085
G1 X134.728 Y160.023 E7.82464
G1 X134.042 Y160.224 E7.84842
G1 X133.337 Y160.347 E7.87222
G1 X132.588 Y160.391 E7.89717
G1 X87.401 Y160.386 E9.4001
G1 X86.687 Y160.346 E9.42388
G1 X85.982 Y160.226 E9.44767
G1 X85.294 Y160.029 E9.47147
G1 X84.633 Y159.756 E9.49526
G1 X84.007 Y159.411 E9.51903
G1 X83.423 Y158.998 E9.54282
G1 X82.888 Y158.523 E9.56662
G1 X82.475 Y158.071 E9.58698
G1 X80.515 Y155.707 E9.68912
G1 X76.93 Y151.748 E9.86676
G1 X75.124 Y149.918 E9.95227
G1 X71.208 Y146.271 E10.13026
G1 X67.139 Y142.89 E10.30622
G1 X62.895 Y139.753 E10.48175
G1 X58.454 Y136.843 E10.65834
G1 X53.883 Y134.204 E10.83389
G1 X49.136 Y131.811 E11.0107
G1 X44.315 Y129.712 E11.18559
G1 X39.313 Y127.864 E11.36295
G1 X33.548 Y126.112 E11.56335
G1 X32.876 Y125.867 E11.58714
G1 X32.236 Y125.547 E11.61094
G1 X31.636 Y125.158 E11.63472
G1 X31.083 Y124.705 E11.6585
G1 X30.583 Y124.193 E11.6823
G1 X30.144 Y123.628 E11.7061
G1 X29.771 Y123.018 E11.72988
G1 X29.468 Y122.37 E11.75367
G1 X29.24 Y121.692 E11.77746
G1 X29.088 Y120.993 E11.80126
G1 X29.009 Y119.985 E11.83489
G1 X29.02 Y100.001 E12.49956
G1 X29.06 Y99.287 E12.52334
G1 X29.18 Y98.582 E12.54713
G1 X29.378 Y97.895 E12.57091
G1 X29.651 Y97.234 E12.59469
G1 X29.996 Y96.607 E12.6185
G1 X30.409 Y96.023 E12.64229
G1 X30.885 Y95.489 E12.66608
G1 X31.417 Y95.011 E12.68987
G1 X31.999 Y94.596 E12.71364
G1 X32.624 Y94.248 E12.73743
G1 X33.284 Y93.972 E12.76123
M204 S5000
M205 X30 Y30
G0 F3600 X33.79 Y94.231
M204 S500
M205 X20 Y20
G1 F1800 X35.658 Y93.704 E12.82578
G1 X40.798 Y92.043 E13.00544
G1 X45.744 Y90.131 E13.18181
G1 X50.593 Y87.933 E13.35889
G1 X55.292 Y85.474 E13.53528
G1 X59.907 Y82.716 E13.7141
G1 X62.043 Y81.314 E13.79908
G1 X66.412 Y78.171 E13.97809
G1 X70.538 Y74.834 E14.15458
G1 X74.475 Y71.264 E14.33135
G1 X78.195 Y67.484 E14.50774
G1 X82.878 Y62.08 E14.74558
G1 X83.361 Y61.583 E14.76863
G1 X83.898 Y61.146 E14.79166
G1 X84.481 Y60.773 E14.81468
G1 X85.104 Y60.471 E14.8377
G1 X85.758 Y60.242 E14.86075
G1 X86.433 Y60.089 E14.88377
G1 X87.412 Y60.009 E14.91644
G1 X132.591 Y60.01 E16.4191
G1 X133.283 Y60.05 E16.44215
G1 X133.965 Y60.169 E16.46518
G1 X134.629 Y60.367 E16.48823
G1 X135.265 Y60.639 E16.51123
G1 X135.866 Y60.983 E16.53427
G1 X136.424 Y61.394 E16.55732
G1 X136.93 Y61.866 E16.58033
G1 X137.379 Y62.394 E16.60338
G1 X137.866 Y63.152 E16.63335
G1 X139.15 Y65.522 E16.723
G1 X141.906 Y70.14 E16.90187
G1 X144.871 Y74.522 E17.07784
G1 X148.111 Y78.771 E17.25557
G1 X151.56 Y82.802 E17.43202
G1 X155.246 Y86.646 E17.60915
G1 X159.178 Y90.306 E17.78781
G1 X161.142 Y91.987 E17.8738
G1 X163.746 Y94.078 E17.98487
G1 X164.26 Y94.542 E18.00791
G1 X164.718 Y95.062 E18.03095
G1 X165.112 Y95.632 E18.054
G1 X165.438 Y96.243 E18.07703
G1 X165.691 Y96.887 E18.10005
G1 X165.869 Y97.557 E18.1231
G1 X165.968 Y98.242 E18.14612
G1 X165.99 Y98.829 E18.16566
G1 X165.934 Y103.54 E18.32236
G1 X165.99 Y111.202 E18.57721
G1 X165.955 Y111.893 E18.60022
G1 X165.841 Y112.576 E18.62325
G1 X165.648 Y113.242 E18.64631
G1 X165.381 Y113.88 E18.66931
G1 X165.041 Y114.484 E18.69237
G1 X164.634 Y115.045 E18.71542
G1 X164.164 Y115.556 E18.73851
G1 X160.775 Y118.837 E18.8954
G1 X157.104 Y122.782 E19.07463
G1 X155.417 Y124.755 E19.16097
G1 X153.764 Y126.807 E19.24861
G1 X150.591 Y131.1 E19.42617
G1 X147.666 Y135.566 E19.60373
G1 X145.02 Y140.153 E19.77986
G1 X142.625 Y144.908 E19.95694
G1 X140.486 Y149.829 E20.1354
G1 X139.539 Y152.282 E20.22286
G1 X138.255 Y155.966 E20.35262
G1 X137.989 Y156.606 E20.37567
G1 X137.652 Y157.211 E20.3987
G1 X137.247 Y157.773 E20.42175
G1 X136.781 Y158.284 E20.44475
G1 X136.258 Y158.739 E20.4678
G1 X135.686 Y159.13 E20.49085
G1 X135.074 Y159.452 E20.51385
G1 X134.428 Y159.702 E20.53689
G1 X133.757 Y159.876 E20.55994
G1 X133.071 Y159.972 E20.58298
G1 X132.588 Y159.991 E20.59906
G1 X87.401 Y159.986 E22.10199
G1 X86.71 Y159.946 E22.12501
G1 X86.028 Y159.827 E22.14803
G1 X85.364 Y159.629 E22.17108
G1 X84.727 Y159.357 E22.19412
G1 X84.126 Y159.013 E22.21715
G1 X83.569 Y158.602 E22.24017
G1 X83.062 Y158.129 E22.26323
G1 X82.783 Y157.815 E22.2772
G1 X80.835 Y155.466 E22.3787
G1 X77.205 Y151.458 E22.55856
G1 X75.411 Y149.639 E22.64353
G1 X71.481 Y145.979 E22.82215
G1 X67.387 Y142.577 E22.99919
G1 X63.11 Y139.415 E23.1761
G1 X58.668 Y136.505 E23.35272
G1 X54.056 Y133.843 E23.52984
G1 X49.312 Y131.451 E23.70654
G1 X44.456 Y129.337 E23.8827
G1 X39.468 Y127.494 E24.05956
G1 X33.664 Y125.73 E24.26132
G1 X33.014 Y125.49 E24.28437
G1 X32.396 Y125.178 E24.30739
G1 X31.819 Y124.796 E24.33041
G1 X31.289 Y124.35 E24.35345
G1 X30.813 Y123.847 E24.37648
G1 X30.4 Y123.291 E24.39952
G1 X30.052 Y122.692 E24.42256
G1 X29.777 Y122.057 E24.44557
G1 X29.576 Y121.394 E24.46862
G1 X29.453 Y120.713 E24.49163
G1 X29.409 Y119.986 E24.51586
G1 X29.42 Y100.002 E25.18053
G1 X29.46 Y99.31 E25.20358
G1 X29.58 Y98.628 E25.22661
G1 X29.778 Y97.964 E25.24966
G1 X30.05 Y97.328 E25.27267
G1 X30.395 Y96.727 E25.29572
G1 X30.806 Y96.17 E25.31874
G1 X31.278 Y95.664 E25.34175
G1 X31.806 Y95.215 E25.36481
G1 X32.382 Y94.831 E25.38783
G1 X32.999 Y94.515 E25.41089
G1 X33.79 Y94.231 E25.43884
M204 S5000
M205 X30 Y30
G0 F3600 X33.37 Y94.794
M204 S500
M205 X20 Y20
G1 F1800 X33.898 Y94.616 E25.45737
G1 X35.787 Y94.083 E25.52265
G1 X40.923 Y92.424 E25.70217
G1 X45.91 Y90.495 E25.88001
G1 X50.751 Y88.301 E26.05679
G1 X55.511 Y85.81 E26.23548
G1 X60.116 Y83.058 E26.41391
G1 X62.264 Y81.648 E26.49937
G1 X66.643 Y78.498 E26.67878
G1 X70.803 Y75.134 E26.85672
G1 X74.756 Y71.549 E27.03421
G1 X78.485 Y67.76 E27.21103
G1 X83.18 Y62.342 E27.44948
G1 X83.647 Y61.863 E27.47173
G1 X84.169 Y61.444 E27.49399
G1 X84.736 Y61.09 E27.51623
G1 X85.342 Y60.806 E27.53849
G1 X85.977 Y60.596 E27.56073
G1 X86.633 Y60.463 E27.58299
G1 X87.412 Y60.409 E27.60897
G1 X132.591 Y60.41 E29.11163
G1 X133.259 Y60.45 E29.13388
G1 X133.917 Y60.569 E29.15612
G1 X134.557 Y60.766 E29.17839
G1 X135.168 Y61.038 E29.20064
G1 X135.742 Y61.381 E29.22288
G1 X136.272 Y61.79 E29.24515
G1 X136.749 Y62.259 E29.2674
G1 X137.167 Y62.782 E29.28966
G1 X137.515 Y63.342 E29.31159
G1 X138.808 Y65.729 E29.40188
G1 X141.57 Y70.355 E29.58108
G1 X144.56 Y74.775 E29.75857
G1 X147.788 Y79.009 E29.93565
G1 X151.267 Y83.074 E30.11361
G1 X154.958 Y86.925 E30.29103
G1 X158.915 Y90.608 E30.47082
G1 X160.881 Y92.291 E30.5569
G1 X163.496 Y94.39 E30.66843
G1 X163.992 Y94.839 E30.69068
G1 X164.43 Y95.345 E30.71294
G1 X164.806 Y95.899 E30.73521
G1 X165.112 Y96.493 E30.75743
G1 X165.345 Y97.12 E30.77968
G1 X165.502 Y97.771 E30.80195
G1 X165.581 Y98.435 E30.82419
G1 X165.59 Y98.824 E30.83714
G1 X165.533 Y103.538 E30.99394
G1 X165.59 Y111.205 E31.24895
G1 X165.555 Y111.873 E31.2712
G1 X165.44 Y112.532 E31.29345
G1 X165.248 Y113.173 E31.3157
G1 X164.981 Y113.786 E31.33794
G1 X164.642 Y114.363 E31.3602
G1 X164.237 Y114.896 E31.38246
G1 X163.886 Y115.269 E31.3995
G1 X160.477 Y118.57 E31.55733
G1 X156.812 Y122.508 E31.73625
G1 X155.117 Y124.49 E31.82299
G1 X153.448 Y126.562 E31.91149
G1 X150.256 Y130.88 E32.09008
G1 X147.336 Y135.34 E32.26739
G1 X144.655 Y139.988 E32.44586
G1 X142.268 Y144.726 E32.62231
G1 X140.117 Y149.674 E32.80176
G1 X139.158 Y152.16 E32.89038
G1 X137.877 Y155.834 E33.0198
G1 X137.619 Y156.452 E33.04207
G1 X137.29 Y157.034 E33.06431
G1 X136.893 Y157.573 E33.08657
G1 X136.436 Y158.061 E33.10881
G1 X135.923 Y158.491 E33.13107
G1 X135.362 Y158.856 E33.15333
G1 X134.762 Y159.152 E33.17559
G1 X134.131 Y159.374 E33.19783
G1 X133.478 Y159.52 E33.22009
G1 X132.588 Y159.591 E33.24978
G1 X87.401 Y159.586 E34.75271
G1 X86.734 Y159.546 E34.77493
G1 X86.075 Y159.427 E34.79721
G1 X85.436 Y159.23 E34.81945
G1 X84.825 Y158.958 E34.84169
G1 X84.25 Y158.615 E34.86396
G1 X83.721 Y158.206 E34.8862
G1 X83.091 Y157.56 E34.91621
G1 X81.136 Y155.202 E35.01809
G1 X77.503 Y151.191 E35.19808
G1 X75.685 Y149.348 E35.28419
G1 X71.736 Y145.67 E35.46368
G1 X67.635 Y142.262 E35.64103
G1 X63.342 Y139.089 E35.81858
G1 X58.874 Y136.161 E35.99625
G1 X54.251 Y133.493 E36.17378
G1 X49.481 Y131.087 E36.35148
G1 X44.612 Y128.968 E36.52809
G1 X39.586 Y127.111 E36.7063
G1 X33.781 Y125.347 E36.90809
G1 X33.153 Y125.115 E36.93036
G1 X32.558 Y124.809 E36.95261
G1 X32.004 Y124.435 E36.97485
G1 X31.498 Y123.997 E36.99711
G1 X31.048 Y123.502 E37.01936
G1 X30.66 Y122.957 E37.04161
G1 X30.34 Y122.369 E37.06387
G1 X30.092 Y121.747 E37.08614
G1 X29.92 Y121.101 E37.10838
G1 X29.827 Y120.438 E37.13065
G1 X29.809 Y119.986 E37.14569
G1 X29.82 Y100.002 E37.81036
G1 X29.86 Y99.334 E37.83262
G1 X29.98 Y98.676 E37.85487
G1 X30.177 Y98.037 E37.87711
G1 X30.45 Y97.425 E37.89939
G1 X30.793 Y96.851 E37.92163
G1 X31.202 Y96.322 E37.94387
G1 X31.671 Y95.845 E37.96612
G1 X32.194 Y95.428 E37.98837
G1 X32.763 Y95.076 E38.01062
G1 X33.37 Y94.794 E38.03289
M204 S5000
M205 X30 Y30
G0 F3600 X34.007 Y95.001
M204 S500
M205 X20 Y20
G1 F1800 X35.909 Y94.464 E38.09862
G1 X41.054 Y92.802 E38.27845
G1 X46.056 Y90.868 E38.45682
G1 X50.944 Y88.652 E38.63532
G1 X55.689 Y86.169 E38.81344
G1 X60.324 Y83.399 E38.99304
G1 X62.5 Y81.971 E39.0796
G1 X66.891 Y78.812 E39.25952
G1 X71.06 Y75.44 E39.43786
G1 X75.036 Y71.836 E39.61634
G1 X78.774 Y68.037 E39.79361
G1 X83.482 Y62.604 E40.03272
G1 X83.934 Y62.144 E40.05417
G1 X84.439 Y61.743 E40.07561
G1 X84.99 Y61.408 E40.09706
G1 X85.578 Y61.143 E40.11851
G1 X86.194 Y60.954 E40.13994
G1 X86.829 Y60.842 E40.16139
G1 X87.412 Y60.809 E40.18081
G1 X132.591 Y60.81 E41.68347
G1 X133.235 Y60.85 E41.70493
G1 X133.868 Y60.969 E41.72635
G1 X134.482 Y61.166 E41.7478
G1 X135.067 Y61.437 E41.76924
G1 X135.614 Y61.779 E41.7907
G1 X136.114 Y62.185 E41.81212
G1 X136.56 Y62.651 E41.83358
G1 X136.945 Y63.168 E41.85502
G1 X137.163 Y63.533 E41.86916
G1 X138.46 Y65.926 E41.95969
G1 X141.225 Y70.559 E42.13914
G1 X144.234 Y75.007 E42.31775
G1 X147.481 Y79.266 E42.49588
G1 X150.968 Y83.341 E42.67426
G1 X154.679 Y87.212 E42.85262
G1 X158.627 Y90.887 E43.03201
G1 X160.654 Y92.622 E43.12076
G1 X163.245 Y94.702 E43.23127
G1 X163.722 Y95.136 E43.25272
G1 X164.142 Y95.626 E43.27418
G1 X164.497 Y96.164 E43.29562
G1 X164.783 Y96.741 E43.31704
G1 X164.996 Y97.35 E43.3385
G1 X165.132 Y97.98 E43.35993
G1 X165.19 Y98.819 E43.38791
G1 X165.133 Y103.536 E43.5448
G1 X165.19 Y111.208 E43.79998
G1 X165.155 Y111.851 E43.8214
G1 X165.04 Y112.486 E43.84287
G1 X164.848 Y113.101 E43.86429
G1 X164.581 Y113.688 E43.88574
G1 X164.244 Y114.237 E43.90717
G1 X163.841 Y114.741 E43.92863
G1 X163.607 Y114.982 E43.9398
G1 X160.208 Y118.273 E44.09716
G1 X156.499 Y122.259 E44.27825
G1 X154.8 Y124.245 E44.36518
G1 X153.14 Y126.306 E44.4532
G1 X149.924 Y130.658 E44.63318
G1 X146.992 Y135.135 E44.81118
G1 X144.308 Y139.787 E44.98981
G1 X141.901 Y144.565 E45.16775
G1 X139.743 Y149.531 E45.34785
G1 X138.789 Y152.001 E45.43591
G1 X137.499 Y155.703 E45.5663
G1 X137.25 Y156.297 E45.58773
G1 X136.928 Y156.856 E45.60918
G1 X136.541 Y157.371 E45.63061
G1 X136.092 Y157.834 E45.65206
G1 X135.59 Y158.238 E45.67349
G1 X135.041 Y158.577 E45.69495
G1 X134.455 Y158.845 E45.71638
G1 X133.84 Y159.038 E45.73782
G1 X133.206 Y159.154 E45.75926
G1 X132.588 Y159.191 E45.77985
G1 X87.401 Y159.186 E47.28278
G1 X86.758 Y159.146 E47.3042
G1 X86.124 Y159.027 E47.32566
G1 X85.511 Y158.83 E47.34707
G1 X84.926 Y158.559 E47.36852
G1 X84.379 Y158.217 E47.38998
G1 X83.879 Y157.81 E47.41142
G1 X83.399 Y157.305 E47.43459
G1 X81.435 Y154.937 E47.53692
G1 X77.791 Y150.913 E47.71748
G1 X75.96 Y149.057 E47.80419
G1 X72 Y145.369 E47.98417
G1 X67.894 Y141.957 E48.16174
G1 X63.561 Y138.754 E48.34095
G1 X59.093 Y135.826 E48.51863
G1 X54.438 Y133.139 E48.6974
G1 X49.663 Y130.731 E48.87526
G1 X44.753 Y128.594 E49.05337
G1 X39.704 Y126.729 E49.23239
G1 X33.897 Y124.964 E49.43426
G1 X33.293 Y124.739 E49.45569
G1 X32.721 Y124.441 E49.47714
G1 X32.191 Y124.074 E49.49859
G1 X31.711 Y123.644 E49.52002
G1 X31.287 Y123.159 E49.54145
G1 X30.926 Y122.624 E49.56291
G1 X30.635 Y122.049 E49.58435
G1 X30.416 Y121.443 E49.60578
G1 X30.275 Y120.814 E49.62722
G1 X30.209 Y119.986 E49.65485
G1 X30.22 Y100.002 E50.31952
G1 X30.26 Y99.359 E50.34094
G1 X30.38 Y98.725 E50.3624
G1 X30.577 Y98.111 E50.38385
G1 X30.849 Y97.527 E50.40528
G1 X31.19 Y96.98 E50.42672
G1 X31.597 Y96.48 E50.44816
G1 X32.063 Y96.034 E50.46962
G1 X32.58 Y95.649 E50.49106
G1 X33.141 Y95.331 E50.5125
G1 X34.007 Y95.001 E50.54333
M204 S5000
M205 X30 Y30
G1 F1800 E44.54333
G1 F300 Z1.2
G0 F3600 X36.625 Y101.456 Z1.2
M204 S500
M205 X20 Y20
;TYPE:WALL-INNER
G1 F300 Z0.2
G1 F1800 E50.54333
G1 X36.386 Y101.803 E50.55734
G1 X36.256 Y101.993 E50.565
G1 X36.024 Y102.602 E50.58667
G1 X36 Y102.801 E50.59334
G1 X36 Y102.602 E50.59354
G1 X36 Y101.993 E50.6004
G1 X36 Y101.762 E50.60677
G1 X36 Y100.6 E50.64542
G1 X37.126 Y100.6 E50.68287
G1 X37.69 Y100.6 E50.70162
G1 X38.182 Y100.6 E50.71799
G1 X37.69 Y100.721 E50.72083
G1 X37.191 Y100.983 E50.73323
G1 X37.114 Y101.024 E50.73613
G1 X36.625 Y101.456 E50.75783
M204 S5000
M205 X30 Y30
G0 F3600 X36.551 Y101.39
G0 X38.369 Y100.926
G0 X38.931 Y100.926
G0 X39.481 Y101.061
G0 X39.763 Y101.209
G0 X47.734 Y106.498
G0 X47.79 Y106.58
M204 S500
M205 X20 Y20
G1 F1800 X47.04 Y107.245 E50.79117
G1 X46.472 Y108.069 E50.82446
G1 X46.116 Y109.006 E50.8578
G1 X45.996 Y110 E50.8911
G1 X46.116 Y110.994 E50.9244
G1 X46.472 Y111.931 E50.95773
G1 X47.04 Y112.755 E50.99102
G1 X47.79 Y113.42 E51.02436
G1 X48.677 Y113.884 E51.05765
G1 X49.649 Y114.124 E51.09095
G1 X50.651 Y114.124 E51.12428
G1 X51.623 Y113.884 E51.15758
G1 X52.51 Y113.42 E51.19088
G1 X53.26 Y112.755 E51.22421
G1 X53.828 Y111.931 E51.2575
