;FLAVOR:Marlin
;TIME:1831
;Filament used: 0.769119m
;Layer height: 0.2
;Generated with Cura_SteamEngine 3.4.1
M190 S60
M104 S200
M109 S200
M82 ;absolute extrusion mode
G28 ;Home
G1 Z15.0 F6000 ;Move the platform down 15mm
;Prime the extruder
G92 E0
G1 F200 E3
G92 E0
G92 E0
G1 F1200 E-6
;LAYER_COUNT:168
;LAYER:0
M107
M204 S5000
M205 X30 Y30
G0 F7200 X79.338 Y97.864 Z0.2
M204 S500
M205 X20 Y20
;TYPE:SKIRT
G1 F1200 E0
G1 X79.921 Y97.45 E0.02378
G1 X80.547 Y97.104 E0.04757
G1 X80.899 Y96.947 E0.06039
G1 X83.948 Y95.696 E0.17001
G1 X84.623 Y95.462 E0.19377
G1 X85.321 Y95.305 E0.21756
G1 X86.032 Y95.226 E0.24136
G1 X86.473 Y95.218 E0.25603
G1 X89.88 Y95.269 E0.36936
G1 X90.593 Y95.319 E0.39313
G1 X91.297 Y95.449 E0.41694
G1 X92.266 Y95.769 E0.45088
G1 X95.27 Y97.033 E0.55928
G1 X95.913 Y97.347 E0.58308
G1 X96.517 Y97.73 E0.60687
G1 X97.074 Y98.179 E0.63066
G1 X97.363 Y98.456 E0.64398
G1 X99.707 Y100.852 E0.75546
G1 X100.178 Y101.391 E0.77927
G1 X100.586 Y101.978 E0.80304
G1 X101.053 Y102.899 E0.83739
G1 X102.304 Y105.948 E0.947
G1 X102.538 Y106.623 E0.97077
G1 X102.695 Y107.321 E0.99456
G1 X102.774 Y108.032 E1.01835
G1 X102.783 Y108.391 E1.0303
G1 X102.776 Y111.669 E1.13933
G1 X102.734 Y112.383 E1.16311
G1 X102.614 Y113.088 E1.1869
G1 X102.415 Y113.775 E1.21069
G1 X102.286 Y114.11 E1.22263
G1 X100.989 Y117.232 E1.33507
G1 X100.678 Y117.877 E1.35889
G1 X100.298 Y118.482 E1.38265
G1 X99.852 Y119.041 E1.40643
G1 X99.555 Y119.352 E1.42074
G1 X97.148 Y121.707 E1.53274
G1 X96.609 Y122.177 E1.55653
G1 X96.022 Y122.585 E1.5803
G1 X95.101 Y123.053 E1.61466
G1 X92.052 Y124.304 E1.72428
G1 X91.377 Y124.538 E1.74804
G1 X90.679 Y124.695 E1.77183
G1 X89.615 Y124.783 E1.80734
G1 X86.347 Y124.779 E1.91604
G1 X85.633 Y124.738 E1.93982
G1 X84.928 Y124.618 E1.96361
G1 X83.919 Y124.297 E1.99883
G1 X80.89 Y123.05 E2.10778
G1 X80.244 Y122.741 E2.13159
G1 X79.638 Y122.362 E2.15537
G1 X79.077 Y121.918 E2.17916
G1 X78.799 Y121.656 E2.19187
G1 X76.341 Y119.196 E2.30753
G1 X75.864 Y118.662 E2.33135
G1 X75.45 Y118.079 E2.35513
G1 X75.104 Y117.453 E2.37892
G1 X74.947 Y117.101 E2.39174
G1 X73.696 Y114.052 E2.50135
G1 X73.462 Y113.377 E2.52511
G1 X73.305 Y112.679 E2.54891
G1 X73.217 Y111.617 E2.58435
G1 X73.22 Y108.353 E2.69291
G1 X73.261 Y107.639 E2.7167
G1 X73.381 Y106.934 E2.74048
G1 X73.701 Y105.924 E2.77572
G1 X74.949 Y102.891 E2.88481
G1 X75.258 Y102.245 E2.90862
G1 X75.637 Y101.639 E2.9324
G1 X76.081 Y101.078 E2.95619
G1 X76.344 Y100.799 E2.96895
G1 X78.804 Y98.341 E3.08461
G1 X79.338 Y97.864 E3.10842
M204 S5000
M205 X30 Y30
G0 F7200 X79.604 Y98.163
M204 S500
M205 X20 Y20
G1 F1200 X80.171 Y97.765 E3.13147
G1 X81.05 Y97.317 E3.16428
G1 X84.099 Y96.066 E3.27389
G1 X84.754 Y95.841 E3.29693
G1 X85.431 Y95.692 E3.31998
G1 X86.12 Y95.623 E3.34302
G1 X86.467 Y95.618 E3.35456
G1 X89.874 Y95.669 E3.46789
G1 X90.565 Y95.719 E3.49093
G1 X91.245 Y95.849 E3.51396
G1 X92.111 Y96.138 E3.54432
G1 X95.115 Y97.402 E3.65272
G1 X95.737 Y97.707 E3.67576
G1 X96.319 Y98.081 E3.69877
G1 X97.077 Y98.736 E3.73209
G1 X99.421 Y101.132 E3.84357
G1 X99.876 Y101.654 E3.86661
G1 X100.268 Y102.225 E3.88964
G1 X100.683 Y103.05 E3.92036
G1 X101.934 Y106.099 E4.02997
G1 X102.159 Y106.754 E4.05301
G1 X102.308 Y107.431 E4.07606
G1 X102.383 Y108.39 E4.10806
G1 X102.376 Y111.668 E4.21708
G1 X102.335 Y112.359 E4.24011
G1 X102.214 Y113.041 E4.26315
G1 X101.917 Y113.957 E4.29517
G1 X100.62 Y117.079 E4.40762
G1 X100.318 Y117.702 E4.43064
G1 X99.946 Y118.286 E4.45367
G1 X99.275 Y119.066 E4.48789
G1 X96.868 Y121.421 E4.5999
G1 X96.346 Y121.876 E4.62293
G1 X95.775 Y122.267 E4.64594
G1 X94.95 Y122.683 E4.67667
G1 X91.901 Y123.934 E4.78629
G1 X91.246 Y124.159 E4.80932
G1 X90.569 Y124.308 E4.83238
G1 X89.616 Y124.383 E4.86417
G1 X86.348 Y124.379 E4.97287
G1 X85.656 Y124.338 E4.99593
G1 X84.974 Y124.218 E5.01896
G1 X84.071 Y123.927 E5.05051
G1 X81.042 Y122.68 E5.15946
G1 X80.418 Y122.38 E5.18249
G1 X79.832 Y122.01 E5.20554
G1 X79.082 Y121.373 E5.23827
G1 X76.624 Y118.913 E5.35393
G1 X76.163 Y118.396 E5.37697
G1 X75.765 Y117.829 E5.40001
G1 X75.317 Y116.95 E5.43282
G1 X74.066 Y113.901 E5.54244
G1 X73.841 Y113.246 E5.56547
G1 X73.692 Y112.569 E5.58853
G1 X73.617 Y111.617 E5.62029
G1 X73.62 Y108.353 E5.72885
G1 X73.661 Y107.662 E5.75188
G1 X73.781 Y106.98 E5.77491
G1 X74.071 Y106.076 E5.80648
G1 X75.319 Y103.043 E5.91557
G1 X75.619 Y102.419 E5.9386
G1 X75.989 Y101.833 E5.96165
G1 X76.627 Y101.082 E5.99442
G1 X79.087 Y98.624 E6.11009
G1 X79.604 Y98.163 E6.13312
M204 S5000
M205 X30 Y30
G0 F7200 X79.87 Y98.463
M204 S500
M205 X20 Y20
G1 F1200 X80.421 Y98.082 E6.15541
G1 X81.202 Y97.687 E6.18451
G1 X84.251 Y96.436 E6.29413
G1 X84.884 Y96.22 E6.31637
G1 X85.539 Y96.08 E6.33865
G1 X86.461 Y96.018 E6.36939
G1 X89.868 Y96.069 E6.48272
G1 X90.535 Y96.119 E6.50496
G1 X91.191 Y96.248 E6.5272
G1 X91.956 Y96.506 E6.55405
G1 X94.96 Y97.77 E6.66245
G1 X95.56 Y98.066 E6.6847
G1 X96.12 Y98.431 E6.70694
G1 X96.791 Y99.016 E6.73654
G1 X99.135 Y101.412 E6.84803
G1 X99.573 Y101.917 E6.87026
G1 X99.949 Y102.471 E6.89253
G1 X100.313 Y103.202 E6.91969
G1 X101.564 Y106.251 E7.02931
G1 X101.78 Y106.884 E7.05155
G1 X101.92 Y107.539 E7.07383
G1 X101.983 Y108.389 E7.10218
G1 X101.976 Y111.667 E7.21121
G1 X101.935 Y112.335 E7.23346
G1 X101.814 Y112.993 E7.25572
G1 X101.547 Y113.803 E7.28408
G1 X100.25 Y116.925 E7.39653
G1 X99.957 Y117.527 E7.41879
G1 X99.595 Y118.089 E7.44103
G1 X98.995 Y118.78 E7.47147
G1 X96.588 Y121.135 E7.58347
G1 X96.083 Y121.573 E7.6057
G1 X95.529 Y121.948 E7.62795
G1 X94.798 Y122.313 E7.65513
G1 X91.749 Y123.564 E7.76474
G1 X91.116 Y123.78 E7.78699
G1 X90.461 Y123.92 E7.80926
G1 X89.616 Y123.983 E7.83745
G1 X86.348 Y123.979 E7.94614
G1 X85.68 Y123.938 E7.9684
G1 X85.022 Y123.818 E7.99065
G1 X84.223 Y123.557 E8.0186
G1 X81.194 Y122.31 E8.12755
G1 X80.592 Y122.019 E8.14979
G1 X80.029 Y121.658 E8.17204
G1 X79.365 Y121.09 E8.2011
G1 X76.907 Y118.63 E8.31676
G1 X76.463 Y118.13 E8.339
G1 X76.082 Y117.579 E8.36128
G1 X75.687 Y116.798 E8.39039
G1 X74.436 Y113.749 E8.50001
G1 X74.22 Y113.116 E8.52225
G1 X74.08 Y112.461 E8.54453
G1 X74.017 Y111.618 E8.57265
G1 X74.02 Y108.354 E8.68121
G1 X74.061 Y107.686 E8.70347
G1 X74.181 Y107.028 E8.72571
G1 X74.441 Y106.228 E8.75369
G1 X75.689 Y103.195 E8.86278
G1 X75.98 Y102.593 E8.88502
G1 X76.341 Y102.029 E8.90729
G1 X76.91 Y101.365 E8.93637
G1 X79.37 Y98.907 E9.05204
G1 X79.87 Y98.463 E9.07428
M204 S5000
M205 X30 Y30
G0 F7200 X80.136 Y98.763
M204 S500
M205 X20 Y20
G1 F1200 X80.668 Y98.4 E9.0957
G1 X81.354 Y98.057 E9.12121
G1 X84.403 Y96.806 E9.23082
G1 X85.014 Y96.599 E9.25228
G1 X85.645 Y96.469 E9.27371
G1 X86.455 Y96.418 E9.3007
G1 X89.862 Y96.469 E9.41403
G1 X90.505 Y96.518 E9.43548
G1 X91.136 Y96.647 E9.4569
G1 X91.801 Y96.875 E9.48028
G1 X94.805 Y98.139 E9.58868
G1 X95.382 Y98.425 E9.6101
G1 X95.92 Y98.781 E9.63155
G1 X96.505 Y99.296 E9.65748
G1 X98.849 Y101.692 E9.76896
G1 X99.27 Y102.179 E9.79037
G1 X99.628 Y102.716 E9.81184
G1 X99.943 Y103.354 E9.8355
G1 X101.194 Y106.403 E9.94512
G1 X101.401 Y107.014 E9.96658
G1 X101.531 Y107.645 E9.988
G1 X101.583 Y108.388 E10.01278
G1 X101.576 Y111.666 E10.1218
G1 X101.535 Y112.309 E10.14323
G1 X101.414 Y112.943 E10.1647
G1 X101.178 Y113.65 E10.18949
G1 X99.881 Y116.772 E10.30193
G1 X99.597 Y117.351 E10.32338
G1 X99.244 Y117.89 E10.34481
G1 X98.716 Y118.494 E10.37149
G1 X96.309 Y120.849 E10.4835
G1 X95.821 Y121.27 E10.50493
G1 X95.284 Y121.628 E10.5264
G1 X94.646 Y121.943 E10.55006
G1 X91.597 Y123.194 E10.65968
G1 X90.986 Y123.401 E10.68113
G1 X90.355 Y123.531 E10.70256
G1 X89.617 Y123.583 E10.72717
G1 X86.349 Y123.579 E10.83586
G1 X85.705 Y123.538 E10.85733
G1 X85.072 Y123.418 E10.87876
G1 X84.375 Y123.187 E10.90318
G1 X81.346 Y121.94 E11.01213
G1 X80.767 Y121.659 E11.03353
G1 X80.226 Y121.307 E11.055
G1 X79.648 Y120.807 E11.08042
G1 X77.19 Y118.347 E11.19608
G1 X76.763 Y117.864 E11.21752
G1 X76.4 Y117.332 E11.23895
G1 X76.057 Y116.646 E11.26445
G1 X74.806 Y113.597 E11.37407
G1 X74.599 Y112.986 E11.39553
G1 X74.469 Y112.355 E11.41695
G1 X74.417 Y111.618 E11.44153
G1 X74.42 Y108.354 E11.55009
G1 X74.461 Y107.711 E11.57152
G1 X74.58 Y107.077 E11.59297
G1 X74.811 Y106.38 E11.6174
G1 X76.059 Y103.347 E11.72648
G1 X76.341 Y102.767 E11.74793
G1 X76.692 Y102.227 E11.76935
G1 X77.193 Y101.648 E11.79482
G1 X79.653 Y99.19 E11.91048
G1 X80.136 Y98.763 E11.93192
M204 S5000
M205 X30 Y30
G1 F1200 E5.93192
G1 F300 Z1.2
G0 F7200 X91.444 Y104.621 Z1.2
M204 S500
M205 X20 Y20
;TYPE:WALL-INNER
G1 F300 Z0.2
G1 F1200 E11.93192
G1 X91.693 Y104.144 E11.94982
G1 X91.711 Y104.111 E11.95107
G1 X91.74 Y104.076 E11.95258
G1 X91.875 Y103.919 E11.95947
G1 X91.955 Y103.854 E11.9629
G1 X92.062 Y103.767 E11.96748
G1 X92.125 Y103.715 E11.9702
G1 X92.215 Y103.657 E11.97376
G1 X92.253 Y103.632 E11.97527
G1 X92.245 Y103.702 E11.97548
G1 X92.237 Y103.74
G1 X92.193 Y103.927 E11.97926
G1 X92.164 Y104.015 E11.98081
G1 X92.141 Y104.083 E11.98219
G1 X92.041 Y104.28 E11.98844
G1 X92.022 Y104.316 E11.98962
G1 X91.997 Y104.346 E11.99081
G1 X91.653 Y104.761 E12.00462
G1 X92.263 Y105.442 E12.03503
G1 X92.558 Y105.737 E12.04891
G1 X93.239 Y106.347 E12.07931
G1 X93.652 Y106.005 E12.09715
G1 X93.686 Y105.977 E12.09861
G1 X93.719 Y105.96 E12.09985
G1 X93.906 Y105.864 E12.10684
G1 X94.002 Y105.836 E12.11017
G1 X94.146 Y105.793 E12.11516
G1 X94.208 Y105.774 E12.11732
G1 X94.322 Y105.754 E12.12117
G1 X94.366 Y105.746 E12.12266
G1 X94.332 Y105.808 E12.12278
G1 X94.306 Y105.844
G1 X94.204 Y105.985 E12.12613
G1 X94.135 Y106.064 E12.12789
G1 X94.086 Y106.12 E12.12931
G1 X93.927 Y106.257 E12.1352
G1 X93.889 Y106.289 E12.13665
G1 X93.858 Y106.305 E12.13772
G1 X93.379 Y106.556 E12.15156
G1 X93.682 Y107.422 E12.18207
G1 X93.842 Y107.806 E12.19591
G1 X94.238 Y108.63 E12.22632
G1 X94.75 Y108.472 E12.24414
G1 X94.788 Y108.46 E12.24546
G1 X94.83 Y108.457 E12.24686
G1 X95.04 Y108.44 E12.25387
G1 X95.138 Y108.449 E12.25715
G1 X95.287 Y108.464 E12.26213
G1 X95.356 Y108.471 E12.26443
G1 X95.465 Y108.495 E12.26814
G1 X95.51 Y108.505 E12.26968
G1 X95.453 Y108.55 E12.26989
G1 X95.419 Y108.571
G1 X95.267 Y108.665 E12.27337
G1 X95.176 Y108.711 E12.27507
G1 X95.11 Y108.744 E12.27646
G1 X94.901 Y108.811 E12.28262
G1 X94.859 Y108.825 E12.28391
G1 X94.824 Y108.828 E12.28498
G1 X94.288 Y108.879 E12.2988
G1 X94.237 Y109.792 E12.32921
G1 X94.237 Y110.208 E12.34305
G1 X94.288 Y111.121 E12.37346
G1 X94.823 Y111.171 E12.39134
G1 X94.859 Y111.175 E12.39254
G1 X94.899 Y111.188 E12.39394
G1 X95.102 Y111.253 E12.40103
G1 X95.192 Y111.301 E12.40442
G1 X95.308 Y111.364 E12.40881
G1 X95.384 Y111.405 E12.41168
G1 X95.473 Y111.468 E12.41531
G1 X95.509 Y111.493 E12.41677
G1 X95.442 Y111.512 E12.41692
G1 X95.404 Y111.518
G1 X95.208 Y111.551 E12.42084
G1 X95.124 Y111.556 E12.42223
G1 X95.053 Y111.562 E12.42363
G1 X94.827 Y111.544 E12.43003
G1 X94.788 Y111.54 E12.43126
G1 X94.75 Y111.529 E12.43247
G1 X94.238 Y111.37 E12.44626
G1 X93.842 Y112.194 E12.47667
G1 X93.682 Y112.578 E12.49051
G1 X93.379 Y113.444 E12.52102
G1 X93.856 Y113.693 E12.53892
G1 X93.889 Y113.711 E12.54017
G1 X93.924 Y113.74 E12.54168
G1 X94.081 Y113.875 E12.54857
G1 X94.146 Y113.955 E12.552
G1 X94.233 Y114.062 E12.55658
G1 X94.285 Y114.125 E12.5593
G1 X94.343 Y114.215 E12.56286
G1 X94.368 Y114.253 E12.56437
G1 X94.298 Y114.245 E12.56458
G1 X94.26 Y114.237
G1 X94.073 Y114.193 E12.56836
G1 X93.985 Y114.164 E12.56991
G1 X93.917 Y114.141 E12.57129
G1 X93.72 Y114.041 E12.57753
G1 X93.684 Y114.022 E12.57872
G1 X93.654 Y113.997 E12.57991
G1 X93.239 Y113.653 E12.59372
G1 X92.558 Y114.263 E12.62413
G1 X92.263 Y114.558 E12.638
G1 X91.653 Y115.239 E12.66841
G1 X91.993 Y115.65 E12.68615
G1 X92.023 Y115.686 E12.68771
G1 X92.038 Y115.716 E12.68883
G1 X92.136 Y115.906 E12.69594
G1 X92.164 Y116.002 E12.69926
G1 X92.207 Y116.146 E12.70426
G1 X92.226 Y116.208 E12.70642
G1 X92.246 Y116.322 E12.71027
G1 X92.254 Y116.366 E12.71176
G1 X92.192 Y116.332 E12.71188
G1 X92.156 Y116.306
G1 X92.015 Y116.204 E12.71523
G1 X91.936 Y116.135 E12.71699
G1 X91.88 Y116.086 E12.71841
G1 X91.743 Y115.926 E12.72431
G1 X91.709 Y115.886 E12.72585
G1 X91.695 Y115.859 E12.72678
G1 X91.444 Y115.379 E12.74066
G1 X90.578 Y115.682 E12.77118
G1 X90.194 Y115.842 E12.78501
G1 X89.37 Y116.238 E12.81542
G1 X89.529 Y116.75 E12.83325
G1 X89.54 Y116.786 E12.8345
G1 X89.543 Y116.83 E12.83597
G1 X89.56 Y117.04 E12.84298
G1 X89.551 Y117.138 E12.84625
G1 X89.536 Y117.286 E12.8512
G1 X89.529 Y117.358 E12.8536
G1 X89.505 Y117.466 E12.85728
G1 X89.495 Y117.51 E12.85878
G1 X89.45 Y117.454 E12.85898
G1 X89.429 Y117.42
G1 X89.334 Y117.266 E12.86254
G1 X89.289 Y117.176 E12.86421
G1 X89.256 Y117.11 E12.86562
G1 X89.188 Y116.9 E12.87182
G1 X89.175 Y116.859 E12.87307
G1 X89.172 Y116.822 E12.8742
G1 X89.121 Y116.288 E12.88798
G1 X88.208 Y116.237 E12.91839
G1 X87.792 Y116.237 E12.93223
G1 X86.879 Y116.288 E12.96264
G1 X86.829 Y116.821 E12.98045
G1 X86.825 Y116.859 E12.98172
G1 X86.813 Y116.899 E12.98311
G1 X86.747 Y117.102 E12.99021
G1 X86.7 Y117.191 E12.99356
G1 X86.636 Y117.309 E12.99802
G1 X86.595 Y117.384 E13.00087
G1 X86.534 Y117.471 E13.0044
G1 X86.507 Y117.509 E13.00595
G1 X86.487 Y117.437 E13.00672
G1 X86.482 Y117.404
G1 X86.449 Y117.209 E13.01063
G1 X86.444 Y117.123 E13.01206
G1 X86.438 Y117.051 E13.01349
G1 X86.456 Y116.827 E13.01985
G1 X86.46 Y116.786 E13.02113
G1 X86.471 Y116.75 E13.02229
G1 X86.63 Y116.238 E13.03607
G1 X85.806 Y115.842 E13.06648
G1 X85.422 Y115.682 E13.08031
G1 X84.556 Y115.379 E13.11083
G1 X84.307 Y115.856 E13.12873
G1 X84.289 Y115.889 E13.12998
G1 X84.26 Y115.924 E13.13149
G1 X84.125 Y116.081 E13.13838
G1 X84.046 Y116.145 E13.14176
G1 X83.939 Y116.233 E13.14636
G1 X83.875 Y116.285 E13.14911
G1 X83.784 Y116.344 E13.15271
G1 X83.746 Y116.368 E13.15421
G1 X83.754 Y116.298 E13.1544
G1 X83.763 Y116.26
G1 X83.808 Y116.072 E13.15821
G1 X83.836 Y115.987 E13.15967
G1 X83.859 Y115.917 E13.16109
G1 X83.959 Y115.72 E13.16733
G1 X83.978 Y115.684 E13.16852
G1 X84.003 Y115.654 E13.16971
G1 X84.347 Y115.239 E13.18352
G1 X83.737 Y114.558 E13.21393
G1 X83.442 Y114.263 E13.2278
G1 X82.761 Y113.653 E13.25821
G1 X82.348 Y113.995 E13.27605
G1 X82.314 Y114.023 E13.27751
G1 X82.281 Y114.04 E13.27875
G1 X82.094 Y114.136 E13.28574
G1 X81.998 Y114.164 E13.28906
G1 X81.854 Y114.207 E13.29406
G1 X81.792 Y114.226 E13.29622
G1 X81.682 Y114.245 E13.29993
G1 X81.634 Y114.254 E13.30156
G1 X81.671 Y114.188 E13.30185
G1 X81.694 Y114.156
G1 X81.796 Y114.015 E13.3052
G1 X81.865 Y113.936 E13.30696
G1 X81.914 Y113.88 E13.30838
G1 X82.073 Y113.743 E13.31427
G1 X82.111 Y113.711 E13.31572
G1 X82.142 Y113.695 E13.31679
G1 X82.621 Y113.444 E13.33063
G1 X82.318 Y112.578 E13.36115
G1 X82.158 Y112.194 E13.37498
G1 X81.762 Y111.37 E13.40539
G1 X81.25 Y111.528 E13.42321
G1 X81.212 Y111.54 E13.42454
G1 X81.17 Y111.543 E13.42594
G1 X80.96 Y111.56 E13.43294
G1 X80.862 Y111.551 E13.43622
G1 X80.713 Y111.536 E13.4412
G1 X80.644 Y111.529 E13.44351
G1 X80.535 Y111.505 E13.44722
G1 X80.49 Y111.495 E13.44875
G1 X80.547 Y111.45 E13.44896
G1 X80.581 Y111.429
G1 X80.733 Y111.335 E13.45244
G1 X80.824 Y111.289 E13.45414
G1 X80.89 Y111.256 E13.45554
G1 X81.099 Y111.189 E13.4617
G1 X81.141 Y111.175 E13.46298
G1 X81.176 Y111.172 E13.46405
G1 X81.712 Y111.121 E13.47787
G1 X81.763 Y110.208 E13.50829
G1 X81.763 Y109.792 E13.52212
G1 X81.712 Y108.879 E13.55254
G1 X81.177 Y108.829 E13.57041
G1 X81.141 Y108.825 E13.57161
G1 X81.101 Y108.812 E13.57301
G1 X80.898 Y108.747 E13.5801
G1 X80.808 Y108.699 E13.58349
G1 X80.692 Y108.636 E13.58788
G1 X80.616 Y108.595 E13.59076
G1 X80.527 Y108.532 E13.59438
G1 X80.491 Y108.507 E13.59584
G1 X80.558 Y108.488 E13.596
G1 X80.596 Y108.482
G1 X80.792 Y108.449 E13.59992
G1 X80.876 Y108.444 E13.60131
G1 X80.947 Y108.438 E13.6027
G1 X81.173 Y108.456 E13.6091
G1 X81.212 Y108.46 E13.61033
G1 X81.25 Y108.471 E13.61154
G1 X81.762 Y108.63 E13.62533
G1 X82.158 Y107.806 E13.65574
G1 X82.318 Y107.422 E13.66958
G1 X82.621 Y106.556 E13.70009
G1 X82.144 Y106.307 E13.71799
G1 X82.111 Y106.289 E13.71924
G1 X82.076 Y106.26 E13.72075
G1 X81.919 Y106.125 E13.72764
G1 X81.854 Y106.045 E13.73107
G1 X81.767 Y105.938 E13.73565
