;FLAVOR:Marlin
;TIME:2896
;Filament used: 1.79955m
;Layer height: 0.2
;Generated with Cura_SteamEngine 3.4.1
M190 S65
M104 S210
M109 S210
M82 ;absolute extrusion mode
G28 ;Home
G1 Z15.0 F6000 ;Move the platform down 15mm
;Prime the extruder
G92 E0
G1 F200 E3
G92 E0
G92 E0
G1 F2400 E-4.5
;LAYER_COUNT:51
;LAYER:0
M107
M204 S5000
M205 X30 Y30
G0 F7200 X63.585 Y93.602 Z0.14
M204 S500
M205 X20 Y20
;TYPE:SKIRT
G1 F2400 E0
G1 F900 X64.21 Y93.253 E0.0175
G1 X64.87 Y92.977 E0.03499
G1 X65.556 Y92.776 E0.05246
G1 X66.261 Y92.653 E0.06996
G1 X67.009 Y92.609 E0.08828
G1 X152.991 Y92.61 E2.19021
G1 X153.705 Y92.65 E2.20769
G1 X154.41 Y92.769 E2.22517
G1 X155.098 Y92.967 E2.24267
G1 X155.759 Y93.24 E2.26015
G1 X156.386 Y93.585 E2.27765
G1 X156.97 Y93.997 E2.29512
G1 X157.504 Y94.472 E2.31259
G1 X157.983 Y95.004 E2.33009
G1 X158.398 Y95.586 E2.34757
G1 X158.747 Y96.211 E2.36507
G1 X159.023 Y96.871 E2.38255
G1 X159.224 Y97.557 E2.40003
G1 X159.347 Y98.262 E2.41752
G1 X159.391 Y99.01 E2.43584
G1 X159.391 Y120.991 E2.97319
G1 X159.351 Y121.705 E2.99068
G1 X159.232 Y122.41 E3.00815
G1 X159.034 Y123.098 E3.02566
G1 X158.761 Y123.759 E3.04314
G1 X158.417 Y124.386 E3.06062
G1 X158.004 Y124.97 E3.07811
G1 X157.529 Y125.504 E3.09558
G1 X156.997 Y125.983 E3.11308
G1 X156.415 Y126.398 E3.13055
G1 X155.79 Y126.747 E3.14805
G1 X155.13 Y127.023 E3.16554
G1 X154.444 Y127.224 E3.18302
G1 X153.739 Y127.347 E3.20051
G1 X152.991 Y127.391 E3.21883
G1 X67.009 Y127.391 E5.32076
G1 X66.295 Y127.351 E5.33824
G1 X65.59 Y127.232 E5.35572
G1 X64.902 Y127.034 E5.37322
G1 X64.241 Y126.761 E5.39071
G1 X63.614 Y126.417 E5.40819
G1 X63.03 Y126.004 E5.42568
G1 X62.496 Y125.529 E5.44315
G1 X62.017 Y124.997 E5.46065
G1 X61.602 Y124.415 E5.47812
G1 X61.253 Y123.79 E5.49562
G1 X60.977 Y123.13 E5.51311
G1 X60.776 Y122.444 E5.53058
G1 X60.653 Y121.739 E5.54808
G1 X60.609 Y120.991 E5.5664
G1 X60.609 Y99.009 E6.10377
G1 X60.649 Y98.295 E6.12126
G1 X60.768 Y97.59 E6.13873
G1 X60.966 Y96.902 E6.15624
G1 X61.239 Y96.241 E6.17372
G1 X61.583 Y95.614 E6.1912
G1 X61.996 Y95.03 E6.20869
G1 X62.471 Y94.496 E6.22616
G1 X63.003 Y94.017 E6.24366
G1 X63.585 Y93.602 E6.26113
M204 S5000
M205 X30 Y30
G0 F7200 X63.968 Y93.836
M204 S500
M205 X20 Y20
G1 F900 X64.585 Y93.521 E6.27807
G1 X65.233 Y93.278 E6.29499
G1 X65.906 Y93.111 E6.31194
G1 X66.592 Y93.023 E6.32885
G1 X67.009 Y93.009 E6.33905
G1 X152.991 Y93.01 E8.44098
G1 X153.682 Y93.05 E8.4579
G1 X154.365 Y93.169 E8.47485
G1 X155.028 Y93.367 E8.49176
G1 X155.665 Y93.639 E8.50869
G1 X156.266 Y93.983 E8.52562
G1 X156.824 Y94.394 E8.54257
G1 X157.33 Y94.866 E8.55948
G1 X157.779 Y95.394 E8.57642
G1 X158.164 Y95.97 E8.59336
G1 X158.479 Y96.586 E8.61028
G1 X158.722 Y97.234 E8.62719
G1 X158.889 Y97.907 E8.64414
G1 X158.977 Y98.594 E8.66108
G1 X158.991 Y99.01 E8.67125
G1 X158.991 Y120.991 E9.2086
G1 X158.951 Y121.682 E9.22552
G1 X158.832 Y122.365 E9.24247
G1 X158.634 Y123.028 E9.25939
G1 X158.362 Y123.665 E9.27632
G1 X158.018 Y124.266 E9.29325
G1 X157.607 Y124.824 E9.31019
G1 X157.135 Y125.33 E9.32711
G1 X156.607 Y125.779 E9.34405
G1 X156.032 Y126.164 E9.36097
G1 X155.415 Y126.479 E9.3779
G1 X154.767 Y126.722 E9.39482
G1 X154.094 Y126.889 E9.41177
G1 X153.408 Y126.977 E9.42868
G1 X152.991 Y126.991 E9.43888
G1 X67.009 Y126.991 E11.54081
G1 X66.318 Y126.951 E11.55773
G1 X65.635 Y126.832 E11.57468
G1 X64.972 Y126.634 E11.5916
G1 X64.335 Y126.362 E11.60853
G1 X63.734 Y126.018 E11.62546
G1 X63.176 Y125.607 E11.6424
G1 X62.67 Y125.135 E11.65932
G1 X62.221 Y124.607 E11.67626
G1 X61.836 Y124.032 E11.69318
G1 X61.521 Y123.415 E11.71011
G1 X61.278 Y122.767 E11.72703
G1 X61.111 Y122.094 E11.74398
G1 X61.023 Y121.408 E11.76089
G1 X61.009 Y120.991 E11.77109
G1 X61.009 Y99.009 E12.30846
G1 X61.049 Y98.318 E12.32538
G1 X61.168 Y97.635 E12.34233
G1 X61.366 Y96.972 E12.35925
G1 X61.638 Y96.335 E12.37618
G1 X61.982 Y95.734 E12.39311
G1 X62.393 Y95.176 E12.41005
G1 X62.865 Y94.67 E12.42697
G1 X63.393 Y94.221 E12.44391
G1 X63.968 Y93.836 E12.46083
M204 S5000
M205 X30 Y30
G0 F7200 X63.78 Y94.433
M204 S500
M205 X20 Y20
G1 F900 X64.349 Y94.081 E12.47718
G1 X64.956 Y93.799 E12.49355
G1 X65.592 Y93.591 E12.5099
G1 X66.248 Y93.461 E12.52625
G1 X67.009 Y93.409 E12.5449
G1 X152.991 Y93.41 E14.64683
G1 X153.659 Y93.45 E14.66319
G1 X154.317 Y93.569 E14.67954
G1 X154.957 Y93.766 E14.69591
G1 X155.568 Y94.038 E14.71226
G1 X156.142 Y94.381 E14.7286
G1 X156.672 Y94.79 E14.74497
G1 X157.149 Y95.259 E14.76132
G1 X157.567 Y95.782 E14.77769
G1 X157.919 Y96.35 E14.79403
G1 X158.201 Y96.957 E14.81039
G1 X158.409 Y97.593 E14.82675
G1 X158.539 Y98.249 E14.8431
G1 X158.591 Y99.01 E14.86174
G1 X158.591 Y120.991 E15.39909
G1 X158.551 Y121.659 E15.41545
G1 X158.432 Y122.317 E15.4318
G1 X158.235 Y122.957 E15.44817
G1 X157.963 Y123.568 E15.46452
G1 X157.62 Y124.142 E15.48087
G1 X157.211 Y124.672 E15.49723
G1 X156.742 Y125.149 E15.51359
G1 X156.22 Y125.567 E15.52993
G1 X155.651 Y125.919 E15.54629
G1 X155.044 Y126.201 E15.56265
G1 X154.408 Y126.409 E15.57901
G1 X153.752 Y126.539 E15.59536
G1 X152.991 Y126.591 E15.61401
G1 X67.009 Y126.591 E17.71594
G1 X66.341 Y126.551 E17.7323
G1 X65.683 Y126.432 E17.74864
G1 X65.043 Y126.235 E17.76501
G1 X64.432 Y125.963 E17.78136
G1 X63.858 Y125.62 E17.79771
G1 X63.328 Y125.211 E17.81408
G1 X62.851 Y124.742 E17.83043
G1 X62.433 Y124.22 E17.84678
G1 X62.081 Y123.651 E17.86313
G1 X61.799 Y123.044 E17.8795
G1 X61.591 Y122.408 E17.89585
G1 X61.461 Y121.752 E17.9122
G1 X61.409 Y120.991 E17.93085
G1 X61.409 Y99.009 E18.46823
G1 X61.449 Y98.341 E18.48459
G1 X61.568 Y97.683 E18.50093
G1 X61.765 Y97.043 E18.5173
G1 X62.037 Y96.432 E18.53365
G1 X62.38 Y95.858 E18.55
G1 X62.789 Y95.328 E18.56636
G1 X63.258 Y94.851 E18.58272
G1 X63.78 Y94.433 E18.59907
M204 S5000
M205 X30 Y30
G0 F7200 X64.166 Y94.655
M204 S500
M205 X20 Y20
G1 F900 X64.727 Y94.336 E18.61484
G1 X65.323 Y94.09 E18.6306
G1 X65.944 Y93.919 E18.64635
G1 X66.582 Y93.827 E18.66211
G1 X67.009 Y93.809 E18.67256
G1 X152.991 Y93.81 E20.77449
G1 X153.634 Y93.85 E20.79024
G1 X154.268 Y93.969 E20.80601
G1 X154.882 Y94.166 E20.82177
G1 X155.467 Y94.437 E20.83753
G1 X156.014 Y94.779 E20.8533
G1 X156.514 Y95.185 E20.86905
G1 X156.96 Y95.651 E20.88482
G1 X157.345 Y96.167 E20.90056
G1 X157.664 Y96.728 E20.91633
G1 X157.91 Y97.324 E20.93209
G1 X158.081 Y97.945 E20.94784
G1 X158.173 Y98.583 E20.9636
G1 X158.191 Y99.01 E20.97405
G1 X158.191 Y120.991 E21.5114
G1 X158.151 Y121.634 E21.52715
G1 X158.032 Y122.268 E21.54292
G1 X157.835 Y122.882 E21.55868
G1 X157.564 Y123.467 E21.57444
G1 X157.222 Y124.014 E21.59021
G1 X156.816 Y124.514 E21.60596
G1 X156.351 Y124.96 E21.62171
G1 X155.834 Y125.345 E21.63747
G1 X155.273 Y125.664 E21.65324
G1 X154.677 Y125.91 E21.66901
G1 X154.056 Y126.081 E21.68475
G1 X153.418 Y126.173 E21.70051
G1 X152.991 Y126.191 E21.71096
G1 X67.009 Y126.191 E23.81289
G1 X66.366 Y126.151 E23.82864
G1 X65.732 Y126.032 E23.84441
G1 X65.118 Y125.835 E23.86017
G1 X64.533 Y125.564 E23.87593
G1 X63.986 Y125.222 E23.8917
G1 X63.486 Y124.816 E23.90745
G1 X63.04 Y124.351 E23.9232
G1 X62.655 Y123.834 E23.93896
G1 X62.336 Y123.273 E23.95474
G1 X62.09 Y122.677 E23.9705
G1 X61.919 Y122.056 E23.98624
G1 X61.827 Y121.418 E24.002
G1 X61.809 Y120.991 E24.01245
G1 X61.809 Y99.009 E24.54983
G1 X61.849 Y98.366 E24.56558
G1 X61.968 Y97.732 E24.58134
G1 X62.165 Y97.118 E24.59711
G1 X62.436 Y96.533 E24.61287
G1 X62.778 Y95.986 E24.62864
G1 X63.184 Y95.486 E24.64439
G1 X63.649 Y95.04 E24.66014
G1 X64.166 Y94.655 E24.67589
M204 S5000
M205 X30 Y30
G1 F2400 E20.17589
G0 F7200 X67.614 Y98.335
G0 X67.614 Y99.614
G0 X69.764 Y114.142
G0 X69.861 Y114.166
M204 S500
M205 X20 Y20
;TYPE:WALL-INNER
G1 F2400 E24.67589
G1 F900 X69.797 Y114.693 E24.68887
G1 X69.857 Y115.219 E24.70181
G1 X70.045 Y115.718 E24.71485
G1 X70.346 Y116.156 E24.72784
G1 X70.743 Y116.51 E24.74085
G1 X71.214 Y116.757 E24.75385
G1 X71.727 Y116.886 E24.76678
G1 X72.257 Y116.888 E24.77973
G1 X72.773 Y116.765 E24.7927
G1 X73.247 Y116.518 E24.80577
G1 X73.645 Y116.167 E24.81874
G1 X73.948 Y115.731 E24.83172
G1 X74.139 Y115.234 E24.84474
G1 X74.203 Y114.707 E24.85771
G1 X74.143 Y114.181 E24.87066
G1 X73.955 Y113.682 E24.88369
G1 X73.654 Y113.244 E24.89668
G1 X73.257 Y112.89 E24.90969
G1 X72.786 Y112.643 E24.92269
G1 X72.273 Y112.514 E24.93562
G1 X71.743 Y112.512 E24.94858
G1 X71.227 Y112.635 E24.96154
G1 X70.753 Y112.882 E24.97461
G1 X70.355 Y113.233 E24.98758
G1 X70.052 Y113.669 E25.00056
G1 X69.861 Y114.166 E25.01358
M204 S5000
M205 X30 Y30
G0 F7200 X70.252 Y114.263
M204 S500
M205 X20 Y20
;TYPE:WALL-OUTER
G1 F900 X70.2 Y114.694 E25.02419
G1 X70.249 Y115.125 E25.0348
G1 X70.402 Y115.532 E25.04543
G1 X70.648 Y115.89 E25.05604
G1 X70.972 Y116.179 E25.06666
G1 X71.357 Y116.381 E25.07729
G1 X71.777 Y116.486 E25.08787
G1 X72.211 Y116.488 E25.09848
G1 X72.632 Y116.387 E25.10906
G1 X73.019 Y116.186 E25.11972
G1 X73.344 Y115.899 E25.13032
G1 X73.592 Y115.542 E25.14095
G1 X73.748 Y115.137 E25.15156
G1 X73.8 Y114.706 E25.16217
G1 X73.751 Y114.275 E25.17278
G1 X73.598 Y113.868 E25.18341
G1 X73.352 Y113.51 E25.19403
G1 X73.028 Y113.221 E25.20464
G1 X72.643 Y113.019 E25.21527
G1 X72.223 Y112.914 E25.22585
G1 X71.789 Y112.912 E25.23646
G1 X71.368 Y113.013 E25.24704
G1 X70.981 Y113.214 E25.25771
G1 X70.656 Y113.501 E25.2683
G1 X70.408 Y113.858 E25.27893
G1 X70.252 Y114.263 E25.28954
M204 S5000
M205 X30 Y30
G0 F7200 X70.229 Y114.461
G0 X69.793 Y114.408
G0 X69.733 Y114.4
G0 X69.764 Y104.742
G0 X69.861 Y104.766
M204 S500
M205 X20 Y20
;TYPE:WALL-INNER
G1 F900 X69.797 Y105.293 E25.30252
G1 X69.857 Y105.819 E25.31546
G1 X70.045 Y106.318 E25.3285
G1 X70.346 Y106.756 E25.34149
G1 X70.743 Y107.11 E25.35449
G1 X71.214 Y107.357 E25.36749
G1 X71.727 Y107.486 E25.38042
G1 X72.257 Y107.488 E25.39338
G1 X72.773 Y107.365 E25.40635
G1 X73.247 Y107.118 E25.41941
G1 X73.645 Y106.767 E25.43239
G1 X73.948 Y106.331 E25.44537
G1 X74.139 Y105.834 E25.45838
G1 X74.203 Y105.307 E25.47136
G1 X74.143 Y104.781 E25.4843
G1 X73.955 Y104.282 E25.49734
G1 X73.654 Y103.844 E25.51033
G1 X73.257 Y103.49 E25.52333
G1 X72.786 Y103.243 E25.53634
G1 X72.273 Y103.114 E25.54927
G1 X71.743 Y103.112 E25.56222
G1 X71.227 Y103.235 E25.57519
G1 X70.753 Y103.482 E25.58826
G1 X70.355 Y103.833 E25.60123
G1 X70.052 Y104.269 E25.61421
G1 X69.861 Y104.766 E25.62723
M204 S5000
M205 X30 Y30
G0 F7200 X70.252 Y104.863
M204 S500
M205 X20 Y20
;TYPE:WALL-OUTER
G1 F900 X70.2 Y105.294 E25.63784
G1 X70.249 Y105.725 E25.64844
G1 X70.402 Y106.132 E25.65907
G1 X70.648 Y106.49 E25.66969
G1 X70.972 Y106.779 E25.6803
G1 X71.357 Y106.981 E25.69093
G1 X71.777 Y107.086 E25.70152
G1 X72.211 Y107.088 E25.71213
G1 X72.632 Y106.987 E25.72271
G1 X73.019 Y106.786 E25.73337
G1 X73.344 Y106.499 E25.74397
G1 X73.592 Y106.142 E25.7546
G1 X73.748 Y105.737 E25.76521
G1 X73.8 Y105.306 E25.77582
G1 X73.751 Y104.875 E25.78642
G1 X73.598 Y104.468 E25.79705
G1 X73.352 Y104.11 E25.80767
G1 X73.028 Y103.821 E25.81829
G1 X72.643 Y103.619 E25.82891
G1 X72.223 Y103.514 E25.8395
G1 X71.789 Y103.512 E25.85011
G1 X71.368 Y103.613 E25.86069
G1 X70.981 Y103.814 E25.87135
G1 X70.656 Y104.101 E25.88195
G1 X70.408 Y104.458 E25.89258
G1 X70.252 Y104.863 E25.90319
M204 S5000
M205 X30 Y30
G0 F7200 X70.229 Y105.061
G0 X69.793 Y105.008
G0 X69.733 Y105
G0 X70.017 Y104.251
G0 X70.326 Y103.807
G0 X70.731 Y103.45
G0 X71.214 Y103.198
G0 X71.638 Y103.098
G0 X87.33 Y103.33
G0 X87.4 Y103.4
M204 S500
M205 X20 Y20
;TYPE:WALL-INNER
G1 F900 X87.4 Y116.6 E26.22588
G1 X136.6 Y116.6 E27.42863
G1 X136.6 Y103.4 E27.75132
G1 X87.4 Y103.4 E28.95407
M204 S5000
M205 X30 Y30
G0 F7200 X87.8 Y103.8
M204 S500
M205 X20 Y20
;TYPE:WALL-OUTER
G1 F900 X87.8 Y116.2 E29.25721
G1 X136.2 Y116.2 E30.4404
G1 X136.2 Y103.8 E30.74353
G1 X87.8 Y103.8 E31.92673
M204 S5000
M205 X30 Y30
G0 F7200 X87.8 Y104
G0 X87.36 Y104
G0 X87.3 Y104
G0 X87.372 Y103.372
G0 X136.628 Y103.372
G0 X152.33 Y120.33
G0 X152.4 Y120.4
M204 S500
M205 X20 Y20
;TYPE:WALL-INNER
G1 F900 X67.6 Y120.4 E33.99977
G1 X67.6 Y99.6 E34.50825
G1 X152.4 Y99.6 E36.58129
G1 X152.4 Y120.4 E37.08977
M204 S5000
M205 X30 Y30
G0 F7200 X152.8 Y120.8
M204 S500
M205 X20 Y20
;TYPE:WALL-OUTER
G1 F900 X67.2 Y120.8 E39.18236
G1 X67.2 Y99.2 E39.7104
G1 X152.8 Y99.2 E41.803
G1 X152.8 Y120.8 E42.33103
M204 S5000
M205 X30 Y30
G0 F7200 X152.6 Y120.8
G0 X152.36 Y120.36
G0 X152.01 Y120.01
M204 S500
M205 X20 Y20
;TYPE:SKIN
G1 F900 X67.99 Y120.01 E44.385
G1 X67.99 Y99.99 E44.87442
G1 X152.01 Y99.99 E46.92839
G1 X152.01 Y120.01 E47.4178
M204 S5000
M205 X30 Y30
G0 F7200 X136.99 Y116.99
M204 S500
M205 X20 Y20
G1 F900 X136.99 Y103.01 E47.75956
G1 X87.01 Y103.01 E48.98138
G1 X87.01 Y116.99 E49.32314
G1 X136.99 Y116.99 E50.54496
M204 S5000
M205 X30 Y30
G0 F7200 X87.372 Y116.628
G0 X74.595 Y114.709
M204 S500
M205 X20 Y20
G1 F900 X74.525 Y114.089 E50.56021
G1 X74.304 Y113.5 E50.57559
G1 X73.949 Y112.985 E50.59088
G1 X73.481 Y112.567 E50.60622
G1 X72.926 Y112.276 E50.62154
G1 X72.322 Y112.124 E50.63676
G1 X71.698 Y112.122 E50.65202
G1 X71.09 Y112.267 E50.6673
G1 X70.531 Y112.558 E50.68271
G1 X70.062 Y112.972 E50.698
G1 X69.705 Y113.485 E50.71328
G1 X69.479 Y114.071 E50.72863
G1 X69.405 Y114.691 E50.7439
G1 X69.475 Y115.311 E50.75915
G1 X69.696 Y115.9 E50.77453
G1 X70.051 Y116.415 E50.78982
G1 X70.519 Y116.833 E50.80516
G1 X71.074 Y117.124 E50.82048
G1 X71.678 Y117.276 E50.8357
G1 X72.302 Y117.278 E50.85096
G1 X72.91 Y117.133 E50.86624
G1 X73.469 Y116.842 E50.88164
G1 X73.938 Y116.428 E50.89694
G1 X74.295 Y115.915 E50.91222
G1 X74.521 Y115.329 E50.92757
G1 X74.595 Y114.709 E50.94283
M204 S5000
M205 X30 Y30
G0 F7200 X74.521 Y105.929
M204 S500
M205 X20 Y20
G1 F900 X74.595 Y105.309 E50.9581
G1 X74.525 Y104.689 E50.97335
G1 X74.304 Y104.1 E50.98873
G1 X73.949 Y103.585 E51.00402
G1 X73.481 Y103.167 E51.01936
G1 X72.926 Y102.876 E51.03468
G1 X72.322 Y102.724 E51.04991
G1 X71.698 Y102.722 E51.06516
G1 X71.09 Y102.867 E51.08044
G1 X70.531 Y103.158 E51.09585
G1 X70.062 Y103.572 E51.11114
G1 X69.705 Y104.085 E51.12642
G1 X69.479 Y104.671 E51.14177
G1 X69.405 Y105.291 E51.15704
G1 X69.475 Y105.911 E51.17229
G1 X69.696 Y106.5 E51.18767
G1 X70.051 Y107.015 E51.20296
G1 X70.519 Y107.433 E51.2183
G1 X71.074 Y107.724 E51.23362
G1 X71.678 Y107.876 E51.24885
G1 X72.302 Y107.878 E51.2641
G1 X72.91 Y107.733 E51.27938
G1 X73.469 Y107.442 E51.29479
G1 X73.938 Y107.028 E51.31008
G1 X74.295 Y106.515 E51.32536
G1 X74.521 Y105.929 E51.34071
M204 S5000
M205 X30 Y30
G0 F7200 X70.017 Y113.651
G0 X69.908 Y113.937
G0 X68.352 Y119.829
M204 S500
M205 X20 Y20
G1 F900 X68.17 Y119.647 E51.347
M204 S5000
M205 X30 Y30
G0 F7200 X68.17 Y119.081
M204 S500
M205 X20 Y20
G1 F900 X68.918 Y119.829 E51.37286
G1 X68.988 Y119.899
M204 S5000
M205 X30 Y30
G0 F7200 X69.483 Y119.829
M204 S500
M205 X20 Y20
G1 F900 X68.17 Y118.516 E51.41826
G1 X68.1 Y118.446
M204 S5000
M205 X30 Y30
G0 F7200 X68.17 Y117.95
M204 S500
M205 X20 Y20
G1 F900 X70.049 Y119.829 E51.48322
G1 X70.119 Y119.899
M204 S5000
M205 X30 Y30
G0 F7200 X70.615 Y119.829
M204 S500
M205 X20 Y20
G1 F900 X68.17 Y117.384 E51.56775
G1 X68.1 Y117.314
M204 S5000
M205 X30 Y30
G0 F7200 X68.17 Y116.818
M204 S500
M205 X20 Y20
G1 F900 X71.18 Y119.829 E51.67183
G1 X71.25 Y119.899
M204 S5000
M205 X30 Y30
G0 F7200 X71.746 Y119.829
M204 S500
M205 X20 Y20
G1 F900 X68.17 Y116.253 E51.79546
G1 X68.1 Y116.183
M204 S5000
M205 X30 Y30
G0 F7200 X68.17 Y115.687
M204 S500
M205 X20 Y20
G1 F900 X72.312 Y119.829 E51.93866
G1 X72.382 Y119.899
M204 S5000
M205 X30 Y30
G0 F7200 X72.877 Y119.829
M204 S500
M205 X20 Y20
G1 F900 X68.17 Y115.121 E52.1014
G1 X68.1 Y115.051
M204 S5000
M205 X30 Y30
G0 F7200 X68.17 Y114.556
M204 S500
M205 X20 Y20
G1 F900 X69.497 Y115.884 E52.1473
G1 X69.567 Y115.954
M204 S5000
M205 X30 Y30
G0 F7200 X69.268 Y115.089
M204 S500
M205 X20 Y20
G1 F900 X68.17 Y113.99 E52.18528
G1 X68.1 Y113.92
M204 S5000
M205 X30 Y30
G0 F7200 X68.17 Y113.424
M204 S500
M205 X20 Y20
G1 F900 X69.246 Y114.501 E52.22249
G1 X69.316 Y114.571
M204 S5000
M205 X30 Y30
G0 F7200 X69.312 Y114.001
M204 S500
M205 X20 Y20
G1 F900 X68.17 Y112.859 E52.26197
G1 X68.1 Y112.789
M204 S5000
M205 X30 Y30
G0 F7200 X68.17 Y112.293
M204 S500
