;FLAVOR:Marlin
;TIME:2409
;Filament used: 2.15761m
;Layer height: 0.3
;Generated with Cura_SteamEngine 3.4.1
M190 S65
M104 S210
M109 S210
M82 ;absolute extrusion mode
G28 ;Home
G1 Z15.0 F6000 ;Move the platform down 15mm
;Prime the extruder
G92 E0
G1 F200 E3
G92 E0
G92 E0
G1 F2400 E-4.5
;LAYER_COUNT:14
;LAYER:0
M107
M204 S5000
M205 X30 Y30
G0 F7200 X72.471 Y75.496 Z0.3
M204 S500
M205 X20 Y20
;TYPE:SKIRT
G1 F2400 E0
G1 F900 X73.003 Y75.017 E0.0375
G1 X73.585 Y74.602 E0.07495
G1 X74.21 Y74.253 E0.11244
G1 X74.87 Y73.977 E0.14992
G1 X75.556 Y73.776 E0.18737
G1 X76.261 Y73.653 E0.22486
G1 X77.009 Y73.609 E0.26411
G1 X142.991 Y73.61 E3.72056
G1 X143.705 Y73.65 E3.75802
G1 X144.41 Y73.769 E3.79547
G1 X145.098 Y73.967 E3.83297
G1 X145.759 Y74.24 E3.87044
G1 X146.386 Y74.585 E3.90793
G1 X146.97 Y74.997 E3.94537
G1 X147.504 Y75.473 E3.98284
G1 X147.983 Y76.004 E4.0203
G1 X148.398 Y76.586 E4.05775
G1 X148.747 Y77.211 E4.09524
G1 X149.023 Y77.871 E4.13272
G1 X149.224 Y78.557 E4.17017
G1 X149.347 Y79.262 E4.20766
G1 X149.391 Y80.01 E4.24691
G1 X149.391 Y139.991 E7.38899
G1 X149.351 Y140.705 E7.42646
G1 X149.232 Y141.41 E7.46391
G1 X149.034 Y142.098 E7.50141
G1 X148.761 Y142.759 E7.53888
G1 X148.417 Y143.386 E7.57634
G1 X148.004 Y143.97 E7.61381
G1 X147.529 Y144.504 E7.65125
G1 X146.997 Y144.983 E7.68875
G1 X146.415 Y145.398 E7.72619
G1 X145.79 Y145.747 E7.76369
G1 X145.13 Y146.023 E7.80117
G1 X144.444 Y146.224 E7.83862
G1 X143.739 Y146.347 E7.8761
G1 X142.991 Y146.391 E7.91536
G1 X77.009 Y146.391 E11.3718
G1 X76.295 Y146.351 E11.40927
G1 X75.59 Y146.232 E11.44672
G1 X74.902 Y146.034 E11.48422
G1 X74.241 Y145.761 E11.52169
G1 X73.614 Y145.417 E11.55915
G1 X73.03 Y145.004 E11.59662
G1 X72.496 Y144.529 E11.63406
G1 X72.017 Y143.997 E11.67156
G1 X71.602 Y143.415 E11.709
G1 X71.253 Y142.79 E11.7465
G1 X70.977 Y142.13 E11.78398
G1 X70.776 Y141.444 E11.82142
G1 X70.653 Y140.739 E11.85891
G1 X70.609 Y139.991 E11.89817
G1 X70.609 Y80.009 E15.04031
G1 X70.649 Y79.295 E15.07777
G1 X70.768 Y78.59 E15.11522
G1 X70.966 Y77.902 E15.15272
G1 X71.239 Y77.241 E15.19019
G1 X71.583 Y76.614 E15.22765
G1 X71.996 Y76.03 E15.26512
G1 X72.471 Y75.496 E15.30256
M204 S5000
M205 X30 Y30
G0 F7200 X72.865 Y75.67
M204 S500
M205 X20 Y20
G1 F900 X73.393 Y75.221 E15.33887
G1 X73.968 Y74.836 E15.37512
G1 X74.585 Y74.521 E15.41141
G1 X75.233 Y74.278 E15.44766
G1 X75.906 Y74.111 E15.48398
G1 X76.592 Y74.023 E15.52021
G1 X77.009 Y74.009 E15.54207
G1 X142.991 Y74.01 E18.99852
G1 X143.682 Y74.05 E19.03478
G1 X144.365 Y74.169 E19.0711
G1 X145.028 Y74.367 E19.10734
G1 X145.665 Y74.639 E19.14363
G1 X146.266 Y74.983 E19.1799
G1 X146.824 Y75.394 E19.21621
G1 X147.33 Y75.866 E19.25245
G1 X147.779 Y76.394 E19.28876
G1 X148.164 Y76.97 E19.32506
G1 X148.479 Y77.586 E19.3613
G1 X148.722 Y78.234 E19.39755
G1 X148.889 Y78.907 E19.43388
G1 X148.977 Y79.594 E19.47016
G1 X148.991 Y80.01 E19.49196
G1 X148.991 Y139.991 E22.63405
G1 X148.951 Y140.682 E22.67031
G1 X148.832 Y141.365 E22.70663
G1 X148.634 Y142.028 E22.74287
G1 X148.362 Y142.665 E22.77916
G1 X148.018 Y143.266 E22.81543
G1 X147.607 Y143.824 E22.85174
G1 X147.135 Y144.33 E22.88799
G1 X146.607 Y144.779 E22.92429
G1 X146.032 Y145.164 E22.96054
G1 X145.415 Y145.479 E22.99683
G1 X144.767 Y145.722 E23.03309
G1 X144.094 Y145.889 E23.06941
G1 X143.408 Y145.977 E23.10564
G1 X142.991 Y145.991 E23.1275
G1 X77.009 Y145.991 E26.58395
G1 X76.318 Y145.951 E26.6202
G1 X75.635 Y145.832 E26.65652
G1 X74.972 Y145.634 E26.69277
G1 X74.335 Y145.362 E26.72905
G1 X73.734 Y145.018 E26.76533
G1 X73.176 Y144.607 E26.80163
G1 X72.67 Y144.135 E26.83788
G1 X72.221 Y143.607 E26.87419
G1 X71.836 Y143.032 E26.91044
G1 X71.521 Y142.415 E26.94673
G1 X71.278 Y141.767 E26.98298
G1 X71.111 Y141.094 E27.01931
G1 X71.023 Y140.408 E27.05554
G1 X71.009 Y139.991 E27.07739
G1 X71.009 Y80.009 E30.21953
G1 X71.049 Y79.318 E30.25579
G1 X71.168 Y78.635 E30.29211
G1 X71.366 Y77.972 E30.32836
G1 X71.638 Y77.335 E30.36464
G1 X71.982 Y76.734 E30.40092
G1 X72.393 Y76.176 E30.43722
G1 X72.865 Y75.67 E30.47347
M204 S5000
M205 X30 Y30
G0 F7200 X73.258 Y75.851
M204 S500
M205 X20 Y20
G1 F900 X73.78 Y75.433 E30.5085
G1 X74.349 Y75.081 E30.54355
G1 X74.956 Y74.799 E30.57861
G1 X75.592 Y74.591 E30.61366
G1 X76.248 Y74.461 E30.6487
G1 X77.009 Y74.409 E30.68865
G1 X142.991 Y74.41 E34.1451
G1 X143.659 Y74.45 E34.18016
G1 X144.317 Y74.569 E34.21519
G1 X144.957 Y74.766 E34.25026
G1 X145.568 Y75.038 E34.2853
G1 X146.142 Y75.381 E34.32033
G1 X146.672 Y75.79 E34.3554
G1 X147.149 Y76.259 E34.39044
G1 X147.567 Y76.782 E34.42551
G1 X147.919 Y77.35 E34.46052
G1 X148.201 Y77.957 E34.49558
G1 X148.409 Y78.593 E34.53063
G1 X148.539 Y79.249 E34.56567
G1 X148.591 Y80.01 E34.60562
G1 X148.591 Y139.991 E37.74771
G1 X148.551 Y140.659 E37.78277
G1 X148.432 Y141.317 E37.81779
G1 X148.235 Y141.957 E37.85287
G1 X147.963 Y142.568 E37.88791
G1 X147.62 Y143.142 E37.92294
G1 X147.211 Y143.672 E37.95801
G1 X146.742 Y144.149 E37.99305
G1 X146.22 Y144.567 E38.02808
G1 X145.651 Y144.919 E38.06313
G1 X145.044 Y145.201 E38.09819
G1 X144.408 Y145.409 E38.13324
G1 X143.752 Y145.539 E38.16828
G1 X142.991 Y145.591 E38.20823
G1 X77.009 Y145.591 E41.66468
G1 X76.341 Y145.551 E41.69974
G1 X75.683 Y145.432 E41.73477
G1 X75.043 Y145.235 E41.76985
G1 X74.432 Y144.963 E41.80488
G1 X73.858 Y144.62 E41.83991
G1 X73.328 Y144.211 E41.87498
G1 X72.851 Y143.742 E41.91002
G1 X72.433 Y143.22 E41.94505
G1 X72.081 Y142.651 E41.9801
G1 X71.799 Y142.044 E42.01516
G1 X71.591 Y141.408 E42.05022
G1 X71.461 Y140.752 E42.08525
G1 X71.409 Y139.991 E42.12521
G1 X71.409 Y80.009 E45.26735
G1 X71.449 Y79.341 E45.3024
G1 X71.568 Y78.683 E45.33743
G1 X71.765 Y78.043 E45.37251
G1 X72.037 Y77.432 E45.40755
G1 X72.38 Y76.858 E45.44257
G1 X72.789 Y76.328 E45.47764
G1 X73.258 Y75.851 E45.51269
M204 S5000
M205 X30 Y30
G0 F7200 X73.184 Y76.486
M204 S500
M205 X20 Y20
G1 F900 X73.649 Y76.04 E45.54644
G1 X74.166 Y75.655 E45.58021
G1 X74.727 Y75.336 E45.61401
G1 X75.323 Y75.09 E45.64779
G1 X75.944 Y74.919 E45.68153
G1 X76.582 Y74.827 E45.7153
G1 X77.009 Y74.809 E45.73769
G1 X142.991 Y74.81 E49.19413
G1 X143.635 Y74.85 E49.22793
G1 X144.268 Y74.969 E49.26167
G1 X144.882 Y75.166 E49.29545
G1 X145.467 Y75.437 E49.32923
G1 X146.014 Y75.779 E49.36302
G1 X146.514 Y76.185 E49.39676
G1 X146.96 Y76.651 E49.43055
G1 X147.345 Y77.167 E49.46428
G1 X147.664 Y77.728 E49.49808
G1 X147.91 Y78.324 E49.53186
G1 X148.081 Y78.945 E49.5656
G1 X148.173 Y79.583 E49.59937
G1 X148.191 Y80.01 E49.62176
G1 X148.191 Y139.991 E52.76384
G1 X148.151 Y140.634 E52.79759
G1 X148.032 Y141.268 E52.83138
G1 X147.835 Y141.882 E52.86516
G1 X147.564 Y142.467 E52.89894
G1 X147.222 Y143.014 E52.93273
G1 X146.816 Y143.514 E52.96647
G1 X146.351 Y143.96 E53.00022
G1 X145.834 Y144.345 E53.03399
G1 X145.273 Y144.664 E53.0678
G1 X144.677 Y144.91 E53.10157
G1 X144.056 Y145.081 E53.13532
G1 X143.418 Y145.173 E53.16908
G1 X142.991 Y145.191 E53.19147
G1 X77.009 Y145.191 E56.64792
G1 X76.366 Y145.151 E56.68167
G1 X75.732 Y145.032 E56.71546
G1 X75.118 Y144.835 E56.74924
G1 X74.533 Y144.564 E56.78301
G1 X73.986 Y144.222 E56.81681
G1 X73.486 Y143.816 E56.85055
G1 X73.04 Y143.351 E56.8843
G1 X72.655 Y142.834 E56.91807
G1 X72.336 Y142.273 E56.95187
G1 X72.09 Y141.677 E56.98565
G1 X71.919 Y141.056 E57.01939
G1 X71.827 Y140.418 E57.05316
G1 X71.809 Y139.991 E57.07555
G1 X71.809 Y80.009 E60.21769
G1 X71.849 Y79.366 E60.25143
G1 X71.968 Y78.732 E60.28523
G1 X72.165 Y78.118 E60.319
G1 X72.436 Y77.533 E60.35278
G1 X72.778 Y76.986 E60.38657
G1 X73.184 Y76.486 E60.42031
M204 S5000
M205 X30 Y30
G1 F2400 E55.92031
G0 F7200 X76.335 Y80.614
G0 X77.614 Y80.614
G0 X85.83 Y83.33
G0 X85.9 Y83.4
M204 S500
M205 X20 Y20
;TYPE:WALL-INNER
G1 F2400 E60.42031
G1 F900 X85.9 Y96.6 E61.11179
G1 X135.1 Y96.6 E63.68912
G1 X135.1 Y83.4 E64.3806
G1 X85.9 Y83.4 E66.95792
M204 S5000
M205 X30 Y30
G0 F7200 X86.3 Y83.8
M204 S500
M205 X20 Y20
;TYPE:WALL-OUTER
G1 F900 X86.3 Y96.2 E67.60749
G1 X134.7 Y96.2 E70.14291
G1 X134.7 Y83.8 E70.79249
G1 X86.3 Y83.8 E73.32791
M204 S5000
M205 X30 Y30
G0 F7200 X86.3 Y84
G0 X85.86 Y84
G0 X85.8 Y84
G0 X79.33 Y99.33
G0 X79.4 Y99.4
M204 S500
M205 X20 Y20
;TYPE:WALL-INNER
G1 F900 X79.4 Y120.6 E74.43846
G1 X141.6 Y120.6 E77.69679
G1 X141.6 Y99.4 E78.80735
G1 X79.4 Y99.4 E82.06568
M204 S5000
M205 X30 Y30
G0 F7200 X79.8 Y99.8
M204 S500
M205 X20 Y20
;TYPE:WALL-OUTER
G1 F900 X79.8 Y120.2 E83.13432
G1 X141.2 Y120.2 E86.35074
G1 X141.2 Y99.8 E87.41939
G1 X79.8 Y99.8 E90.63581
M204 S5000
M205 X30 Y30
G0 F7200 X79.8 Y100
G0 X79.36 Y100
G0 X79.3 Y100
G0 X79.372 Y120.628
G0 X79.83 Y123.83
G0 X79.9 Y123.9
M204 S500
M205 X20 Y20
;TYPE:WALL-INNER
G1 F900 X79.9 Y137.1 E91.32729
G1 X102.6 Y137.1 E92.51643
G1 X102.6 Y123.9 E93.2079
G1 X79.9 Y123.9 E94.39704
M204 S5000
M205 X30 Y30
G0 F7200 X80.3 Y124.3
M204 S500
M205 X20 Y20
;TYPE:WALL-OUTER
G1 F900 X80.3 Y136.7 E95.04661
G1 X102.2 Y136.7 E96.19383
G1 X102.2 Y124.3 E96.8434
G1 X80.3 Y124.3 E97.99063
M204 S5000
M205 X30 Y30
G0 F7200 X80.3 Y124.5
G0 X79.86 Y124.5
G0 X79.8 Y124.5
G0 X79.872 Y123.872
G0 X110.33 Y123.83
G0 X110.4 Y123.9
M204 S500
M205 X20 Y20
;TYPE:WALL-INNER
G1 F900 X110.4 Y137.1 E98.68211
G1 X141.1 Y137.1 E100.29032
G1 X141.1 Y123.9 E100.9818
G1 X110.4 Y123.9 E102.59001
M204 S5000
M205 X30 Y30
G0 F7200 X110.8 Y124.3
M204 S500
M205 X20 Y20
;TYPE:WALL-OUTER
G1 F900 X110.8 Y136.7 E103.23958
G1 X140.7 Y136.7 E104.80588
G1 X140.7 Y124.3 E105.45545
G1 X110.8 Y124.3 E107.02175
M204 S5000
M205 X30 Y30
G0 F7200 X110.8 Y124.5
G0 X110.36 Y124.5
G0 X110.3 Y124.5
G0 X110.372 Y137.128
G0 X142.33 Y139.33
G0 X142.4 Y139.4
M204 S500
M205 X20 Y20
;TYPE:WALL-INNER
G1 F900 X77.6 Y139.4 E110.41628
G1 X77.6 Y80.6 E113.4965
G1 X142.4 Y80.6 E116.89103
G1 X142.4 Y139.4 E119.97125
M204 S5000
M205 X30 Y30
G0 F7200 X142.8 Y139.8
M204 S500
M205 X20 Y20
;TYPE:WALL-OUTER
G1 F900 X77.2 Y139.8 E123.40769
G1 X77.2 Y80.2 E126.52982
G1 X142.8 Y80.2 E129.96626
G1 X142.8 Y139.8 E133.08839
M204 S5000
M205 X30 Y30
G0 F7200 X142.6 Y139.8
G0 X142.36 Y139.36
G0 X142.01 Y139.01
M204 S500
M205 X20 Y20
;TYPE:SKIN
G1 F900 X77.99 Y139.01 E136.44205
G1 X77.99 Y80.99 E139.48142
G1 X142.01 Y80.99 E142.83509
G1 X142.01 Y139.01 E145.87445
M204 S5000
M205 X30 Y30
G0 F7200 X141.49 Y137.49
M204 S500
M205 X20 Y20
G1 F900 X141.49 Y123.51 E146.60678
G1 X110.01 Y123.51 E148.25586
G1 X110.01 Y137.49 E148.98819
G1 X141.49 Y137.49 E150.63726
M204 S5000
M205 X30 Y30
G0 F7200 X141.99 Y120.99
M204 S500
M205 X20 Y20
G1 F900 X141.99 Y99.01 E151.78868
G1 X79.01 Y99.01 E155.08787
G1 X79.01 Y120.99 E156.23929
G1 X141.99 Y120.99 E159.53847
M204 S5000
M205 X30 Y30
G0 F7200 X141.628 Y99.372
G0 X135.49 Y96.99
M204 S500
M205 X20 Y20
G1 F900 X135.49 Y83.01 E160.27081
G1 X85.51 Y83.01 E162.889
G1 X85.51 Y96.99 E163.62134
G1 X135.49 Y96.99 E166.23953
M204 S5000
M205 X30 Y30
G0 F7200 X141.628 Y99.372
G0 X141.628 Y120.628
G0 X110.372 Y123.872
G0 X102.99 Y137.49
M204 S500
M205 X20 Y20
G1 F900 X102.99 Y123.51 E166.97187
G1 X79.51 Y123.51 E168.20186
G1 X79.51 Y137.49 E168.9342
G1 X102.99 Y137.49 E170.16419
M204 S5000
M205 X30 Y30
G0 F7200 X78.301 Y138.829
G0 X78.235 Y138.763
G1 F900 X78.518 Y138.48 E170.1949
M204 S500
M205 X20 Y20
G1 X78.937 Y138.899
M204 S5000
M205 X30 Y30
G0 F7200 X79.432 Y138.829
M204 S500
M205 X20 Y20
G1 F900 X78.169 Y137.566 E170.28847
G1 X78.099 Y137.496
M204 S5000
M205 X30 Y30
G0 F7200 X78.169 Y137.001
M204 S500
M205 X20 Y20
G1 F900 X79.998 Y138.829 E170.42393
G1 X80.068 Y138.899
M204 S5000
M205 X30 Y30
G0 F7200 X80.564 Y138.829
M204 S500
M205 X20 Y20
G1 F900 X79.403 Y137.669 E170.50991
G1 X79.333 Y137.599
M204 S5000
M205 X30 Y30
G0 F7200 X79.33 Y137.595
M204 S500
M205 X20 Y20
G1 F900 X78.169 Y136.435 E170.59588
G1 X78.099 Y136.365
M204 S5000
M205 X30 Y30
G0 F7200 X78.169 Y135.869
M204 S500
M205 X20 Y20
G1 F900 X79.33 Y137.03 E170.68189
G1 X79.4 Y137.1
M204 S5000
M205 X30 Y30
G0 F7200 X79.33 Y136.464
M204 S500
M205 X20 Y20
G1 F900 X78.169 Y135.304 E170.76786
G1 X78.099 Y135.234
M204 S5000
M205 X30 Y30
G0 F7200 X78.169 Y134.738
M204 S500
M205 X20 Y20
G1 F900 X79.33 Y135.898 E170.85384
G1 X79.4 Y135.968
M204 S5000
M205 X30 Y30
G0 F7200 X79.33 Y135.333
M204 S500
M205 X20 Y20
G1 F900 X78.169 Y134.172 E170.93985
G1 X78.099 Y134.102
M204 S5000
M205 X30 Y30
G0 F7200 X78.169 Y133.607
M204 S500
M205 X20 Y20
G1 F900 X79.33 Y134.767 E171.02582
G1 X79.4 Y134.837
M204 S5000
M205 X30 Y30
G0 F7200 X79.33 Y134.201
M204 S500
M205 X20 Y20
G1 F900 X78.169 Y133.041 E171.11179
G1 X78.099 Y132.971
M204 S5000
M205 X30 Y30
G0 F7200 X78.169 Y132.475
M204 S500
M205 X20 Y20
G1 F900 X79.33 Y133.636 E171.19781
G1 X79.4 Y133.706
M204 S5000
M205 X30 Y30
G0 F7200 X79.33 Y133.07
M204 S500
M205 X20 Y20
G1 F900 X78.169 Y131.91 E171.28378
G1 X78.099 Y131.84
M204 S5000
M205 X30 Y30
G0 F7200 X78.169 Y131.344
M204 S500
M205 X20 Y20
G1 F900 X79.33 Y132.504 E171.36975
G1 X79.4 Y132.574
M204 S5000
M205 X30 Y30
G0 F7200 X79.33 Y131.939
M204 S500
M205 X20 Y20
G1 F900 X78.169 Y130.778 E171.45576
G1 X78.099 Y130.708
M204 S5000
M205 X30 Y30
G0 F7200 X78.169 Y130.213
M204 S500
M205 X20 Y20
G1 F900 X79.33 Y131.373 E171.54174
G1 X79.4 Y131.443
M204 S5000
M205 X30 Y30
G0 F7200 X79.33 Y130.807
M204 S500
M205 X20 Y20
G1 F900 X78.169 Y129.647 E171.62771
G1 X78.099 Y129.577
M204 S5000
M205 X30 Y30
G0 F7200 X78.169 Y129.081
M204 S500
M205 X20 Y20
G1 F900 X79.33 Y130.241 E171.71368
G1 X79.4 Y130.311
M204 S5000
M205 X30 Y30
G0 F7200 X79.33 Y129.676
M204 S500
M205 X20 Y20
G1 F900 X78.169 Y128.515 E171.79969
G1 X78.099 Y128.445
M204 S5000
M205 X30 Y30
G0 F7200 X78.169 Y127.95
M204 S500
M205 X20 Y20
G1 F900 X79.33 Y129.11 E171.88567
G1 X79.4 Y129.18
M204 S5000
M205 X30 Y30
G0 F7200 X79.33 Y128.544
M204 S500
M205 X20 Y20
G1 F900 X78.169 Y127.384 E171.97164
G1 X78.099 Y127.314
M204 S5000
M205 X30 Y30
G0 F7200 X78.169 Y126.818
M204 S500
M205 X20 Y20
G1 F900 X79.33 Y127.979 E172.05765
G1 X79.4 Y128.049
M204 S5000
M205 X30 Y30
G0 F7200 X79.33 Y127.413
M204 S500
M205 X20 Y20
G1 F900 X78.169 Y126.253 E172.14363
G1 X78.099 Y126.183
M204 S5000
M205 X30 Y30
G0 F7200 X78.169 Y125.687
M204 S500
M205 X20 Y20
G1 F900 X79.33 Y126.847 E172.2296
G1 X79.4 Y126.917
M204 S5000
M205 X30 Y30
G0 F7200 X79.33 Y126.282
M204 S500
M205 X20 Y20
G1 F900 X78.169 Y125.121 E172.31561
G1 X78.099 Y125.051
M204 S5000
M205 X30 Y30
G0 F7200 X78.169 Y124.556
M204 S500
M205 X20 Y20
G1 F900 X79.33 Y125.716 E172.40158
G1 X79.4 Y125.786
M204 S5000
M205 X30 Y30
G0 F7200 X79.33 Y125.15
M204 S500
M205 X20 Y20
G1 F900 X78.169 Y123.99 E172.48756
G1 X78.099 Y123.92
M204 S5000
M205 X30 Y30
G0 F7200 X78.169 Y123.424
M204 S500
M205 X20 Y20
G1 F900 X79.33 Y124.585 E172.57357
G1 X79.4 Y124.655
M204 S5000
M205 X30 Y30
G0 F7200 X79.33 Y124.019
M204 S500
M205 X20 Y20
G1 F900 X78.169 Y122.859 E172.65954
G1 X78.099 Y122.789
M204 S5000
M205 X30 Y30
G0 F7200 X78.169 Y122.293
M204 S500
M205 X20 Y20
G1 F900 X79.33 Y123.453 E172.74551
G1 X79.4 Y123.523
M204 S5000
M205 X30 Y30
G0 F7200 X79.771 Y123.329
M204 S500
M205 X20 Y20
G1 F900 X78.169 Y121.727 E172.8642
G1 X78.099 Y121.657
M204 S5000
M205 X30 Y30
G0 F7200 X78.169 Y121.162
M204 S500
M205 X20 Y20
G1 F900 X80.337 Y123.329 E173.02477
G1 X80.407 Y123.399
M204 S5000
M205 X30 Y30
G0 F7200 X80.902 Y123.329
M204 S500
M205 X20 Y20
G1 F900 X78.169 Y120.596 E173.22724
G1 X78.099 Y120.526
M204 S5000
M205 X30 Y30
G0 F7200 X78.169 Y120.03
M204 S500
M205 X20 Y20
G1 F900 X78.83 Y120.691 E173.27621
G1 X78.9 Y120.761
M204 S5000
M205 X30 Y30
G0 F7200 X78.83 Y120.125
M204 S500
M205 X20 Y20
G1 F900 X78.169 Y119.464 E173.32518
G1 X78.099 Y119.394
M204 S5000
M205 X30 Y30
G0 F7200 X78.169 Y118.899
M204 S500
M205 X20 Y20
G1 F900 X78.83 Y119.559 E173.37411
G1 X78.9 Y119.629
M204 S5000
M205 X30 Y30
G0 F7200 X78.83 Y118.994
M204 S500
M205 X20 Y20
G1 F900 X78.169 Y118.333 E173.42308
G1 X78.099 Y118.263
M204 S5000
M205 X30 Y30
G0 F7200 X78.169 Y117.767
M204 S500
M205 X20 Y20
G1 F900 X78.83 Y118.428 E173.47205
G1 X78.9 Y118.498
M204 S5000
M205 X30 Y30
G0 F7200 X78.83 Y117.862
M204 S500
M205 X20 Y20
G1 F900 X78.169 Y117.202 E173.52098
G1 X78.099 Y117.132
M204 S5000
M205 X30 Y30
G0 F7200 X78.169 Y116.636
