;FLAVOR:Marlin
;TIME:3055
;Filament used: 2.00305m
;Layer height: 0.2
;Generated with Cura_SteamEngine 3.4.1
M190 S65
M104 S210
M109 S210
M82 ;absolute extrusion mode
G28 ;Home
G1 Z15.0 F6000 ;Move the platform down 15mm
;Prime the extruder
G92 E0
G1 F200 E3
G92 E0
G92 E0
G1 F2400 E-4.5
;LAYER_COUNT:21
;LAYER:0
M107
M204 S5000
M205 X30 Y30
G0 F7200 X72.471 Y75.496 Z0.2
M204 S500
M205 X20 Y20
;TYPE:SKIRT
G1 F2400 E0
G1 F900 X73.003 Y75.017 E0.025
G1 X73.585 Y74.602 E0.04996
G1 X74.21 Y74.253 E0.07496
G1 X74.87 Y73.977 E0.09995
G1 X75.556 Y73.776 E0.12491
G1 X76.261 Y73.653 E0.1499
G1 X77.009 Y73.609 E0.17607
G1 X142.991 Y73.61 E2.48037
G1 X143.705 Y73.65 E2.50534
G1 X144.41 Y73.769 E2.53031
G1 X145.098 Y73.967 E2.55532
G1 X145.759 Y74.24 E2.58029
G1 X146.386 Y74.585 E2.60528
G1 X146.97 Y74.997 E2.63024
G1 X147.504 Y75.473 E2.65523
G1 X147.983 Y76.004 E2.6802
G1 X148.398 Y76.586 E2.70516
G1 X148.747 Y77.211 E2.73016
G1 X149.023 Y77.871 E2.75515
G1 X149.224 Y78.557 E2.78011
G1 X149.347 Y79.262 E2.8051
G1 X149.391 Y80.01 E2.83127
G1 X149.391 Y139.991 E4.926
G1 X149.351 Y140.705 E4.95097
G1 X149.232 Y141.41 E4.97594
G1 X149.034 Y142.098 E5.00094
G1 X148.761 Y142.759 E5.02592
G1 X148.417 Y143.386 E5.05089
G1 X148.004 Y143.97 E5.07587
G1 X147.529 Y144.504 E5.10083
G1 X146.997 Y144.983 E5.12583
G1 X146.415 Y145.398 E5.1508
G1 X145.79 Y145.747 E5.1758
G1 X145.13 Y146.023 E5.20078
G1 X144.444 Y146.224 E5.22574
G1 X143.739 Y146.347 E5.25074
G1 X142.991 Y146.391 E5.2769
G1 X77.009 Y146.391 E7.5812
G1 X76.295 Y146.351 E7.60618
G1 X75.59 Y146.232 E7.63115
G1 X74.902 Y146.034 E7.65615
G1 X74.241 Y145.761 E7.68112
G1 X73.614 Y145.417 E7.7061
G1 X73.03 Y145.004 E7.73108
G1 X72.496 Y144.529 E7.75604
G1 X72.017 Y143.997 E7.78104
G1 X71.602 Y143.415 E7.806
G1 X71.253 Y142.79 E7.831
G1 X70.977 Y142.13 E7.85599
G1 X70.776 Y141.444 E7.88095
G1 X70.653 Y140.739 E7.90594
G1 X70.609 Y139.991 E7.93211
G1 X70.609 Y80.009 E10.02687
G1 X70.649 Y79.295 E10.05184
G1 X70.768 Y78.59 E10.07681
G1 X70.966 Y77.902 E10.10182
G1 X71.239 Y77.241 E10.12679
G1 X71.583 Y76.614 E10.15177
G1 X71.996 Y76.03 E10.17675
G1 X72.471 Y75.496 E10.20171
M204 S5000
M205 X30 Y30
G0 F7200 X72.865 Y75.67
M204 S500
M205 X20 Y20
G1 F900 X73.393 Y75.221 E10.22591
G1 X73.968 Y74.836 E10.25008
G1 X74.585 Y74.521 E10.27427
G1 X75.233 Y74.278 E10.29844
G1 X75.906 Y74.111 E10.32266
G1 X76.592 Y74.023 E10.34681
G1 X77.009 Y74.009 E10.36138
G1 X142.991 Y74.01 E12.66568
G1 X143.682 Y74.05 E12.68985
G1 X144.365 Y74.169 E12.71406
G1 X145.028 Y74.367 E12.73823
G1 X145.665 Y74.639 E12.76242
G1 X146.266 Y74.983 E12.7866
G1 X146.824 Y75.394 E12.8108
G1 X147.33 Y75.866 E12.83497
G1 X147.779 Y76.394 E12.85917
G1 X148.164 Y76.97 E12.88337
G1 X148.479 Y77.586 E12.90753
G1 X148.722 Y78.234 E12.9317
G1 X148.889 Y78.907 E12.95592
G1 X148.977 Y79.594 E12.98011
G1 X148.991 Y80.01 E12.99464
G1 X148.991 Y139.991 E15.08937
G1 X148.951 Y140.682 E15.11354
G1 X148.832 Y141.365 E15.13775
G1 X148.634 Y142.028 E15.16192
G1 X148.362 Y142.665 E15.1861
G1 X148.018 Y143.266 E15.21029
G1 X147.607 Y143.824 E15.23449
G1 X147.135 Y144.33 E15.25866
G1 X146.607 Y144.779 E15.28286
G1 X146.032 Y145.164 E15.30703
G1 X145.415 Y145.479 E15.33122
G1 X144.767 Y145.722 E15.35539
G1 X144.094 Y145.889 E15.37961
G1 X143.408 Y145.977 E15.40376
G1 X142.991 Y145.991 E15.41833
G1 X77.009 Y145.991 E17.72263
G1 X76.318 Y145.951 E17.7468
G1 X75.635 Y145.832 E17.77101
G1 X74.972 Y145.634 E17.79518
G1 X74.335 Y145.362 E17.81937
G1 X73.734 Y145.018 E17.84355
G1 X73.176 Y144.607 E17.86775
G1 X72.67 Y144.135 E17.89192
G1 X72.221 Y143.607 E17.91613
G1 X71.836 Y143.032 E17.94029
G1 X71.521 Y142.415 E17.96449
G1 X71.278 Y141.767 E17.98865
G1 X71.111 Y141.094 E18.01287
G1 X71.023 Y140.408 E18.03702
G1 X71.009 Y139.991 E18.0516
G1 X71.009 Y80.009 E20.14636
G1 X71.049 Y79.318 E20.17053
G1 X71.168 Y78.635 E20.19474
G1 X71.366 Y77.972 E20.2189
G1 X71.638 Y77.335 E20.24309
G1 X71.982 Y76.734 E20.26728
G1 X72.393 Y76.176 E20.29148
G1 X72.865 Y75.67 E20.31565
M204 S5000
M205 X30 Y30
G0 F7200 X73.258 Y75.851
M204 S500
M205 X20 Y20
G1 F900 X73.78 Y75.433 E20.339
G1 X74.349 Y75.081 E20.36237
G1 X74.956 Y74.799 E20.38574
G1 X75.592 Y74.591 E20.40911
G1 X76.248 Y74.461 E20.43246
G1 X77.009 Y74.409 E20.4591
G1 X142.991 Y74.41 E22.7634
G1 X143.659 Y74.45 E22.78677
G1 X144.317 Y74.569 E22.81012
G1 X144.957 Y74.766 E22.83351
G1 X145.568 Y75.038 E22.85687
G1 X146.142 Y75.381 E22.88022
G1 X146.672 Y75.79 E22.9036
G1 X147.149 Y76.259 E22.92696
G1 X147.567 Y76.782 E22.95034
G1 X147.919 Y77.35 E22.97368
G1 X148.201 Y77.957 E22.99705
G1 X148.409 Y78.593 E23.02042
G1 X148.539 Y79.249 E23.04378
G1 X148.591 Y80.01 E23.07042
G1 X148.591 Y139.991 E25.16514
G1 X148.551 Y140.659 E25.18851
G1 X148.432 Y141.317 E25.21186
G1 X148.235 Y141.957 E25.23525
G1 X147.963 Y142.568 E25.25861
G1 X147.62 Y143.142 E25.28196
G1 X147.211 Y143.672 E25.30534
G1 X146.742 Y144.149 E25.3287
G1 X146.22 Y144.567 E25.35205
G1 X145.651 Y144.919 E25.37542
G1 X145.044 Y145.201 E25.39879
G1 X144.408 Y145.409 E25.42216
G1 X143.752 Y145.539 E25.44552
G1 X142.991 Y145.591 E25.47216
G1 X77.009 Y145.591 E27.77646
G1 X76.341 Y145.551 E27.79983
G1 X75.683 Y145.432 E27.82318
G1 X75.043 Y145.235 E27.84656
G1 X74.432 Y144.963 E27.86992
G1 X73.858 Y144.62 E27.89327
G1 X73.328 Y144.211 E27.91665
G1 X72.851 Y143.742 E27.94001
G1 X72.433 Y143.22 E27.96337
G1 X72.081 Y142.651 E27.98673
G1 X71.799 Y142.044 E28.01011
G1 X71.591 Y141.408 E28.03348
G1 X71.461 Y140.752 E28.05683
G1 X71.409 Y139.991 E28.08347
G1 X71.409 Y80.009 E30.17823
G1 X71.449 Y79.341 E30.2016
G1 X71.568 Y78.683 E30.22495
G1 X71.765 Y78.043 E30.24834
G1 X72.037 Y77.432 E30.2717
G1 X72.38 Y76.858 E30.29505
G1 X72.789 Y76.328 E30.31843
G1 X73.258 Y75.851 E30.34179
M204 S5000
M205 X30 Y30
G0 F7200 X73.184 Y76.486
M204 S500
M205 X20 Y20
G1 F900 X73.649 Y76.04 E30.36429
G1 X74.166 Y75.655 E30.3868
G1 X74.727 Y75.336 E30.40934
G1 X75.323 Y75.09 E30.43186
G1 X75.944 Y74.919 E30.45435
G1 X76.582 Y74.827 E30.47686
G1 X77.009 Y74.809 E30.49179
G1 X142.991 Y74.81 E32.79609
G1 X143.635 Y74.85 E32.81862
G1 X144.268 Y74.969 E32.84112
G1 X144.882 Y75.166 E32.86364
G1 X145.467 Y75.437 E32.88615
G1 X146.014 Y75.779 E32.90868
G1 X146.514 Y76.185 E32.93117
G1 X146.96 Y76.651 E32.9537
G1 X147.345 Y77.167 E32.97618
G1 X147.664 Y77.728 E32.99872
G1 X147.91 Y78.324 E33.02124
G1 X148.081 Y78.945 E33.04373
G1 X148.173 Y79.583 E33.06625
G1 X148.191 Y80.01 E33.08117
G1 X148.191 Y139.991 E35.1759
G1 X148.151 Y140.634 E35.19839
G1 X148.032 Y141.268 E35.22092
G1 X147.835 Y141.882 E35.24344
G1 X147.564 Y142.467 E35.26596
G1 X147.222 Y143.014 E35.28849
G1 X146.816 Y143.514 E35.31098
G1 X146.351 Y143.96 E35.33348
G1 X145.834 Y144.345 E35.35599
G1 X145.273 Y144.664 E35.37853
G1 X144.677 Y144.91 E35.40105
G1 X144.056 Y145.081 E35.42354
G1 X143.418 Y145.173 E35.44605
G1 X142.991 Y145.191 E35.46098
G1 X77.009 Y145.191 E37.76528
G1 X76.366 Y145.151 E37.78778
G1 X75.732 Y145.032 E37.81031
G1 X75.118 Y144.835 E37.83283
G1 X74.533 Y144.564 E37.85534
G1 X73.986 Y144.222 E37.87787
G1 X73.486 Y143.816 E37.90036
G1 X73.04 Y143.351 E37.92287
G1 X72.655 Y142.834 E37.94538
G1 X72.336 Y142.273 E37.96791
G1 X72.09 Y141.677 E37.99043
G1 X71.919 Y141.056 E38.01293
G1 X71.827 Y140.418 E38.03544
G1 X71.809 Y139.991 E38.05036
G1 X71.809 Y80.009 E40.14512
G1 X71.849 Y79.366 E40.16762
G1 X71.968 Y78.732 E40.19015
G1 X72.165 Y78.118 E40.21267
G1 X72.436 Y77.533 E40.23519
G1 X72.778 Y76.986 E40.25771
G1 X73.184 Y76.486 E40.28021
M204 S5000
M205 X30 Y30
G1 F2400 E35.78021
G0 F7200 X76.335 Y80.614
G0 X77.614 Y80.614
G0 X85.83 Y83.33
G0 X85.9 Y83.4
M204 S500
M205 X20 Y20
;TYPE:WALL-INNER
G1 F2400 E40.28021
G1 F900 X85.9 Y96.6 E40.74119
G1 X135.1 Y96.6 E42.45941
G1 X135.1 Y83.4 E42.9204
G1 X85.9 Y83.4 E44.63862
M204 S5000
M205 X30 Y30
G0 F7200 X86.3 Y83.8
M204 S500
M205 X20 Y20
;TYPE:WALL-OUTER
G1 F900 X86.3 Y96.2 E45.07166
G1 X134.7 Y96.2 E46.76194
G1 X134.7 Y83.8 E47.19499
G1 X86.3 Y83.8 E48.88527
M204 S5000
M205 X30 Y30
G0 F7200 X86.3 Y84
G0 X85.86 Y84
G0 X85.8 Y84
G0 X79.33 Y99.33
G0 X79.4 Y99.4
M204 S500
M205 X20 Y20
;TYPE:WALL-INNER
G1 F900 X79.4 Y120.6 E49.62564
G1 X141.6 Y120.6 E51.79786
G1 X141.6 Y99.4 E52.53823
G1 X79.4 Y99.4 E54.71045
M204 S5000
M205 X30 Y30
G0 F7200 X79.8 Y99.8
M204 S500
M205 X20 Y20
;TYPE:WALL-OUTER
G1 F900 X79.8 Y120.2 E55.42288
G1 X141.2 Y120.2 E57.56716
G1 X141.2 Y99.8 E58.2796
G1 X79.8 Y99.8 E60.42388
M204 S5000
M205 X30 Y30
G0 F7200 X79.8 Y100
G0 X79.36 Y100
G0 X79.3 Y100
G0 X79.372 Y120.628
G0 X79.83 Y123.83
G0 X79.9 Y123.9
M204 S500
M205 X20 Y20
;TYPE:WALL-INNER
G1 F900 X79.9 Y137.1 E60.88486
G1 X102.6 Y137.1 E61.67762
G1 X102.6 Y123.9 E62.1386
G1 X79.9 Y123.9 E62.93136
M204 S5000
M205 X30 Y30
G0 F7200 X80.3 Y124.3
M204 S500
M205 X20 Y20
;TYPE:WALL-OUTER
G1 F900 X80.3 Y136.7 E63.3644
G1 X102.2 Y136.7 E64.12922
G1 X102.2 Y124.3 E64.56227
G1 X80.3 Y124.3 E65.32709
M204 S5000
M205 X30 Y30
G0 F7200 X80.3 Y124.5
G0 X79.86 Y124.5
G0 X79.8 Y124.5
G0 X79.872 Y123.872
G0 X110.33 Y123.83
G0 X110.4 Y123.9
M204 S500
M205 X20 Y20
;TYPE:WALL-INNER
G1 F900 X110.4 Y137.1 E65.78807
G1 X141.1 Y137.1 E66.86021
G1 X141.1 Y123.9 E67.3212
G1 X110.4 Y123.9 E68.39334
M204 S5000
M205 X30 Y30
G0 F7200 X110.8 Y124.3
M204 S500
M205 X20 Y20
;TYPE:WALL-OUTER
G1 F900 X110.8 Y136.7 E68.82638
G1 X140.7 Y136.7 E69.87059
G1 X140.7 Y124.3 E70.30363
G1 X110.8 Y124.3 E71.34784
M204 S5000
M205 X30 Y30
G0 F7200 X110.8 Y124.5
G0 X110.36 Y124.5
G0 X110.3 Y124.5
G0 X110.372 Y137.128
G0 X142.33 Y139.33
G0 X142.4 Y139.4
M204 S500
M205 X20 Y20
;TYPE:WALL-INNER
G1 F900 X77.6 Y139.4 E73.61085
G1 X77.6 Y80.6 E75.66434
G1 X142.4 Y80.6 E77.92735
G1 X142.4 Y139.4 E79.98084
M204 S5000
M205 X30 Y30
G0 F7200 X142.8 Y139.8
M204 S500
M205 X20 Y20
;TYPE:WALL-OUTER
G1 F900 X77.2 Y139.8 E82.27179
G1 X77.2 Y80.2 E84.35321
G1 X142.8 Y80.2 E86.64417
G1 X142.8 Y139.8 E88.72559
M204 S5000
M205 X30 Y30
G0 F7200 X142.6 Y139.8
G0 X142.36 Y139.36
G0 X142.01 Y139.01
M204 S500
M205 X20 Y20
;TYPE:SKIN
G1 F900 X77.99 Y139.01 E90.96137
G1 X77.99 Y80.99 E92.98761
G1 X142.01 Y80.99 E95.22339
G1 X142.01 Y139.01 E97.24963
M204 S5000
M205 X30 Y30
G0 F7200 X141.49 Y137.49
M204 S500
M205 X20 Y20
G1 F900 X141.49 Y123.51 E97.73786
G1 X110.01 Y123.51 E98.83724
G1 X110.01 Y137.49 E99.32546
G1 X141.49 Y137.49 E100.42484
M204 S5000
M205 X30 Y30
G0 F7200 X141.99 Y120.99
M204 S500
M205 X20 Y20
G1 F900 X141.99 Y99.01 E101.19245
G1 X79.01 Y99.01 E103.39191
G1 X79.01 Y120.99 E104.15952
G1 X141.99 Y120.99 E106.35898
M204 S5000
M205 X30 Y30
G0 F7200 X141.628 Y99.372
G0 X135.49 Y96.99
M204 S500
M205 X20 Y20
G1 F900 X135.49 Y83.01 E106.84721
G1 X85.51 Y83.01 E108.59267
G1 X85.51 Y96.99 E109.08089
G1 X135.49 Y96.99 E110.82635
M204 S5000
M205 X30 Y30
G0 F7200 X141.628 Y99.372
G0 X141.628 Y120.628
G0 X110.372 Y123.872
G0 X102.99 Y137.49
M204 S500
M205 X20 Y20
G1 F900 X102.99 Y123.51 E111.31458
G1 X79.51 Y123.51 E112.13457
G1 X79.51 Y137.49 E112.6228
G1 X102.99 Y137.49 E113.44279
M204 S5000
M205 X30 Y30
G0 F7200 X78.301 Y138.829
G0 X78.235 Y138.763
G1 F900 X78.518 Y138.48 E113.46327
M204 S500
M205 X20 Y20
G1 X78.937 Y138.899
M204 S5000
M205 X30 Y30
G0 F7200 X79.432 Y138.829
M204 S500
M205 X20 Y20
G1 F900 X78.169 Y137.566 E113.52565
G1 X78.099 Y137.496
M204 S5000
M205 X30 Y30
G0 F7200 X78.169 Y137.001
M204 S500
M205 X20 Y20
G1 F900 X79.998 Y138.829 E113.61596
G1 X80.068 Y138.899
M204 S5000
M205 X30 Y30
G0 F7200 X80.564 Y138.829
M204 S500
M205 X20 Y20
G1 F900 X79.403 Y137.669 E113.67327
G1 X79.333 Y137.599
M204 S5000
M205 X30 Y30
G0 F7200 X79.33 Y137.595
M204 S500
M205 X20 Y20
G1 F900 X78.169 Y136.435 E113.73059
G1 X78.099 Y136.365
M204 S5000
M205 X30 Y30
G0 F7200 X78.169 Y135.869
M204 S500
M205 X20 Y20
G1 F900 X79.33 Y137.03 E113.78793
G1 X79.4 Y137.1
M204 S5000
M205 X30 Y30
G0 F7200 X79.33 Y136.464
M204 S500
M205 X20 Y20
G1 F900 X78.169 Y135.304 E113.84524
G1 X78.099 Y135.234
M204 S5000
M205 X30 Y30
G0 F7200 X78.169 Y134.738
M204 S500
M205 X20 Y20
G1 F900 X79.33 Y135.898 E113.90256
G1 X79.4 Y135.968
M204 S5000
M205 X30 Y30
G0 F7200 X79.33 Y135.333
M204 S500
M205 X20 Y20
G1 F900 X78.169 Y134.172 E113.9599
G1 X78.099 Y134.102
M204 S5000
M205 X30 Y30
G0 F7200 X78.169 Y133.607
M204 S500
M205 X20 Y20
G1 F900 X79.33 Y134.767 E114.01721
G1 X79.4 Y134.837
M204 S5000
M205 X30 Y30
G0 F7200 X79.33 Y134.201
M204 S500
M205 X20 Y20
G1 F900 X78.169 Y133.041 E114.07453
G1 X78.099 Y132.971
M204 S5000
M205 X30 Y30
G0 F7200 X78.169 Y132.475
M204 S500
M205 X20 Y20
G1 F900 X79.33 Y133.636 E114.13187
G1 X79.4 Y133.706
M204 S5000
M205 X30 Y30
G0 F7200 X79.33 Y133.07
M204 S500
M205 X20 Y20
G1 F900 X78.169 Y131.91 E114.18919
G1 X78.099 Y131.84
M204 S5000
M205 X30 Y30
G0 F7200 X78.169 Y131.344
M204 S500
M205 X20 Y20
G1 F900 X79.33 Y132.504 E114.2465
G1 X79.4 Y132.574
M204 S5000
M205 X30 Y30
G0 F7200 X79.33 Y131.939
M204 S500
M205 X20 Y20
G1 F900 X78.169 Y130.778 E114.30384
G1 X78.099 Y130.708
M204 S5000
M205 X30 Y30
G0 F7200 X78.169 Y130.213
M204 S500
M205 X20 Y20
G1 F900 X79.33 Y131.373 E114.36116
G1 X79.4 Y131.443
M204 S5000
M205 X30 Y30
G0 F7200 X79.33 Y130.807
M204 S500
M205 X20 Y20
G1 F900 X78.169 Y129.647 E114.41847
G1 X78.099 Y129.577
M204 S5000
M205 X30 Y30
G0 F7200 X78.169 Y129.081
M204 S500
M205 X20 Y20
G1 F900 X79.33 Y130.241 E114.47579
G1 X79.4 Y130.311
M204 S5000
M205 X30 Y30
G0 F7200 X79.33 Y129.676
M204 S500
M205 X20 Y20
G1 F900 X78.169 Y128.515 E114.53313
G1 X78.099 Y128.445
M204 S5000
M205 X30 Y30
G0 F7200 X78.169 Y127.95
M204 S500
M205 X20 Y20
G1 F900 X79.33 Y129.11 E114.59045
G1 X79.4 Y129.18
M204 S5000
M205 X30 Y30
G0 F7200 X79.33 Y128.544
M204 S500
M205 X20 Y20
G1 F900 X78.169 Y127.384 E114.64776
G1 X78.099 Y127.314
M204 S5000
M205 X30 Y30
G0 F7200 X78.169 Y126.818
M204 S500
M205 X20 Y20
G1 F900 X79.33 Y127.979 E114.7051
G1 X79.4 Y128.049
M204 S5000
M205 X30 Y30
G0 F7200 X79.33 Y127.413
M204 S500
M205 X20 Y20
G1 F900 X78.169 Y126.253 E114.76242
G1 X78.099 Y126.183
M204 S5000
M205 X30 Y30
G0 F7200 X78.169 Y125.687
M204 S500
M205 X20 Y20
G1 F900 X79.33 Y126.847 E114.81973
G1 X79.4 Y126.917
M204 S5000
M205 X30 Y30
G0 F7200 X79.33 Y126.282
M204 S500
M205 X20 Y20
G1 F900 X78.169 Y125.121 E114.87707
G1 X78.099 Y125.051
M204 S5000
M205 X30 Y30
G0 F7200 X78.169 Y124.556
M204 S500
M205 X20 Y20
G1 F900 X79.33 Y125.716 E114.93439
G1 X79.4 Y125.786
M204 S5000
M205 X30 Y30
G0 F7200 X79.33 Y125.15
M204 S500
M205 X20 Y20
G1 F900 X78.169 Y123.99 E114.9917
G1 X78.099 Y123.92
M204 S5000
M205 X30 Y30
G0 F7200 X78.169 Y123.424
M204 S500
M205 X20 Y20
G1 F900 X79.33 Y124.585 E115.04904
G1 X79.4 Y124.655
M204 S5000
M205 X30 Y30
G0 F7200 X79.33 Y124.019
M204 S500
M205 X20 Y20
G1 F900 X78.169 Y122.859 E115.10636
G1 X78.099 Y122.789
M204 S5000
M205 X30 Y30
G0 F7200 X78.169 Y122.293
M204 S500
M205 X20 Y20
G1 F900 X79.33 Y123.453 E115.16368
G1 X79.4 Y123.523
M204 S5000
M205 X30 Y30
G0 F7200 X79.771 Y123.329
M204 S500
M205 X20 Y20
G1 F900 X78.169 Y121.727 E115.2428
G1 X78.099 Y121.657
M204 S5000
M205 X30 Y30
G0 F7200 X78.169 Y121.162
M204 S500
M205 X20 Y20
G1 F900 X80.337 Y123.329 E115.34985
G1 X80.407 Y123.399
M204 S5000
M205 X30 Y30
G0 F7200 X80.902 Y123.329
M204 S500
M205 X20 Y20
G1 F900 X78.169 Y120.596 E115.48483
G1 X78.099 Y120.526
M204 S5000
M205 X30 Y30
G0 F7200 X78.169 Y120.03
M204 S500
M205 X20 Y20
G1 F900 X78.83 Y120.691 E115.51747
G1 X78.9 Y120.761
M204 S5000
M205 X30 Y30
G0 F7200 X78.83 Y120.125
M204 S500
M205 X20 Y20
G1 F900 X78.169 Y119.464 E115.55012
G1 X78.099 Y119.394
M204 S5000
M205 X30 Y30
G0 F7200 X78.169 Y118.899
M204 S500
M205 X20 Y20
G1 F900 X78.83 Y119.559 E115.58274
G1 X78.9 Y119.629
M204 S5000
M205 X30 Y30
G0 F7200 X78.83 Y118.994
M204 S500
M205 X20 Y20
G1 F900 X78.169 Y118.333 E115.61539
G1 X78.099 Y118.263
M204 S5000
M205 X30 Y30
G0 F7200 X78.169 Y117.767
M204 S500
M205 X20 Y20
G1 F900 X78.83 Y118.428 E115.64803
G1 X78.9 Y118.498
M204 S5000
M205 X30 Y30
G0 F7200 X78.83 Y117.862
M204 S500
M205 X20 Y20
G1 F900 X78.169 Y117.202 E115.68065
G1 X78.099 Y117.132
M204 S5000
M205 X30 Y30
G0 F7200 X78.169 Y116.636
M204 S500
M205 X20 Y20
