;FLAVOR:Marlin
;TIME:1788
;Filament used: 1.58387m
;Layer height: 0.25
;Generated with Cura_SteamEngine 3.4.1
M190 S60
M104 S200
M109 S200
M82 ;absolute extrusion mode
G28 ;Home
G1 Z15.0 F6000 ;Move the platform down 15mm
;Prime the extruder
G92 E0
G1 F200 E3
G92 E0
G92 E0
G1 F2400 E-5
;LAYER_COUNT:121
;LAYER:0
M107
M204 S5000
M205 X30 Y30
G0 F3600 X71.003 Y80.092 Z0.25
M204 S500
M205 X20 Y20
;TYPE:SKIRT
G1 F2400 E0
G1 F1800 X71.585 Y79.677 E0.02972
G1 X72.21 Y79.328 E0.05948
G1 X72.87 Y79.052 E0.08922
G1 X73.556 Y78.851 E0.11894
G1 X74.261 Y78.728 E0.14869
G1 X75.009 Y78.684 E0.17985
G1 X92.997 Y78.685 E0.9277
G1 X93.711 Y78.725 E0.95743
G1 X94.417 Y78.844 E0.9872
G1 X95.104 Y79.042 E1.01692
G1 X95.765 Y79.315 E1.04666
G1 X96.392 Y79.66 E1.07641
G1 X96.895 Y80.009 E1.10186
G1 X100.018 Y82.408 E1.26559
G1 X104.393 Y85.453 E1.4872
G1 X108.891 Y88.22 E1.70675
G1 X113.553 Y90.736 E1.927
G1 X118.402 Y93.009 E2.14965
G1 X120.716 Y93.977 E2.25393
G1 X125.727 Y95.827 E2.47601
G1 X132.608 Y97.872 E2.77446
G1 X133.281 Y98.114 E2.80419
G1 X133.923 Y98.43 E2.83394
G1 X134.526 Y98.815 E2.86368
G1 X135.082 Y99.265 E2.89342
G1 X135.584 Y99.774 E2.92314
G1 X136.026 Y100.336 E2.95287
G1 X136.403 Y100.944 E2.98261
G1 X136.71 Y101.59 E3.01235
G1 X136.943 Y102.266 E3.04208
G1 X137.098 Y102.964 E3.0718
G1 X137.184 Y104.008 E3.11535
G1 X137.183 Y115.994 E3.61367
G1 X137.143 Y116.708 E3.6434
G1 X137.024 Y117.413 E3.67313
G1 X136.826 Y118.1 E3.70285
G1 X136.553 Y118.762 E3.73263
G1 X136.208 Y119.388 E3.76234
G1 X135.796 Y119.972 E3.79206
G1 X135.32 Y120.507 E3.82183
G1 X134.788 Y120.985 E3.85156
G1 X134.206 Y121.401 E3.88131
G1 X133.394 Y121.836 E3.9196
G1 X127.311 Y124.554 E4.1966
G1 X122.618 Y127.007 E4.41676
G1 X118.089 Y129.713 E4.6361
G1 X113.7 Y132.683 E4.85643
G1 X109.485 Y135.896 E5.07678
G1 X105.468 Y139.336 E5.29665
G1 X101.662 Y142.986 E5.51589
G1 X97.7 Y147.254 E5.75801
G1 X97.185 Y147.75 E5.78773
G1 X96.617 Y148.186 E5.8175
G1 X96.005 Y148.555 E5.84721
G1 X95.355 Y148.854 E5.87696
G1 X94.676 Y149.079 E5.9067
G1 X93.976 Y149.226 E5.93644
G1 X93.015 Y149.3 E5.97651
G1 X75.015 Y149.316 E6.72486
G1 X74.301 Y149.277 E6.75459
G1 X73.595 Y149.158 E6.78436
G1 X72.908 Y148.961 E6.81407
G1 X72.246 Y148.689 E6.84383
G1 X71.619 Y148.345 E6.87356
G1 X71.035 Y147.932 E6.9033
G1 X70.5 Y147.458 E6.93301
G1 X70.021 Y146.926 E6.96278
G1 X69.605 Y146.344 E6.99252
G1 X69.256 Y145.72 E7.02224
G1 X68.979 Y145.06 E7.052
G1 X68.777 Y144.374 E7.08173
G1 X68.654 Y143.67 E7.11145
G1 X68.609 Y142.916 E7.14285
G1 X68.609 Y85.084 E9.54722
G1 X68.649 Y84.37 E9.57695
G1 X68.768 Y83.665 E9.60668
G1 X68.966 Y82.977 E9.63644
G1 X69.239 Y82.316 E9.66618
G1 X69.583 Y81.689 E9.69591
G1 X69.996 Y81.105 E9.72565
G1 X70.471 Y80.571 E9.75536
G1 X71.003 Y80.092 E9.78512
M204 S5000
M205 X30 Y30
G0 F3600 X71.393 Y80.296
M204 S500
M205 X20 Y20
G1 F1800 X71.968 Y79.911 E9.81389
G1 X72.585 Y79.596 E9.8427
G1 X73.233 Y79.353 E9.87147
G1 X73.906 Y79.186 E9.9003
G1 X74.592 Y79.098 E9.92905
G1 X75.009 Y79.084 E9.9464
G1 X92.997 Y79.085 E10.69425
G1 X93.689 Y79.125 E10.72307
G1 X94.371 Y79.244 E10.75185
G1 X95.035 Y79.442 E10.78066
G1 X95.671 Y79.714 E10.80942
G1 X96.273 Y80.058 E10.83824
G1 X96.652 Y80.327 E10.85757
G1 X99.769 Y82.721 E11.02097
G1 X104.169 Y85.784 E11.24386
G1 X108.705 Y88.574 E11.46526
G1 X113.372 Y91.093 E11.68575
G1 X118.246 Y93.378 E11.90955
G1 X120.563 Y94.347 E12.01397
G1 X125.61 Y96.21 E12.23764
G1 X132.494 Y98.256 E12.53621
G1 X133.145 Y98.491 E12.56499
G1 X133.765 Y98.8 E12.59379
G1 X134.345 Y99.178 E12.62257
G1 X134.878 Y99.621 E12.65139
G1 X135.356 Y100.121 E12.68014
G1 X135.773 Y100.674 E12.70894
G1 X136.124 Y101.271 E12.73773
G1 X136.404 Y101.905 E12.76655
G1 X136.608 Y102.566 E12.79531
G1 X136.736 Y103.247 E12.82411
G1 X136.784 Y104.008 E12.85582
G1 X136.783 Y115.994 E13.35414
G1 X136.743 Y116.685 E13.38291
G1 X136.624 Y117.367 E13.4117
G1 X136.426 Y118.031 E13.4405
G1 X136.154 Y118.668 E13.4693
G1 X135.81 Y119.269 E13.49809
G1 X135.399 Y119.826 E13.52687
G1 X134.927 Y120.332 E13.55564
G1 X134.399 Y120.781 E13.58445
G1 X133.823 Y121.166 E13.61326
G1 X133.231 Y121.471 E13.64094
G1 X127.128 Y124.198 E13.91886
G1 X122.434 Y126.652 E14.13907
G1 X117.873 Y129.377 E14.35996
G1 X113.467 Y132.357 E14.5811
G1 X109.228 Y135.589 E14.80272
G1 X105.195 Y139.043 E15.02348
G1 X101.383 Y142.699 E15.24308
G1 X97.407 Y146.982 E15.48604
G1 X96.907 Y147.461 E15.51483
G1 X96.355 Y147.88 E15.54364
G1 X95.759 Y148.233 E15.57244
G1 X95.126 Y148.514 E15.60123
G1 X94.465 Y148.721 E15.63003
G1 X93.785 Y148.85 E15.65881
G1 X93.014 Y148.9 E15.69093
G1 X75.014 Y148.916 E16.43928
G1 X74.323 Y148.877 E16.46806
G1 X73.641 Y148.758 E16.49684
G1 X72.977 Y148.561 E16.52563
G1 X72.34 Y148.29 E16.55441
G1 X71.738 Y147.946 E16.58324
G1 X71.18 Y147.536 E16.61203
G1 X70.674 Y147.064 E16.6408
G1 X70.225 Y146.537 E16.66958
G1 X69.839 Y145.961 E16.69841
G1 X69.523 Y145.345 E16.72719
G1 X69.279 Y144.697 E16.75598
G1 X69.112 Y144.025 E16.78477
G1 X69.024 Y143.338 E16.81356
G1 X69.009 Y142.916 E16.83112
G1 X69.009 Y85.084 E19.23549
G1 X69.049 Y84.393 E19.26427
G1 X69.168 Y83.71 E19.29309
G1 X69.366 Y83.047 E19.32186
G1 X69.638 Y82.41 E19.35066
G1 X69.982 Y81.809 E19.37945
G1 X70.393 Y81.251 E19.40826
G1 X70.865 Y80.745 E19.43703
G1 X71.393 Y80.296 E19.46585
M204 S5000
M205 X30 Y30
G0 F3600 X71.258 Y80.926
M204 S500
M205 X20 Y20
G1 F1800 X71.78 Y80.508 E19.49365
G1 X72.349 Y80.156 E19.52147
G1 X72.956 Y79.874 E19.54929
G1 X73.592 Y79.666 E19.57711
G1 X74.248 Y79.536 E19.60492
G1 X75.009 Y79.484 E19.63663
G1 X92.997 Y79.485 E20.38448
G1 X93.665 Y79.525 E20.4123
G1 X94.323 Y79.644 E20.44011
G1 X94.963 Y79.841 E20.46795
G1 X95.574 Y80.113 E20.49575
G1 X96.408 Y80.644 E20.53686
G1 X99.547 Y83.055 E20.70141
G1 X103.944 Y86.115 E20.92413
G1 X108.498 Y88.917 E21.14643
G1 X113.205 Y91.457 E21.3688
G1 X118.062 Y93.735 E21.59184
G1 X120.411 Y94.717 E21.69769
G1 X125.484 Y96.589 E21.9225
G1 X132.38 Y98.639 E22.2216
G1 X133.008 Y98.868 E22.24939
G1 X133.605 Y99.17 E22.27721
G1 X134.162 Y99.541 E22.30503
G1 X134.671 Y99.975 E22.33284
G1 X135.124 Y100.468 E22.36068
G1 X135.515 Y101.011 E22.3885
G1 X135.838 Y101.596 E22.41628
G1 X136.09 Y102.216 E22.4441
G1 X136.266 Y102.862 E22.47194
G1 X136.363 Y103.524 E22.49976
G1 X136.384 Y104.007 E22.51986
G1 X136.383 Y115.993 E23.01818
G1 X136.343 Y116.661 E23.046
G1 X136.224 Y117.32 E23.07384
G1 X136.027 Y117.959 E23.10164
G1 X135.755 Y118.57 E23.12945
G1 X135.412 Y119.145 E23.15728
G1 X135.003 Y119.674 E23.18508
G1 X134.534 Y120.151 E23.21289
G1 X134.011 Y120.569 E23.24073
G1 X133.442 Y120.921 E23.26855
G1 X133.068 Y121.106 E23.28589
G1 X126.952 Y123.839 E23.5644
G1 X122.23 Y126.307 E23.78592
G1 X117.657 Y129.039 E24.00738
G1 X113.226 Y132.037 E24.22981
G1 X108.991 Y135.265 E24.45119
G1 X104.931 Y138.743 E24.67346
G1 X101.086 Y142.43 E24.89493
G1 X97.113 Y146.71 E25.13772
G1 X96.63 Y147.172 E25.16551
G1 X96.094 Y147.573 E25.19334
G1 X95.515 Y147.908 E25.22115
G1 X94.9 Y148.171 E25.24896
G1 X94.258 Y148.359 E25.27677
G1 X93.598 Y148.469 E25.30459
G1 X93.014 Y148.5 E25.3289
G1 X75.014 Y148.516 E26.07726
G1 X74.346 Y148.477 E26.10508
G1 X73.688 Y148.358 E26.13288
G1 X73.048 Y148.161 E26.16072
G1 X72.437 Y147.89 E26.18851
G1 X71.862 Y147.548 E26.21632
G1 X71.332 Y147.14 E26.24413
G1 X70.854 Y146.671 E26.27197
G1 X70.436 Y146.149 E26.29977
G1 X70.083 Y145.58 E26.32761
G1 X69.801 Y144.974 E26.3554
G1 X69.593 Y144.338 E26.38322
G1 X69.462 Y143.682 E26.41103
G1 X69.409 Y142.916 E26.44295
G1 X69.409 Y85.084 E28.84733
G1 X69.449 Y84.416 E28.87515
G1 X69.568 Y83.758 E28.90295
G1 X69.765 Y83.118 E28.93079
G1 X70.037 Y82.507 E28.9586
G1 X70.38 Y81.933 E28.9864
G1 X70.789 Y81.403 E29.01423
G1 X71.258 Y80.926 E29.04204
M204 S5000
M205 X30 Y30
G0 F3600 X71.649 Y81.115
M204 S500
M205 X20 Y20
G1 F1800 X72.166 Y80.73 E29.06884
G1 X72.727 Y80.411 E29.09567
G1 X73.323 Y80.165 E29.12248
G1 X73.944 Y79.994 E29.14926
G1 X74.582 Y79.902 E29.17606
G1 X75.009 Y79.884 E29.19383
G1 X92.997 Y79.885 E29.94168
G1 X93.641 Y79.925 E29.96851
G1 X94.274 Y80.044 E29.99528
G1 X94.888 Y80.241 E30.02209
G1 X95.473 Y80.512 E30.0489
G1 X96.164 Y80.961 E30.08316
G1 X99.301 Y83.37 E30.2476
G1 X103.74 Y86.46 E30.47246
G1 X108.291 Y89.259 E30.69459
G1 X113.023 Y91.814 E30.91817
G1 X117.898 Y94.099 E31.14201
G1 X120.286 Y95.098 E31.24963
G1 X125.353 Y96.968 E31.47418
G1 X132.266 Y99.023 E31.77402
G1 X132.871 Y99.244 E31.8008
G1 X133.444 Y99.539 E31.82759
G1 X133.977 Y99.903 E31.85442
G1 X134.46 Y100.329 E31.8812
G1 X134.887 Y100.812 E31.908
G1 X135.251 Y101.345 E31.93484
G1 X135.546 Y101.918 E31.96163
G1 X135.768 Y102.523 E31.98842
G1 X135.913 Y103.151 E32.01522
G1 X135.984 Y104.007 E32.05093
G1 X135.983 Y115.993 E32.54925
G1 X135.943 Y116.637 E32.57608
G1 X135.824 Y117.27 E32.60285
G1 X135.627 Y117.884 E32.62966
G1 X135.356 Y118.469 E32.65647
G1 X135.014 Y119.016 E32.68329
G1 X134.608 Y119.516 E32.71007
G1 X134.142 Y119.962 E32.73688
G1 X133.625 Y120.348 E32.76371
G1 X132.905 Y120.741 E32.79781
G1 X126.769 Y123.483 E33.07723
G1 X122.046 Y125.952 E33.2988
G1 X117.442 Y128.703 E33.52178
G1 X112.994 Y131.712 E33.74505
G1 X108.734 Y134.959 E33.96774
G1 X104.658 Y138.449 E34.19083
G1 X100.807 Y142.142 E34.41266
G1 X96.82 Y146.438 E34.65633
G1 X96.353 Y146.882 E34.68312
G1 X95.835 Y147.265 E34.70991
G1 X95.273 Y147.581 E34.73671
G1 X94.676 Y147.825 E34.76352
G1 X94.054 Y147.994 E34.79032
G1 X93.416 Y148.084 E34.81711
G1 X93.014 Y148.1 E34.83384
G1 X75.014 Y148.116 E35.58219
G1 X74.37 Y148.077 E35.60901
G1 X73.737 Y147.958 E35.63579
G1 X73.122 Y147.762 E35.66263
G1 X72.537 Y147.491 E35.68943
G1 X71.99 Y147.15 E35.71623
G1 X71.49 Y146.744 E35.74301
G1 X71.043 Y146.279 E35.76982
G1 X70.657 Y145.762 E35.79665
G1 X70.338 Y145.202 E35.82344
G1 X70.092 Y144.607 E35.85021
G1 X69.92 Y143.985 E35.87704
G1 X69.827 Y143.347 E35.90385
G1 X69.809 Y142.916 E35.92178
G1 X69.809 Y85.084 E38.32616
G1 X69.849 Y84.441 E38.35294
G1 X69.968 Y83.807 E38.37976
G1 X70.165 Y83.193 E38.40657
G1 X70.436 Y82.608 E38.43337
G1 X70.778 Y82.061 E38.46019
G1 X71.184 Y81.561 E38.48697
G1 X71.649 Y81.115 E38.51376
M204 S5000
M205 X30 Y30
G1 F2400 E33.51376
G0 F3600 X75.614 Y84.41
G0 X75.614 Y85.689
G0 X77.83 Y113.755
G0 X77.9 Y113.825
M204 S500
M205 X20 Y20
;TYPE:WALL-INNER
G1 F2400 E38.51376
G1 F1800 X77.9 Y126.025 E39.02098
G1 X90.1 Y126.025 E39.52819
G1 X90.1 Y113.825 E40.03541
G1 X77.9 Y113.825 E40.54263
M204 S5000
M205 X30 Y30
G0 F3600 X77.83 Y113.755
G0 X77.872 Y126.053
G0 X92.33 Y142.255
G0 X92.4 Y142.325
M204 S500
M205 X20 Y20
G1 F1800 X75.6 Y142.325 E41.24109
G1 X75.6 Y85.675 E43.59632
G1 X92.4 Y85.675 E44.29479
G1 X92.4 Y142.325 E46.65002
M204 S5000
M205 X30 Y30
G0 F3600 X92.8 Y142.725
M204 S500
M205 X20 Y20
;TYPE:WALL-OUTER
G1 F1800 X75.2 Y142.725 E47.38174
G1 X75.2 Y85.275 E49.77023
G1 X92.8 Y85.275 E50.50196
G1 X92.8 Y142.725 E52.89045
M204 S5000
M205 X30 Y30
G0 F3600 X92.6 Y142.725
G0 X92.33 Y142.255
G0 X77.872 Y126.053
G0 X77.872 Y113.797
G0 X78.3 Y113.725
G0 X78.3 Y114.225
M204 S500
M205 X20 Y20
G1 F1800 X78.3 Y125.625 E53.36441
G1 X89.7 Y125.625 E53.83837
G1 X89.7 Y114.225 E54.31232
G1 X78.3 Y114.225 E54.78628
M204 S5000
M205 X30 Y30
G0 F3600 X78.3 Y114.425
G0 X77.8 Y114.425
G0 X77.51 Y113.435
M204 S500
M205 X20 Y20
;TYPE:SKIN
G1 F1800 X77.51 Y126.415 E55.32592
G1 X90.49 Y126.415 E55.86557
G1 X90.49 Y113.435 E56.40522
G1 X77.51 Y113.435 E56.94486
M204 S5000
M205 X30 Y30
G0 F3600 X75.99 Y141.935
M204 S500
M205 X20 Y20
G1 F1800 X75.99 Y86.065 E59.26767
G1 X92.01 Y86.065 E59.9337
G1 X92.01 Y141.935 E62.25651
G1 X75.99 Y141.935 E62.92254
M204 S5000
M205 X30 Y30
G0 F3600 X76.7 Y141.754
M204 S500
M205 X20 Y20
G1 F1800 X76.169 Y141.223 E62.95376
M204 S5000
M205 X30 Y30
G0 F3600 X76.169 Y140.657
M204 S500
M205 X20 Y20
G1 F1800 X77.266 Y141.754 E63.01826
G1 X77.336 Y141.824
M204 S5000
M205 X30 Y30
G0 F3600 X77.831 Y141.754
M204 S500
M205 X20 Y20
G1 F1800 X76.169 Y140.091 E63.11601
G1 X76.099 Y140.021
M204 S5000
M205 X30 Y30
G0 F3600 X76.169 Y139.526
M204 S500
M205 X20 Y20
G1 F1800 X78.397 Y141.754 E63.24701
G1 X78.467 Y141.824
M204 S5000
M205 X30 Y30
G0 F3600 X78.963 Y141.754
M204 S500
M205 X20 Y20
G1 F1800 X76.169 Y138.96 E63.41128
G1 X76.099 Y138.89
M204 S5000
M205 X30 Y30
G0 F3600 X76.169 Y138.394
M204 S500
M205 X20 Y20
G1 F1800 X79.529 Y141.754 E63.60884
G1 X79.599 Y141.824
M204 S5000
M205 X30 Y30
G0 F3600 X80.094 Y141.754
M204 S500
M205 X20 Y20
G1 F1800 X76.169 Y137.829 E63.83961
G1 X76.099 Y137.759
M204 S5000
M205 X30 Y30
G0 F3600 X76.169 Y137.263
M204 S500
M205 X20 Y20
G1 F1800 X80.66 Y141.754 E64.10367
G1 X80.73 Y141.824
M204 S5000
M205 X30 Y30
G0 F3600 X81.226 Y141.754
M204 S500
M205 X20 Y20
G1 F1800 X76.169 Y136.697 E64.401
G1 X76.099 Y136.627
M204 S5000
M205 X30 Y30
G0 F3600 X76.169 Y136.132
M204 S500
M205 X20 Y20
G1 F1800 X81.791 Y141.754 E64.73155
G1 X81.861 Y141.824
M204 S5000
M205 X30 Y30
G0 F3600 X82.357 Y141.754
M204 S500
M205 X20 Y20
G1 F1800 X76.169 Y135.566 E65.09538
G1 X76.099 Y135.496
M204 S5000
M205 X30 Y30
G0 F3600 X76.169 Y135
M204 S500
M205 X20 Y20
G1 F1800 X82.923 Y141.754 E65.49249
G1 X82.993 Y141.824
M204 S5000
M205 X30 Y30
G0 F3600 X83.488 Y141.754
M204 S500
M205 X20 Y20
G1 F1800 X76.169 Y134.435 E65.92282
G1 X76.099 Y134.365
M204 S5000
M205 X30 Y30
G0 F3600 X76.169 Y133.869
M204 S500
M205 X20 Y20
G1 F1800 X84.054 Y141.754 E66.38643
G1 X84.124 Y141.824
M204 S5000
M205 X30 Y30
G0 F3600 X84.62 Y141.754
M204 S500
M205 X20 Y20
G1 F1800 X76.169 Y133.303 E66.88331
G1 X76.099 Y133.233
M204 S5000
M205 X30 Y30
G0 F3600 X76.169 Y132.738
M204 S500
M205 X20 Y20
G1 F1800 X85.185 Y141.754 E67.41342
G1 X85.255 Y141.824
M204 S5000
M205 X30 Y30
G0 F3600 X85.751 Y141.754
M204 S500
M205 X20 Y20
G1 F1800 X76.169 Y132.172 E67.97681
G1 X76.099 Y132.102
M204 S5000
M205 X30 Y30
G0 F3600 X76.169 Y131.606
M204 S500
M205 X20 Y20
G1 F1800 X86.317 Y141.754 E68.57347
G1 X86.387 Y141.824
M204 S5000
M205 X30 Y30
G0 F3600 X86.882 Y141.754
M204 S500
M205 X20 Y20
G1 F1800 X76.169 Y131.041 E69.20335
G1 X76.099 Y130.971
M204 S5000
M205 X30 Y30
G0 F3600 X76.169 Y130.475
M204 S500
M205 X20 Y20
G1 F1800 X87.448 Y141.754 E69.86651
G1 X87.518 Y141.824
M204 S5000
M205 X30 Y30
G0 F3600 X88.014 Y141.754
M204 S500
M205 X20 Y20
G1 F1800 X76.169 Y129.909 E70.56295
G1 X76.099 Y129.839
M204 S5000
M205 X30 Y30
G0 F3600 X76.169 Y129.343
M204 S500
M205 X20 Y20
G1 F1800 X88.579 Y141.754 E71.29264
G1 X88.649 Y141.824
M204 S5000
M205 X30 Y30
G0 F3600 X89.145 Y141.754
M204 S500
M205 X20 Y20
G1 F1800 X76.169 Y128.778 E72.05558
G1 X76.099 Y128.708
M204 S5000
M205 X30 Y30
G0 F3600 X76.169 Y128.212
M204 S500
M205 X20 Y20
G1 F1800 X89.711 Y141.754 E72.8518
G1 X89.781 Y141.824
M204 S5000
M205 X30 Y30
G0 F3600 X90.277 Y141.754
M204 S500
M205 X20 Y20
G1 F1800 X76.169 Y127.646 E73.6813
G1 X76.099 Y127.576
M204 S5000
M205 X30 Y30
G0 F3600 X76.169 Y127.081
M204 S500
M205 X20 Y20
G1 F1800 X90.842 Y141.754 E74.54401
G1 X90.912 Y141.824
M204 S5000
M205 X30 Y30
G0 F3600 X91.408 Y141.754
M204 S500
M205 X20 Y20
G1 F1800 X76.169 Y126.515 E75.44001
G1 X76.099 Y126.445
M204 S5000
M205 X30 Y30
G0 F3600 X76.169 Y125.949
M204 S500
M205 X20 Y20
G1 F1800 X91.829 Y141.61 E76.36079
G1 X91.899 Y141.68
M204 S5000
M205 X30 Y30
G0 F3600 X91.829 Y141.044
M204 S500
M205 X20 Y20
G1 F1800 X77.379 Y126.594 E77.21039
G1 X77.309 Y126.524
M204 S5000
M205 X30 Y30
G0 F3600 X77.329 Y126.544
M204 S500
M205 X20 Y20
G1 F1800 X76.169 Y125.384 E77.27859
G1 X76.099 Y125.314
M204 S5000
M205 X30 Y30
G0 F3600 X76.169 Y124.818
M204 S500
M205 X20 Y20
G1 F1800 X77.329 Y125.978 E77.3468
G1 X77.399 Y126.048
M204 S5000
M205 X30 Y30
G0 F3600 X77.329 Y125.413
M204 S500
M205 X20 Y20
G1 F1800 X76.169 Y124.252 E77.41503
G1 X76.099 Y124.182
M204 S5000
M205 X30 Y30
G0 F3600 X76.169 Y123.687
M204 S500
M205 X20 Y20
G1 F1800 X77.329 Y124.847 E77.48323
G1 X77.399 Y124.917
M204 S5000
M205 X30 Y30
G0 F3600 X77.329 Y124.281
M204 S500
M205 X20 Y20
G1 F1800 X76.169 Y123.121 E77.55144
G1 X76.099 Y123.051
M204 S5000
M205 X30 Y30
G0 F3600 X76.169 Y122.555
M204 S500
M205 X20 Y20
G1 F1800 X77.329 Y123.716 E77.61967
