;FLAVOR:Marlin
;TIME:1503
;Filament used: 1.27312m
;Layer height: 0.25
;Generated with Cura_SteamEngine 3.4.1
M190 S60
M104 S200
M109 S200
M82 ;absolute extrusion mode
G28 ;Home
G1 Z15.0 F6000 ;Move the platform down 15mm
;Prime the extruder
G92 E0
G1 F200 E3
G92 E0
G92 E0
G1 F2400 E-5
;LAYER_COUNT:121
;LAYER:0
M107
M204 S5000
M205 X30 Y30
G0 F3600 X95.996 Y77.105 Z0.25
M204 S500
M205 X20 Y20
;TYPE:SKIRT
G1 F2400 E0
G1 F1800 X96.471 Y76.571 E0.02971
G1 X97.003 Y76.092 E0.05948
G1 X97.585 Y75.677 E0.08919
G1 X98.21 Y75.328 E0.11895
G1 X98.87 Y75.052 E0.1487
G1 X99.556 Y74.851 E0.17842
G1 X100.261 Y74.728 E0.20817
G1 X101.009 Y74.684 E0.23932
G1 X118.991 Y74.685 E0.98693
G1 X119.705 Y74.725 E1.01666
G1 X120.411 Y74.844 E1.04642
G1 X121.098 Y75.042 E1.07615
G1 X121.759 Y75.315 E1.10588
G1 X122.386 Y75.66 E1.13563
G1 X122.97 Y76.072 E1.16535
G1 X123.505 Y76.548 E1.19512
G1 X123.983 Y77.08 E1.22486
G1 X124.398 Y77.662 E1.25457
G1 X124.747 Y78.286 E1.2843
G1 X125.023 Y78.946 E1.31404
G1 X125.224 Y79.633 E1.3438
G1 X125.347 Y80.337 E1.37351
G1 X125.391 Y81.085 E1.40466
G1 X125.391 Y138.916 E3.809
G1 X125.351 Y139.63 E3.83873
G1 X125.232 Y140.335 E3.86845
G1 X125.034 Y141.023 E3.89822
G1 X124.761 Y141.684 E3.92795
G1 X124.417 Y142.311 E3.95768
G1 X124.004 Y142.895 E3.98742
G1 X123.529 Y143.429 E4.01714
G1 X122.997 Y143.908 E4.0469
G1 X122.415 Y144.323 E4.07662
G1 X121.79 Y144.672 E4.10638
G1 X121.13 Y144.948 E4.13612
G1 X120.444 Y145.149 E4.16584
G1 X119.739 Y145.272 E4.19559
G1 X118.991 Y145.316 E4.22674
G1 X101.009 Y145.316 E4.97435
G1 X100.295 Y145.276 E5.00408
G1 X99.59 Y145.157 E5.03381
G1 X98.902 Y144.959 E5.06357
G1 X98.241 Y144.686 E5.0933
G1 X97.614 Y144.342 E5.12304
G1 X97.03 Y143.929 E5.15277
G1 X96.496 Y143.454 E5.18249
G1 X96.017 Y142.922 E5.21225
G1 X95.602 Y142.34 E5.24197
G1 X95.253 Y141.715 E5.27173
G1 X94.977 Y141.055 E5.30147
G1 X94.776 Y140.369 E5.33119
G1 X94.653 Y139.664 E5.36094
G1 X94.609 Y138.916 E5.3921
G1 X94.609 Y81.084 E7.79647
G1 X94.649 Y80.37 E7.8262
G1 X94.768 Y79.665 E7.85593
G1 X94.966 Y78.977 E7.88569
G1 X95.239 Y78.316 E7.91543
G1 X95.583 Y77.689 E7.94516
G1 X95.996 Y77.105 E7.9749
M204 S5000
M205 X30 Y30
G0 F3600 X96.393 Y77.251
M204 S500
M205 X20 Y20
G1 F1800 X96.865 Y76.745 E8.00367
G1 X97.393 Y76.296 E8.03248
G1 X97.968 Y75.911 E8.06125
G1 X98.585 Y75.596 E8.09005
G1 X99.233 Y75.353 E8.11882
G1 X99.906 Y75.186 E8.14765
G1 X100.592 Y75.098 E8.17641
G1 X101.009 Y75.084 E8.19375
G1 X118.991 Y75.085 E8.94136
G1 X119.683 Y75.125 E8.97018
G1 X120.365 Y75.244 E8.99896
G1 X121.029 Y75.442 E9.02777
G1 X121.665 Y75.714 E9.05653
G1 X122.267 Y76.058 E9.08535
G1 X122.824 Y76.469 E9.11413
G1 X123.33 Y76.941 E9.1429
G1 X123.779 Y77.469 E9.17172
G1 X124.164 Y78.045 E9.20052
G1 X124.48 Y78.661 E9.2293
G1 X124.722 Y79.31 E9.2581
G1 X124.889 Y79.982 E9.28689
G1 X124.977 Y80.669 E9.31568
G1 X124.991 Y81.085 E9.33299
G1 X124.991 Y138.916 E11.73732
G1 X124.951 Y139.607 E11.7661
G1 X124.832 Y140.29 E11.79492
G1 X124.634 Y140.953 E11.82369
G1 X124.362 Y141.59 E11.85249
G1 X124.018 Y142.191 E11.88128
G1 X123.607 Y142.749 E11.91009
G1 X123.135 Y143.255 E11.93886
G1 X122.607 Y143.704 E11.96767
G1 X122.032 Y144.089 E11.99644
G1 X121.415 Y144.404 E12.02524
G1 X120.767 Y144.647 E12.05402
G1 X120.094 Y144.814 E12.08285
G1 X119.408 Y144.902 E12.1116
G1 X118.991 Y144.916 E12.12895
G1 X101.009 Y144.916 E12.87655
G1 X100.318 Y144.876 E12.90533
G1 X99.635 Y144.757 E12.93415
G1 X98.972 Y144.559 E12.96292
G1 X98.335 Y144.287 E12.99172
G1 X97.734 Y143.943 E13.02051
G1 X97.176 Y143.532 E13.04932
G1 X96.67 Y143.06 E13.07809
G1 X96.221 Y142.532 E13.1069
G1 X95.836 Y141.957 E13.13567
G1 X95.521 Y141.34 E13.16447
G1 X95.278 Y140.692 E13.19325
G1 X95.111 Y140.019 E13.22208
G1 X95.023 Y139.333 E13.25083
G1 X95.009 Y138.916 E13.26818
G1 X95.009 Y81.084 E15.67255
G1 X95.049 Y80.393 E15.70133
G1 X95.168 Y79.71 E15.73015
G1 X95.366 Y79.047 E15.75892
G1 X95.638 Y78.41 E15.78772
G1 X95.982 Y77.809 E15.81651
G1 X96.393 Y77.251 E15.84532
M204 S5000
M205 X30 Y30
G0 F3600 X96.789 Y77.403
M204 S500
M205 X20 Y20
G1 F1800 X97.258 Y76.926 E15.87313
G1 X97.78 Y76.508 E15.90093
G1 X98.349 Y76.156 E15.92875
G1 X98.956 Y75.874 E15.95658
G1 X99.592 Y75.666 E15.9844
G1 X100.248 Y75.536 E16.0122
G1 X101.009 Y75.484 E16.04391
G1 X118.991 Y75.485 E16.79152
G1 X119.659 Y75.525 E16.81934
G1 X120.317 Y75.644 E16.84714
G1 X120.957 Y75.841 E16.87498
G1 X121.568 Y76.113 E16.90279
G1 X122.143 Y76.456 E16.93062
G1 X122.672 Y76.865 E16.95842
G1 X123.149 Y77.334 E16.98623
G1 X123.567 Y77.857 E17.01407
G1 X123.919 Y78.425 E17.04185
G1 X124.201 Y79.032 E17.06968
G1 X124.409 Y79.668 E17.0975
G1 X124.539 Y80.324 E17.1253
G1 X124.591 Y81.085 E17.15701
G1 X124.591 Y138.916 E19.56135
G1 X124.551 Y139.584 E19.58917
G1 X124.432 Y140.242 E19.61697
G1 X124.235 Y140.882 E19.64481
G1 X123.963 Y141.493 E19.67261
G1 X123.62 Y142.067 E19.70042
G1 X123.211 Y142.597 E19.72825
G1 X122.742 Y143.074 E19.75606
G1 X122.22 Y143.492 E19.78386
G1 X121.651 Y143.844 E19.81168
G1 X121.044 Y144.126 E19.83951
G1 X120.408 Y144.334 E19.86733
G1 X119.752 Y144.464 E19.89513
G1 X118.991 Y144.516 E19.92684
G1 X101.009 Y144.516 E20.67445
G1 X100.341 Y144.476 E20.70227
G1 X99.683 Y144.357 E20.73007
G1 X99.043 Y144.16 E20.75791
G1 X98.432 Y143.888 E20.78572
G1 X97.858 Y143.545 E20.81352
G1 X97.328 Y143.136 E20.84135
G1 X96.851 Y142.667 E20.86916
G1 X96.433 Y142.145 E20.89696
G1 X96.081 Y141.576 E20.92478
G1 X95.799 Y140.969 E20.95261
G1 X95.591 Y140.333 E20.98043
G1 X95.461 Y139.677 E21.00823
G1 X95.409 Y138.916 E21.03994
G1 X95.409 Y81.084 E23.44432
G1 X95.449 Y80.416 E23.47214
G1 X95.568 Y79.758 E23.49994
G1 X95.765 Y79.118 E23.52778
G1 X96.037 Y78.507 E23.55559
G1 X96.38 Y77.933 E23.58339
G1 X96.789 Y77.403 E23.61122
M204 S5000
M205 X30 Y30
G0 F3600 X96.778 Y78.061
M204 S500
M205 X20 Y20
G1 F1800 X97.184 Y77.561 E23.638
G1 X97.649 Y77.115 E23.66478
G1 X98.166 Y76.73 E23.69158
G1 X98.727 Y76.411 E23.71841
G1 X99.323 Y76.165 E23.74522
G1 X99.944 Y75.994 E23.772
G1 X100.582 Y75.902 E23.7988
G1 X101.009 Y75.884 E23.81657
G1 X118.991 Y75.885 E24.56417
G1 X119.635 Y75.925 E24.591
G1 X120.268 Y76.044 E24.61778
G1 X120.882 Y76.241 E24.64459
G1 X121.467 Y76.512 E24.67139
G1 X122.014 Y76.854 E24.69821
G1 X122.514 Y77.26 E24.72499
G1 X122.96 Y77.726 E24.75181
G1 X123.345 Y78.243 E24.77861
G1 X123.664 Y78.803 E24.8054
G1 X123.91 Y79.399 E24.83221
G1 X124.081 Y80.021 E24.85903
G1 X124.173 Y80.659 E24.88582
G1 X124.191 Y81.085 E24.90355
G1 X124.191 Y138.916 E27.30789
G1 X124.151 Y139.559 E27.33467
G1 X124.032 Y140.193 E27.36149
G1 X123.835 Y140.807 E27.3883
G1 X123.564 Y141.392 E27.4151
G1 X123.222 Y141.939 E27.44192
G1 X122.816 Y142.439 E27.4687
G1 X122.351 Y142.885 E27.49549
G1 X121.834 Y143.27 E27.52229
G1 X121.273 Y143.589 E27.54912
G1 X120.677 Y143.835 E27.57592
G1 X120.056 Y144.006 E27.6027
G1 X119.418 Y144.098 E27.6295
G1 X118.991 Y144.116 E27.64727
G1 X101.009 Y144.116 E28.39488
G1 X100.366 Y144.076 E28.42166
G1 X99.732 Y143.957 E28.44848
G1 X99.118 Y143.76 E28.47529
G1 X98.533 Y143.489 E28.50209
G1 X97.986 Y143.147 E28.52891
G1 X97.486 Y142.741 E28.55569
G1 X97.04 Y142.276 E28.58248
G1 X96.655 Y141.759 E28.60928
G1 X96.336 Y141.198 E28.63611
G1 X96.09 Y140.602 E28.66292
G1 X95.919 Y139.981 E28.68969
G1 X95.827 Y139.343 E28.71649
G1 X95.809 Y138.916 E28.73426
G1 X95.809 Y81.084 E31.13864
G1 X95.849 Y80.441 E31.16542
G1 X95.968 Y79.807 E31.19224
G1 X96.165 Y79.193 E31.21905
G1 X96.436 Y78.608 E31.24585
G1 X96.778 Y78.061 E31.27268
M204 S5000
M205 X30 Y30
G1 F2400 E26.27268
G0 F3600 X100.335 Y81.689
G0 X101.614 Y81.689
G0 X103.83 Y109.755
G0 X103.9 Y109.825
M204 S500
M205 X20 Y20
;TYPE:WALL-INNER
G1 F2400 E31.27268
G1 F1800 X103.9 Y122.025 E31.77989
G1 X116.1 Y122.025 E32.28711
G1 X116.1 Y109.825 E32.79433
G1 X103.9 Y109.825 E33.30154
M204 S5000
M205 X30 Y30
G0 F3600 X103.83 Y109.755
G0 X103.872 Y122.053
G0 X118.33 Y138.255
G0 X118.4 Y138.325
M204 S500
M205 X20 Y20
G1 F1800 X101.6 Y138.325 E34.00001
G1 X101.6 Y81.675 E36.35524
G1 X118.4 Y81.675 E37.0537
G1 X118.4 Y138.325 E39.40894
M204 S5000
M205 X30 Y30
G0 F3600 X118.8 Y138.725
M204 S500
M205 X20 Y20
;TYPE:WALL-OUTER
G1 F1800 X101.2 Y138.725 E40.14066
G1 X101.2 Y81.275 E42.52915
G1 X118.8 Y81.275 E43.26088
G1 X118.8 Y138.725 E45.64937
M204 S5000
M205 X30 Y30
G0 F3600 X118.6 Y138.725
G0 X118.33 Y138.255
G0 X103.872 Y122.053
G0 X103.872 Y109.797
G0 X104.3 Y109.725
G0 X104.3 Y110.225
M204 S500
M205 X20 Y20
G1 F1800 X104.3 Y121.625 E46.12333
G1 X115.7 Y121.625 E46.59728
G1 X115.7 Y110.225 E47.07124
G1 X104.3 Y110.225 E47.5452
M204 S5000
M205 X30 Y30
G0 F3600 X104.3 Y110.425
G0 X103.8 Y110.425
G0 X103.51 Y109.435
M204 S500
M205 X20 Y20
;TYPE:SKIN
G1 F1800 X103.51 Y122.415 E48.08484
G1 X116.49 Y122.415 E48.62449
G1 X116.49 Y109.435 E49.16413
G1 X103.51 Y109.435 E49.70378
M204 S5000
M205 X30 Y30
G0 F3600 X101.99 Y137.935
M204 S500
M205 X20 Y20
G1 F1800 X101.99 Y82.065 E52.02658
G1 X118.01 Y82.065 E52.69262
G1 X118.01 Y137.935 E55.01542
G1 X101.99 Y137.935 E55.68146
M204 S5000
M205 X30 Y30
G0 F3600 X102.681 Y137.754
M204 S500
M205 X20 Y20
G1 F1800 X102.169 Y137.242 E55.71156
M204 S5000
M205 X30 Y30
G0 F3600 X102.169 Y136.676
M204 S500
M205 X20 Y20
G1 F1800 X103.247 Y137.754 E55.77494
G1 X103.317 Y137.824
M204 S5000
M205 X30 Y30
G0 F3600 X103.813 Y137.754
M204 S500
M205 X20 Y20
G1 F1800 X102.169 Y136.11 E55.8716
G1 X102.099 Y136.04
M204 S5000
M205 X30 Y30
G0 F3600 X102.169 Y135.545
M204 S500
M205 X20 Y20
G1 F1800 X104.378 Y137.754 E56.00148
G1 X104.448 Y137.824
M204 S5000
M205 X30 Y30
G0 F3600 X104.944 Y137.754
M204 S500
M205 X20 Y20
G1 F1800 X102.169 Y134.979 E56.16464
G1 X102.099 Y134.909
M204 S5000
M205 X30 Y30
G0 F3600 X102.169 Y134.413
M204 S500
M205 X20 Y20
G1 F1800 X105.51 Y137.754 E56.36108
G1 X105.58 Y137.824
M204 S5000
M205 X30 Y30
G0 F3600 X106.075 Y137.754
M204 S500
M205 X20 Y20
G1 F1800 X102.169 Y133.848 E56.59074
G1 X102.099 Y133.778
M204 S5000
M205 X30 Y30
G0 F3600 X102.169 Y133.282
M204 S500
M205 X20 Y20
G1 F1800 X106.641 Y137.754 E56.85368
G1 X106.711 Y137.824
M204 S5000
M205 X30 Y30
G0 F3600 X107.207 Y137.754
M204 S500
M205 X20 Y20
G1 F1800 X102.169 Y132.716 E57.14989
G1 X102.099 Y132.646
M204 S5000
M205 X30 Y30
G0 F3600 X102.169 Y132.151
M204 S500
M205 X20 Y20
G1 F1800 X107.772 Y137.754 E57.47933
G1 X107.842 Y137.824
M204 S5000
M205 X30 Y30
G0 F3600 X108.338 Y137.754
M204 S500
M205 X20 Y20
G1 F1800 X102.169 Y131.585 E57.84204
G1 X102.099 Y131.515
M204 S5000
M205 X30 Y30
G0 F3600 X102.169 Y131.019
M204 S500
M205 X20 Y20
G1 F1800 X108.904 Y137.754 E58.23803
G1 X108.974 Y137.824
M204 S5000
M205 X30 Y30
G0 F3600 X109.47 Y137.754
M204 S500
M205 X20 Y20
G1 F1800 X102.169 Y130.454 E58.66727
G1 X102.099 Y130.384
M204 S5000
M205 X30 Y30
G0 F3600 X102.169 Y129.888
M204 S500
M205 X20 Y20
G1 F1800 X110.035 Y137.754 E59.12976
G1 X110.105 Y137.824
M204 S5000
M205 X30 Y30
G0 F3600 X110.601 Y137.754
M204 S500
M205 X20 Y20
G1 F1800 X102.169 Y129.322 E59.62553
G1 X102.099 Y129.252
M204 S5000
M205 X30 Y30
G0 F3600 X102.169 Y128.757
M204 S500
M205 X20 Y20
G1 F1800 X111.167 Y137.754 E60.15455
G1 X111.237 Y137.824
M204 S5000
M205 X30 Y30
G0 F3600 X111.732 Y137.754
M204 S500
M205 X20 Y20
G1 F1800 X102.169 Y128.191 E60.71682
G1 X102.099 Y128.121
M204 S5000
M205 X30 Y30
G0 F3600 X102.169 Y127.625
M204 S500
M205 X20 Y20
G1 F1800 X112.298 Y137.754 E61.31237
G1 X112.368 Y137.824
M204 S5000
M205 X30 Y30
G0 F3600 X112.864 Y137.754
M204 S500
M205 X20 Y20
G1 F1800 X102.169 Y127.06 E61.94116
G1 X102.099 Y126.99
M204 S5000
M205 X30 Y30
G0 F3600 X102.169 Y126.494
M204 S500
M205 X20 Y20
G1 F1800 X113.429 Y137.754 E62.60321
G1 X113.499 Y137.824
M204 S5000
M205 X30 Y30
G0 F3600 X113.995 Y137.754
M204 S500
M205 X20 Y20
G1 F1800 X102.169 Y125.928 E63.29853
G1 X102.099 Y125.858
M204 S5000
M205 X30 Y30
G0 F3600 X102.169 Y125.362
M204 S500
M205 X20 Y20
G1 F1800 X114.561 Y137.754 E64.02713
G1 X114.631 Y137.824
M204 S5000
M205 X30 Y30
G0 F3600 X115.126 Y137.754
M204 S500
M205 X20 Y20
G1 F1800 X102.169 Y124.797 E64.78895
G1 X102.099 Y124.727
M204 S5000
M205 X30 Y30
G0 F3600 X102.169 Y124.231
M204 S500
M205 X20 Y20
G1 F1800 X115.692 Y137.754 E65.58405
G1 X115.762 Y137.824
M204 S5000
M205 X30 Y30
G0 F3600 X116.258 Y137.754
M204 S500
M205 X20 Y20
G1 F1800 X102.169 Y123.665 E66.41243
G1 X102.099 Y123.595
M204 S5000
M205 X30 Y30
G0 F3600 X102.169 Y123.1
M204 S500
M205 X20 Y20
G1 F1800 X116.823 Y137.754 E67.27403
G1 X116.893 Y137.824
M204 S5000
M205 X30 Y30
G0 F3600 X117.389 Y137.754
M204 S500
M205 X20 Y20
G1 F1800 X102.169 Y122.534 E68.16891
G1 X102.099 Y122.464
M204 S5000
M205 X30 Y30
G0 F3600 X102.169 Y121.968
M204 S500
M205 X20 Y20
G1 F1800 X117.829 Y137.628 E69.08966
G1 X117.899 Y137.698
M204 S5000
M205 X30 Y30
G0 F3600 X117.829 Y137.062
M204 S500
M205 X20 Y20
G1 F1800 X103.361 Y122.594 E69.94032
G1 X103.291 Y122.524
M204 S5000
M205 X30 Y30
G0 F3600 X103.33 Y122.563
M204 S500
M205 X20 Y20
G1 F1800 X102.169 Y121.403 E70.00855
G1 X102.099 Y121.333
M204 S5000
M205 X30 Y30
G0 F3600 X102.169 Y120.837
M204 S500
M205 X20 Y20
G1 F1800 X103.33 Y121.997 E70.07679
G1 X103.4 Y122.067
M204 S5000
M205 X30 Y30
G0 F3600 X103.33 Y121.432
M204 S500
M205 X20 Y20
G1 F1800 X102.169 Y120.271 E70.14505
G1 X102.099 Y120.201
M204 S5000
M205 X30 Y30
G0 F3600 X102.169 Y119.706
M204 S500
M205 X20 Y20
G1 F1800 X103.33 Y120.866 E70.21328
G1 X103.4 Y120.936
M204 S5000
M205 X30 Y30
G0 F3600 X103.33 Y120.3
M204 S500
M205 X20 Y20
G1 F1800 X102.169 Y119.14 E70.28152
G1 X102.099 Y119.07
M204 S5000
M205 X30 Y30
G0 F3600 X102.169 Y118.574
M204 S500
M205 X20 Y20
G1 F1800 X103.33 Y119.735 E70.34978
G1 X103.4 Y119.805
M204 S5000
M205 X30 Y30
G0 F3600 X103.33 Y119.169
M204 S500
M205 X20 Y20
G1 F1800 X102.169 Y118.009 E70.41801
G1 X102.099 Y117.939
M204 S5000
M205 X30 Y30
G0 F3600 X102.169 Y117.443
M204 S500
M205 X20 Y20
G1 F1800 X103.33 Y118.603 E70.48624
G1 X103.4 Y118.673
M204 S5000
M205 X30 Y30
G0 F3600 X103.33 Y118.038
M204 S500
M205 X20 Y20
G1 F1800 X102.169 Y116.877 E70.55451
G1 X102.099 Y116.807
M204 S5000
M205 X30 Y30
G0 F3600 X102.169 Y116.311
M204 S500
M205 X20 Y20
G1 F1800 X103.33 Y117.472 E70.62277
G1 X103.4 Y117.542
M204 S5000
M205 X30 Y30
G0 F3600 X103.33 Y116.906
M204 S500
M205 X20 Y20
G1 F1800 X102.169 Y115.746 E70.691
G1 X102.099 Y115.676
M204 S5000
M205 X30 Y30
G0 F3600 X102.169 Y115.18
M204 S500
M205 X20 Y20
G1 F1800 X103.33 Y116.34 E70.75923
G1 X103.4 Y116.41
M204 S5000
M205 X30 Y30
G0 F3600 X103.33 Y115.775
M204 S500
M205 X20 Y20
G1 F1800 X102.169 Y114.614 E70.8275
G1 X102.099 Y114.544
M204 S5000
M205 X30 Y30
G0 F3600 X102.169 Y114.049
M204 S500
M205 X20 Y20
G1 F1800 X103.33 Y115.209 E70.89573
G1 X103.4 Y115.279
M204 S5000
M205 X30 Y30
G0 F3600 X103.33 Y114.643
M204 S500
M205 X20 Y20
G1 F1800 X102.169 Y113.483 E70.96396
G1 X102.099 Y113.413
M204 S5000
M205 X30 Y30
G0 F3600 X102.169 Y112.917
M204 S500
M205 X20 Y20
G1 F1800 X103.33 Y114.078 E71.03222
G1 X103.4 Y114.148
M204 S5000
M205 X30 Y30
G0 F3600 X103.33 Y113.512
M204 S500
M205 X20 Y20
G1 F1800 X102.169 Y112.352 E71.10046
G1 X102.099 Y112.282
M204 S5000
M205 X30 Y30
G0 F3600 X102.169 Y111.786
M204 S500
M205 X20 Y20
G1 F1800 X103.33 Y112.946 E71.16869
G1 X103.4 Y113.016
M204 S5000
M205 X30 Y30
G0 F3600 X103.33 Y112.381
M204 S500
M205 X20 Y20
G1 F1800 X102.169 Y111.22 E71.23695
G1 X102.099 Y111.15
M204 S5000
M205 X30 Y30
G0 F3600 X102.169 Y110.655
M204 S500
