;FLAVOR:Marlin
;TIME:1859
;Filament used: 1.73878m
;Layer height: 0.3
;Generated with Cura_SteamEngine 3.4.1
M190 S65
M104 S210
M109 S210
M82 ;absolute extrusion mode
G28 ;Home
G1 Z15.0 F6000 ;Move the platform down 15mm
;Prime the extruder
G92 E0
G1 F200 E3
G92 E0
G92 E0
G1 F2400 E-4.5
;LAYER_COUNT:60
;LAYER:0
M107
M204 S5000
M205 X30 Y30
G0 F7200 X66.697 Y105.231 Z0.3
M204 S500
M205 X20 Y20
;TYPE:SKIRT
G1 F2400 E0
G1 F900 X67.115 Y104.998 E0.02507
G1 X69.258 Y103.912 E0.15092
G1 X73.92 Y101.304 E0.43076
G1 X78.383 Y98.466 E0.70781
G1 X82.674 Y95.381 E0.98466
G1 X86.805 Y92.043 E1.26288
G1 X90.764 Y88.456 E1.54273
G1 X93.012 Y86.234 E1.70831
G1 X93.548 Y85.76 E1.7458
G1 X94.133 Y85.349 E1.78325
G1 X94.761 Y85.006 E1.82073
G1 X95.423 Y84.735 E1.8582
G1 X96.111 Y84.54 E1.89566
G1 X96.816 Y84.423 E1.9331
G1 X97.511 Y84.385 E1.96956
G1 X122.491 Y84.386 E3.27813
G1 X123.205 Y84.426 E3.31559
G1 X123.911 Y84.545 E3.3531
G1 X124.598 Y84.743 E3.39055
G1 X125.259 Y85.016 E3.42802
G1 X125.886 Y85.361 E3.4655
G1 X126.47 Y85.773 E3.50294
G1 X127.005 Y86.249 E3.54046
G1 X127.483 Y86.781 E3.57792
G1 X127.898 Y87.363 E3.61537
G1 X128.247 Y87.987 E3.65282
G1 X128.523 Y88.647 E3.6903
G1 X128.724 Y89.334 E3.72779
G1 X128.847 Y90.038 E3.76523
G1 X128.891 Y90.797 E3.80506
G1 X128.89 Y91.376 E3.83539
G1 X128.849 Y92.09 E3.87285
G1 X128.728 Y92.795 E3.91032
G1 X128.53 Y93.482 E3.94778
G1 X128.256 Y94.143 E3.98526
G1 X127.91 Y94.769 E4.02273
G1 X127.496 Y95.353 E4.06023
G1 X126.768 Y96.125 E4.11581
G1 X121.841 Y100.553 E4.46283
G1 X118.126 Y104.325 E4.74017
G1 X114.61 Y108.323 E5.01907
G1 X112.997 Y110.325 E5.15375
G1 X109.824 Y114.618 E5.4334
G1 X106.931 Y119.035 E5.70999
G1 X104.277 Y123.636 E5.98824
G1 X101.883 Y128.388 E6.26698
G1 X100.824 Y130.731 E6.40167
G1 X100.493 Y131.365 E6.43913
G1 X100.094 Y131.959 E6.47662
G1 X99.605 Y132.532 E6.51608
G1 X94.607 Y137.728 E6.89375
G1 X94.083 Y138.215 E6.93123
G1 X93.508 Y138.64 E6.96868
G1 X92.889 Y138.999 E7.00617
G1 X92.234 Y139.286 E7.04363
G1 X91.551 Y139.499 E7.08111
G1 X90.848 Y139.634 E7.11861
G1 X89.994 Y139.691 E7.16344
G1 X70.005 Y139.69 E8.21056
G1 X69.291 Y139.65 E8.24802
G1 X68.585 Y139.531 E8.28553
G1 X67.898 Y139.333 E8.32298
G1 X67.237 Y139.06 E8.36044
G1 X66.61 Y138.715 E8.39793
G1 X66.026 Y138.303 E8.43537
G1 X65.312 Y137.642 E8.48634
G1 X63.055 Y135.208 E8.66023
G1 X60.463 Y132.593 E8.85311
G1 X59.989 Y132.058 E8.89055
G1 X59.577 Y131.473 E8.92803
G1 X59.234 Y130.846 E8.96547
G1 X58.962 Y130.184 E9.00296
G1 X58.766 Y129.496 E9.04044
G1 X58.648 Y128.791 E9.07788
G1 X58.609 Y128.087 E9.11482
G1 X58.61 Y122.702 E9.39691
G1 X58.65 Y121.988 E9.43437
G1 X58.77 Y121.282 E9.47188
G1 X58.967 Y120.595 E9.50932
G1 X59.241 Y119.933 E9.54686
G1 X60.141 Y118.059 E9.65576
G1 X62.271 Y113.153 E9.93593
G1 X64.01 Y108.477 E10.19728
G1 X64.296 Y107.821 E10.23476
G1 X64.654 Y107.202 E10.27222
G1 X65.079 Y106.626 E10.30972
G1 X65.565 Y106.102 E10.34716
G1 X66.106 Y105.635 E10.3846
G1 X66.697 Y105.231 E10.4221
M204 S5000
M205 X30 Y30
G0 F7200 X67.296 Y105.355
M204 S500
M205 X20 Y20
G1 F900 X69.436 Y104.27 E10.54779
G1 X74.125 Y101.648 E10.82922
G1 X78.609 Y98.796 E11.1076
G1 X82.922 Y95.696 E11.38584
G1 X87.071 Y92.343 E11.66528
G1 X91.019 Y88.766 E11.94436
G1 X93.293 Y86.518 E12.11186
G1 X93.813 Y86.06 E12.14816
G1 X94.382 Y85.666 E12.18442
G1 X94.992 Y85.339 E12.22067
G1 X95.637 Y85.085 E12.25699
G1 X96.306 Y84.907 E12.29325
G1 X96.991 Y84.808 E12.32951
G1 X97.511 Y84.785 E12.35678
G1 X122.491 Y84.786 E13.66535
G1 X123.183 Y84.826 E13.70166
G1 X123.865 Y84.945 E13.73792
G1 X124.529 Y85.143 E13.77422
G1 X125.165 Y85.415 E13.81046
G1 X125.766 Y85.759 E13.84673
G1 X126.324 Y86.17 E13.88304
G1 X126.83 Y86.642 E13.91928
G1 X127.279 Y87.17 E13.95559
G1 X127.664 Y87.746 E13.99188
G1 X127.98 Y88.362 E14.02815
G1 X128.222 Y89.011 E14.06444
G1 X128.389 Y89.683 E14.10071
G1 X128.477 Y90.37 E14.13699
G1 X128.491 Y90.796 E14.15932
G1 X128.49 Y91.375 E14.18965
G1 X128.449 Y92.067 E14.22596
G1 X128.328 Y92.749 E14.26225
G1 X128.13 Y93.412 E14.2985
G1 X127.856 Y94.048 E14.33477
G1 X127.512 Y94.649 E14.37105
G1 X127.1 Y95.206 E14.40734
G1 X126.501 Y95.828 E14.45258
G1 X121.554 Y100.274 E14.801
G1 X117.841 Y104.044 E15.07819
G1 X114.292 Y108.08 E15.35973
G1 X112.68 Y110.08 E15.4943
G1 X109.497 Y114.387 E15.77484
G1 X106.588 Y118.829 E16.05299
G1 X103.931 Y123.435 E16.33155
G1 X101.514 Y128.231 E16.61288
G1 X100.459 Y130.566 E16.74711
G1 X100.138 Y131.18 E16.7834
G1 X99.749 Y131.752 E16.81964
G1 X99.316 Y132.254 E16.85437
G1 X94.318 Y137.45 E17.23204
G1 X93.81 Y137.921 E17.26833
G1 X93.251 Y138.33 E17.30461
G1 X92.649 Y138.672 E17.34088
G1 X92.011 Y138.942 E17.37717
G1 X91.347 Y139.137 E17.41343
G1 X90.664 Y139.253 E17.44972
G1 X89.994 Y139.291 E17.48487
G1 X70.005 Y139.29 E18.53199
G1 X69.313 Y139.25 E18.5683
G1 X68.631 Y139.131 E18.60457
G1 X67.967 Y138.933 E18.64086
G1 X67.331 Y138.661 E18.6771
G1 X66.73 Y138.317 E18.71338
G1 X66.172 Y137.906 E18.74968
G1 X65.606 Y137.37 E18.79051
G1 X63.364 Y134.953 E18.96321
G1 X60.747 Y132.312 E19.15798
G1 X60.289 Y131.792 E19.19428
G1 X59.894 Y131.224 E19.23052
G1 X59.566 Y130.614 E19.2668
G1 X59.312 Y129.97 E19.30307
G1 X59.133 Y129.301 E19.33935
G1 X59.032 Y128.615 E19.37567
G1 X59.009 Y128.087 E19.40335
G1 X59.01 Y122.702 E19.68545
G1 X59.05 Y122.011 E19.7217
G1 X59.17 Y121.328 E19.75803
G1 X59.367 Y120.665 E19.79426
G1 X59.601 Y120.106 E19.82601
G1 X60.515 Y118.202 E19.93665
G1 X62.64 Y113.31 E20.21604
G1 X64.385 Y108.616 E20.47838
G1 X64.663 Y107.982 E20.51464
G1 X65.013 Y107.384 E20.55094
G1 X65.429 Y106.831 E20.58719
G1 X65.906 Y106.329 E20.62347
G1 X66.438 Y105.885 E20.65977
G1 X67.296 Y105.355 E20.7126
M204 S5000
M205 X30 Y30
G0 F7200 X66.768 Y106.14
M204 S500
M205 X20 Y20
G1 F900 X67.477 Y105.712 E20.75598
G1 X69.633 Y104.619 E20.88261
G1 X74.329 Y101.993 E21.16445
G1 X78.832 Y99.129 E21.44401
G1 X83.165 Y96.015 E21.72353
G1 X87.316 Y92.66 E22.00312
G1 X91.297 Y89.052 E22.28457
G1 X93.574 Y86.802 E22.45226
G1 X94.077 Y86.361 E22.48731
G1 X94.629 Y85.983 E22.52235
G1 X95.222 Y85.674 E22.55738
G1 X95.848 Y85.438 E22.59243
G1 X96.498 Y85.277 E22.6275
G1 X97.162 Y85.196 E22.66255
G1 X97.511 Y85.185 E22.68084
G1 X122.491 Y85.186 E23.98941
G1 X123.159 Y85.226 E24.02446
G1 X123.817 Y85.345 E24.05949
G1 X124.457 Y85.542 E24.09457
G1 X125.068 Y85.814 E24.12961
G1 X125.643 Y86.157 E24.16468
G1 X126.172 Y86.566 E24.19971
G1 X126.649 Y87.035 E24.23475
G1 X127.067 Y87.558 E24.26982
G1 X127.419 Y88.126 E24.30483
G1 X127.701 Y88.733 E24.33989
G1 X127.909 Y89.369 E24.37494
G1 X128.039 Y90.025 E24.40997
G1 X128.091 Y90.796 E24.45045
G1 X128.09 Y91.375 E24.48079
G1 X128.049 Y92.042 E24.51579
G1 X127.928 Y92.701 E24.55089
G1 X127.73 Y93.34 E24.58593
G1 X127.457 Y93.95 E24.62094
G1 X127.114 Y94.524 E24.65597
G1 X126.704 Y95.053 E24.69103
G1 X126.233 Y95.53 E24.72615
G1 X121.284 Y99.978 E25.07472
G1 X117.555 Y103.764 E25.3531
G1 X113.986 Y107.823 E25.63623
G1 X112.365 Y109.835 E25.77158
G1 X109.171 Y114.156 E26.05306
G1 X106.245 Y118.624 E26.33284
G1 X103.577 Y123.248 E26.6125
G1 X101.155 Y128.055 E26.89447
G1 X100.095 Y130.401 E27.02932
G1 X99.783 Y130.994 E27.06443
G1 X99.404 Y131.544 E27.09942
G1 X99.028 Y131.977 E27.12946
G1 X94.03 Y137.173 E27.50713
G1 X93.538 Y137.627 E27.5422
G1 X92.996 Y138.018 E27.57721
G1 X92.411 Y138.343 E27.61227
G1 X91.791 Y138.595 E27.64732
G1 X91.146 Y138.771 E27.68235
G1 X90.484 Y138.87 E27.71741
G1 X89.994 Y138.891 E27.7431
G1 X70.005 Y138.89 E28.79022
G1 X69.337 Y138.85 E28.82528
G1 X68.679 Y138.731 E28.86031
G1 X68.039 Y138.534 E28.89538
G1 X67.428 Y138.262 E28.93042
G1 X66.853 Y137.919 E28.96549
G1 X66.324 Y137.51 E29.00052
G1 X65.899 Y137.098 E29.03153
G1 X63.629 Y134.651 E29.20638
G1 X61.032 Y132.03 E29.39966
G1 X60.59 Y131.528 E29.4347
G1 X60.211 Y130.976 E29.46978
G1 X59.901 Y130.383 E29.50483
G1 X59.664 Y129.758 E29.53984
G1 X59.503 Y129.108 E29.57492
G1 X59.42 Y128.444 E29.60998
G1 X59.409 Y128.087 E29.62869
G1 X59.41 Y122.702 E29.91078
G1 X59.45 Y122.034 E29.94583
G1 X59.57 Y121.376 E29.98087
G1 X59.767 Y120.737 E30.0159
G1 X59.962 Y120.279 E30.04198
G1 X60.875 Y118.377 E30.1525
G1 X63.013 Y113.454 E30.43366
G1 X64.76 Y108.756 E30.69623
G1 X65.03 Y108.144 E30.73127
G1 X65.371 Y107.568 E30.76633
G1 X65.779 Y107.037 E30.80141
G1 X66.247 Y106.559 E30.83645
G1 X66.768 Y106.14 E30.87148
M204 S5000
M205 X30 Y30
G0 F7200 X67.096 Y106.399
M204 S500
M205 X20 Y20
G1 F900 X67.658 Y106.069 E30.90562
G1 X69.821 Y104.972 E31.03266
G1 X74.518 Y102.346 E31.31456
G1 X79.054 Y99.461 E31.59617
G1 X83.415 Y96.326 E31.87752
G1 X87.58 Y92.96 E32.15804
G1 X91.577 Y89.339 E32.44057
G1 X93.855 Y87.087 E32.60837
G1 X94.341 Y86.663 E32.64216
G1 X94.875 Y86.302 E32.67592
G1 X95.45 Y86.011 E32.70968
G1 X96.057 Y85.792 E32.74349
G1 X96.686 Y85.651 E32.77725
G1 X97.511 Y85.585 E32.82061
G1 X122.491 Y85.586 E34.12918
G1 X123.135 Y85.626 E34.16298
G1 X123.768 Y85.745 E34.19672
G1 X124.382 Y85.942 E34.2305
G1 X124.967 Y86.213 E34.26427
G1 X125.514 Y86.555 E34.29807
G1 X126.014 Y86.961 E34.33181
G1 X126.46 Y87.427 E34.3656
G1 X126.845 Y87.944 E34.39937
G1 X127.164 Y88.504 E34.43313
G1 X127.41 Y89.1 E34.4669
G1 X127.581 Y89.722 E34.50069
G1 X127.673 Y90.36 E34.53446
G1 X127.691 Y90.795 E34.55727
G1 X127.69 Y91.374 E34.5876
G1 X127.649 Y92.017 E34.62135
G1 X127.529 Y92.651 E34.65515
G1 X127.331 Y93.264 E34.6889
G1 X127.059 Y93.849 E34.72269
G1 X126.716 Y94.395 E34.75647
G1 X126.309 Y94.894 E34.7902
G1 X125.966 Y95.233 E34.81547
G1 X121.006 Y99.691 E35.16482
G1 X117.252 Y103.502 E35.44505
G1 X113.669 Y107.578 E35.72934
G1 X112.066 Y109.566 E35.86311
G1 X108.839 Y113.933 E36.14756
G1 X105.901 Y118.418 E36.42843
G1 X103.231 Y123.047 E36.70836
G1 X100.791 Y127.89 E36.99244
G1 X99.73 Y130.237 E37.12737
G1 X99.429 Y130.807 E37.16113
G1 X99.059 Y131.335 E37.19491
G1 X98.74 Y131.7 E37.2203
G1 X93.742 Y136.896 E37.59798
G1 X93.267 Y137.332 E37.63175
G1 X92.742 Y137.706 E37.66552
G1 X92.174 Y138.012 E37.69932
G1 X91.573 Y138.245 E37.73308
G1 X90.948 Y138.403 E37.76685
G1 X89.994 Y138.491 E37.81704
G1 X70.005 Y138.49 E38.86416
G1 X69.361 Y138.45 E38.89796
G1 X68.728 Y138.331 E38.9317
G1 X68.114 Y138.134 E38.96548
G1 X67.529 Y137.863 E38.99925
G1 X66.982 Y137.521 E39.03305
G1 X66.482 Y137.115 E39.06679
G1 X66.192 Y136.826 E39.08823
G1 X63.909 Y134.364 E39.26412
G1 X61.316 Y131.748 E39.45707
G1 X60.891 Y131.263 E39.49085
G1 X60.53 Y130.729 E39.52462
G1 X60.237 Y130.155 E39.55838
G1 X60.018 Y129.549 E39.59213
G1 X59.876 Y128.92 E39.62591
G1 X59.809 Y128.087 E39.66969
G1 X59.81 Y122.702 E39.95178
G1 X59.85 Y122.059 E39.98553
G1 X59.969 Y121.425 E40.01932
G1 X60.166 Y120.811 E40.0531
G1 X60.322 Y120.452 E40.07361
G1 X61.234 Y118.552 E40.18401
G1 X63.39 Y113.588 E40.46751
G1 X65.135 Y108.895 E40.7298
G1 X65.397 Y108.306 E40.76357
G1 X65.729 Y107.754 E40.79731
G1 X66.127 Y107.247 E40.83108
G1 X66.585 Y106.793 E40.86486
G1 X67.096 Y106.399 E40.89866
M204 S5000
M205 X30 Y30
G1 F2400 E36.39866
G0 F7200 X66.846 Y122.035
G0 X66.846 Y123.303
G0 X66.767 Y123.317
G0 X66.865 Y123.3
M204 S500
M205 X20 Y20
;TYPE:WALL-INNER
G1 F2400 E40.89866
G1 F900 X66.475 Y123.448 E40.92051
G1 X66.143 Y123.676 E40.94161
G1 X66.038 Y123.749 E40.94831
G1 X65.959 Y123.838 E40.95455
G1 X65.685 Y124.149 E40.97626
G1 X65.6 Y124.311 E40.98584
G1 X65.6 Y124.149 E40.98651
G1 X65.6 Y123.734 E41.00026
G1 X65.6 Y123.3 E41.023
G1 X66.072 Y123.3 E41.04772
G1 X66.475 Y123.3 E41.0625
G1 X66.865 Y123.3 E41.06601
M204 S5000
M205 X30 Y30
G0 F7200 X66.767 Y123.317
G0 X65.985 Y124.355
G0 X65.779 Y124.748
G0 X65.72 Y124.991
G0 X65.622 Y126.586
G0 X65.6 Y126.489
M204 S500
M205 X20 Y20
G1 F900 X65.685 Y126.651 E41.0756
G1 X65.959 Y126.962 E41.09731
G1 X66.038 Y127.051 E41.10354
G1 X66.143 Y127.124 E41.11024
G1 X66.475 Y127.352 E41.13134
G1 X66.865 Y127.5 E41.15319
G1 X66.475 Y127.5 E41.1567
G1 X66.072 Y127.5 E41.17148
G1 X65.6 Y127.5 E41.1962
G1 X65.6 Y127.066 E41.21894
G1 X65.6 Y126.651 E41.23269
G1 X65.6 Y126.489 E41.23336
M204 S5000
M205 X30 Y30
G0 F7200 X65.622 Y126.586
G0 X67.06 Y127.188
G0 X74.086 Y127.901
G0 X74.834 Y129.195
G0 X75.861 Y130.283
G0 X77.11 Y131.106
G0 X78.515 Y131.617
G0 X80 Y131.791
G0 X81.485 Y131.617
G0 X82.89 Y131.106
G0 X84.139 Y130.283
G0 X85.166 Y129.195
G0 X85.771 Y128.148
G0 X93.233 Y127.483
G0 X93.135 Y127.5
M204 S500
M205 X20 Y20
G1 F900 X93.525 Y127.352 E41.25521
G1 X93.857 Y127.124 E41.27631
G1 X93.962 Y127.051 E41.28301
G1 X94.041 Y126.962 E41.28924
G1 X94.315 Y126.651 E41.31096
G1 X94.4 Y126.489 E41.32054
G1 X94.4 Y126.651 E41.32121
G1 X94.4 Y127.066 E41.33496
G1 X94.4 Y127.5 E41.3577
G1 X93.928 Y127.5 E41.38242
G1 X93.525 Y127.5 E41.3972
G1 X93.135 Y127.5 E41.40071
M204 S5000
M205 X30 Y30
G0 F7200 X93.233 Y127.483
G0 X94.015 Y126.445
G0 X94.221 Y126.052
G0 X94.327 Y125.621
G0 X94.327 Y125.179
G0 X94.221 Y124.748
G0 X94.105 Y124.527
G0 X93.233 Y123.317
G0 X93.135 Y123.3
M204 S500
M205 X20 Y20
G1 F900 X93.525 Y123.3 E41.42114
G1 X93.928 Y123.3 E41.44225
G1 X94.4 Y123.3 E41.46698
G1 X94.4 Y123.734 E41.48971
G1 X94.4 Y124.149 E41.51145
G1 X94.4 Y124.311 E41.51994
G1 X94.315 Y124.149 E41.52166
G1 X94.041 Y123.838 E41.53538
G1 X93.962 Y123.749 E41.54161
G1 X93.857 Y123.676 E41.54831
G1 X93.525 Y123.448 E41.56306
G1 X93.135 Y123.3 E41.56799
M204 S5000
M205 X30 Y30
G0 F7200 X93.233 Y123.317
G0 X91.644 Y123.77
G0 X85.914 Y127.901
G0 X85.166 Y129.195
G0 X84.139 Y130.283
G0 X82.89 Y131.106
G0 X81.485 Y131.617
G0 X80.19 Y132.132
G0 X76.902 Y131.52
G0 X76.946 Y131.431
M204 S500
M205 X20 Y20
G1 F900 X78.431 Y131.971 E41.65077
G1 X80 Y132.154 E41.73352
G1 X81.569 Y131.971 E41.81626
G1 X83.054 Y131.431 E41.89904
G1 X84.373 Y130.561 E41.98181
G1 X85.457 Y129.413 E42.06452
G1 X86.248 Y128.046 E42.14726
G1 X86.701 Y126.532 E42.23004
G1 X86.793 Y124.955 E42.31279
G1 X86.519 Y123.398 E42.39561
G1 X85.892 Y121.948 E42.47836
G1 X84.949 Y120.681 E42.5611
G1 X83.739 Y119.666 E42.64383
G1 X82.328 Y118.957 E42.72656
G1 X80.79 Y118.592 E42.80936
G1 X79.21 Y118.592 E42.89213
G1 X77.672 Y118.957 E42.97493
G1 X76.261 Y119.666 E43.05766
G1 X75.051 Y120.681 E43.14039
G1 X74.108 Y121.948 E43.22313
G1 X73.481 Y123.398 E43.30588
G1 X73.207 Y124.955 E43.3887
G1 X73.299 Y126.532 E43.47145
G1 X73.752 Y128.046 E43.55423
G1 X74.543 Y129.413 E43.63697
G1 X75.627 Y130.561 E43.71968
G1 X76.946 Y131.431 E43.80245
M204 S5000
M205 X30 Y30
G0 F7200 X77.127 Y131.071
M204 S500
M205 X20 Y20
;TYPE:WALL-OUTER
G1 F900 X78.524 Y131.579 E43.88032
G1 X80 Y131.751 E43.95816
G1 X81.476 Y131.579 E44.03601
G1 X82.873 Y131.071 E44.11388
G1 X84.114 Y130.253 E44.19174
G1 X85.134 Y129.172 E44.26959
G1 X85.878 Y127.886 E44.34742
G1 X86.304 Y126.462 E44.42529
G1 X86.391 Y124.978 E44.50316
G1 X86.133 Y123.514 E44.58103
G1 X85.543 Y122.149 E44.65893
G1 X84.656 Y120.957 E44.73676
G1 X83.518 Y120.002 E44.81459
G1 X82.19 Y119.335 E44.89244
G1 X80.743 Y118.992 E44.97034
G1 X79.257 Y118.992 E45.04818
G1 X77.81 Y119.335 E45.12608
G1 X76.482 Y120.002 E45.20393
G1 X75.344 Y120.957 E45.28175
G1 X74.457 Y122.149 E45.35959
G1 X73.867 Y123.514 E45.43749
G1 X73.609 Y124.978 E45.51536
G1 X73.696 Y126.462 E45.59323
G1 X74.122 Y127.886 E45.67109
G1 X74.866 Y129.172 E45.74892
G1 X75.886 Y130.253 E45.82678
G1 X77.127 Y131.071 E45.90464
M204 S5000
M205 X30 Y30
G0 F7200 X77.315 Y131.139
G0 X77.164 Y131.552
G0 X77.143 Y131.608
G0 X75.602 Y130.591
G0 X68.988 Y123.72
G0 X68.628 Y123.472
G0 X68.233 Y123.317
G0 X68.135 Y123.3
M204 S500
M205 X20 Y20
;TYPE:WALL-INNER
G1 F900 X68.525 Y123.3 E45.92507
G1 X68.928 Y123.3 E45.94618
G1 X70.6 Y123.3 E46.03377
G1 X70.6 Y114.941 E46.47165
G1 X70.6 Y114.535 E46.49292
G1 X70.6 Y113.984 E46.52179
G1 X70.6 Y113.416 E46.55154
G1 X70.6 Y112.865 E46.5804
G1 X70.6 Y112.459 E46.60167
G1 X70.6 Y111.3 E46.66239
G1 X71.772 Y111.3 E46.72378
G1 X71.906 Y111.3 E46.7308
G1 X72.437 Y111.3 E46.75862
G1 X73 Y111.3 E46.78811
G1 X73.563 Y111.3 E46.8176
G1 X74.094 Y111.3 E46.84542
G1 X74.228 Y111.3 E46.85244
G1 X85.772 Y111.3 E47.45717
G1 X85.906 Y111.3 E47.46419
G1 X86.437 Y111.3 E47.492
G1 X87 Y111.3 E47.5215
G1 X87.563 Y111.3 E47.55099
