;FLAVOR:Marlin
;TIME:2062
;Filament used: 0.945978m
;Layer height: 0.14
;Generated with Cura_SteamEngine 3.4.1
M190 S65
M104 S205
M109 S205
M82 ;absolute extrusion mode
G28 ;Home
G1 Z15.0 F6000 ;Move the platform down 15mm
;Prime the extruder
G92 E0
G1 F200 E3
G92 E0
G92 E0
G1 F2400 E-4.5
;LAYER_COUNT:74
;LAYER:0
M107
M204 S5000
M205 X30 Y30
G0 F7200 X77.733 Y54.366 Z0.2
M204 S500
M205 X20 Y20
;TYPE:SKIRT
G1 F2400 E0
G1 F900 X78.146 Y53.782 E0.02498
G1 X78.621 Y53.248 E0.04994
G1 X79.153 Y52.769 E0.07494
G1 X79.735 Y52.354 E0.0999
G1 X80.36 Y52.005 E0.1249
G1 X81.02 Y51.729 E0.14989
G1 X81.706 Y51.528 E0.17485
G1 X82.411 Y51.405 E0.19984
G1 X83.159 Y51.361 E0.22601
G1 X132.841 Y51.362 E1.96106
G1 X133.555 Y51.402 E1.98604
G1 X134.26 Y51.521 E2.01101
G1 X134.948 Y51.719 E2.03601
G1 X135.609 Y51.992 E2.06098
G1 X136.236 Y52.337 E2.08598
G1 X136.82 Y52.749 E2.11094
G1 X137.354 Y53.225 E2.13592
G1 X137.833 Y53.757 E2.16092
G1 X138.248 Y54.339 E2.18588
G1 X138.597 Y54.963 E2.21085
G1 X138.873 Y55.623 E2.23583
G1 X139.074 Y56.309 E2.2608
G1 X139.197 Y57.014 E2.28579
G1 X139.241 Y57.763 E2.31199
G1 X139.24 Y68.452 E2.68529
G1 X139.2 Y69.166 E2.71026
G1 X139.08 Y69.871 E2.73524
G1 X138.833 Y70.697 E2.76534
G1 X136.492 Y76.943 E2.99829
G1 X134.942 Y82.006 E3.18321
G1 X133.669 Y87.199 E3.36993
G1 X133.169 Y89.695 E3.45883
G1 X132.343 Y94.962 E3.64502
G1 X131.819 Y100.244 E3.83039
G1 X131.593 Y105.572 E4.01663
G1 X131.572 Y112.993 E4.2758
G1 X131.53 Y113.707 E4.30077
G1 X131.409 Y114.412 E4.32575
G1 X131.209 Y115.099 E4.35074
G1 X130.935 Y115.759 E4.3757
G1 X130.588 Y116.385 E4.4007
G1 X130.174 Y116.968 E4.42567
G1 X129.697 Y117.501 E4.45065
G1 X129.164 Y117.978 E4.47563
G1 X128.581 Y118.392 E4.5006
G1 X127.955 Y118.738 E4.52558
G1 X127.294 Y119.013 E4.55058
G1 X126.607 Y119.212 E4.57556
G1 X125.902 Y119.333 E4.60054
G1 X125.171 Y119.375 E4.62611
G1 X94.825 Y119.371 E5.68589
G1 X94.111 Y119.331 E5.71086
G1 X93.406 Y119.211 E5.73584
G1 X92.718 Y119.014 E5.76083
G1 X92.057 Y118.741 E5.7858
G1 X91.431 Y118.396 E5.81077
G1 X90.846 Y117.983 E5.83577
G1 X90.312 Y117.508 E5.86073
G1 X89.834 Y116.976 E5.88571
G1 X89.418 Y116.394 E5.91069
G1 X89.07 Y115.769 E5.93568
G1 X88.794 Y115.109 E5.96066
G1 X88.593 Y114.423 E5.98562
G1 X88.47 Y113.718 E6.01062
G1 X88.431 Y113.235 E6.02754
G1 X88.298 Y110.012 E6.14019
G1 X87.843 Y104.721 E6.32565
G1 X87.094 Y99.492 E6.51013
G1 X86.037 Y94.255 E6.69671
G1 X85.426 Y91.772 E6.78601
G1 X83.927 Y86.633 E6.97296
G1 X82.161 Y81.647 E7.15769
G1 X80.12 Y76.778 E7.34206
G1 X77.413 Y71.261 E7.55668
G1 X77.135 Y70.602 E7.58166
G1 X76.931 Y69.917 E7.60662
G1 X76.806 Y69.213 E7.63159
G1 X76.759 Y68.442 E7.65856
G1 X76.759 Y57.761 E8.03158
G1 X76.799 Y57.047 E8.05655
G1 X76.918 Y56.342 E8.08152
G1 X77.116 Y55.654 E8.10652
G1 X77.389 Y54.993 E8.1315
G1 X77.733 Y54.366 E8.15647
M204 S5000
M205 X30 Y30
G0 F7200 X78.132 Y54.486
M204 S500
M205 X20 Y20
G1 F900 X78.543 Y53.928 E8.18068
G1 X79.015 Y53.422 E8.20484
G1 X79.543 Y52.973 E8.22905
G1 X80.118 Y52.588 E8.25321
G1 X80.735 Y52.273 E8.27741
G1 X81.383 Y52.03 E8.30158
G1 X82.056 Y51.863 E8.32579
G1 X82.742 Y51.775 E8.34995
G1 X83.159 Y51.761 E8.36452
G1 X132.841 Y51.762 E10.09957
G1 X133.532 Y51.802 E10.12374
G1 X134.215 Y51.921 E10.14795
G1 X134.879 Y52.119 E10.17215
G1 X135.515 Y52.391 E10.19631
G1 X136.116 Y52.735 E10.22049
G1 X136.674 Y53.146 E10.24469
G1 X137.18 Y53.618 E10.26886
G1 X137.629 Y54.146 E10.29307
G1 X138.014 Y54.722 E10.31726
G1 X138.329 Y55.338 E10.34142
G1 X138.572 Y55.986 E10.36559
G1 X138.739 Y56.659 E10.38981
G1 X138.827 Y57.346 E10.414
G1 X138.841 Y57.763 E10.42857
G1 X138.84 Y68.452 E10.80186
G1 X138.8 Y69.143 E10.82603
G1 X138.681 Y69.825 E10.85021
G1 X138.458 Y70.556 E10.8769
G1 X136.111 Y76.818 E11.11045
G1 X134.557 Y81.894 E11.29584
G1 X133.275 Y87.121 E11.48379
G1 X132.779 Y89.601 E11.57211
G1 X131.946 Y94.914 E11.75993
G1 X131.421 Y100.204 E11.94558
G1 X131.193 Y105.579 E12.13346
G1 X131.172 Y112.992 E12.39235
G1 X131.13 Y113.683 E12.41652
G1 X131.009 Y114.365 E12.44071
G1 X130.81 Y115.028 E12.46489
G1 X130.536 Y115.664 E12.48907
G1 X130.19 Y116.264 E12.51326
G1 X129.778 Y116.821 E12.53745
G1 X129.304 Y117.326 E12.56164
G1 X128.775 Y117.773 E12.58583
G1 X128.198 Y118.156 E12.61002
G1 X127.581 Y118.47 E12.63419
G1 X126.932 Y118.711 E12.65837
G1 X126.259 Y118.876 E12.68257
G1 X125.572 Y118.962 E12.70675
G1 X125.171 Y118.975 E12.72076
G1 X94.825 Y118.971 E13.78054
G1 X94.134 Y118.931 E13.80471
G1 X93.452 Y118.811 E13.82889
G1 X92.788 Y118.614 E13.85308
G1 X92.151 Y118.342 E13.87727
G1 X91.55 Y117.998 E13.90145
G1 X90.993 Y117.587 E13.92563
G1 X90.486 Y117.114 E13.94984
G1 X90.038 Y116.587 E13.974
G1 X89.653 Y116.011 E13.9982
G1 X89.337 Y115.395 E14.02237
G1 X89.095 Y114.746 E14.04656
G1 X88.928 Y114.074 E14.07075
G1 X88.831 Y113.218 E14.10083
G1 X88.699 Y110.007 E14.21306
G1 X88.239 Y104.665 E14.40031
G1 X87.486 Y99.411 E14.58567
G1 X86.435 Y94.2 E14.77132
G1 X85.809 Y91.656 E14.86282
G1 X84.309 Y86.514 E15.04988
G1 X82.532 Y81.495 E15.23582
G1 X80.487 Y76.619 E15.42047
G1 X77.772 Y71.085 E15.63574
G1 X77.504 Y70.447 E15.65991
G1 X77.31 Y69.782 E15.6841
G1 X77.195 Y69.099 E15.70829
G1 X77.159 Y68.442 E15.73127
G1 X77.159 Y57.761 E16.10428
G1 X77.199 Y57.07 E16.12846
G1 X77.318 Y56.387 E16.15267
G1 X77.516 Y55.724 E16.17683
G1 X77.788 Y55.087 E16.20102
G1 X78.132 Y54.486 E16.22521
M204 S5000
M205 X30 Y30
G0 F7200 X78.53 Y54.61
M204 S500
M205 X20 Y20
G1 F900 X78.939 Y54.08 E16.24859
G1 X79.408 Y53.603 E16.27195
G1 X79.93 Y53.185 E16.2953
G1 X80.499 Y52.833 E16.31867
G1 X81.106 Y52.551 E16.34204
G1 X81.742 Y52.343 E16.36541
G1 X82.398 Y52.213 E16.38877
G1 X83.159 Y52.161 E16.41541
G1 X132.841 Y52.162 E18.15046
G1 X133.509 Y52.202 E18.17383
G1 X134.167 Y52.321 E18.19718
G1 X134.807 Y52.518 E18.22057
G1 X135.418 Y52.79 E18.24392
G1 X135.992 Y53.133 E18.26727
G1 X136.522 Y53.542 E18.29065
G1 X136.999 Y54.011 E18.31402
G1 X137.417 Y54.534 E18.3374
G1 X137.769 Y55.102 E18.36073
G1 X138.051 Y55.709 E18.38411
G1 X138.259 Y56.345 E18.40748
G1 X138.389 Y57.001 E18.43083
G1 X138.441 Y57.763 E18.45751
G1 X138.44 Y68.452 E18.8308
G1 X138.4 Y69.119 E18.85413
G1 X138.281 Y69.778 E18.87752
G1 X138.084 Y70.416 E18.90084
G1 X135.732 Y76.692 E19.1349
G1 X134.172 Y81.787 E19.32099
G1 X132.884 Y87.04 E19.50988
G1 X132.38 Y89.557 E19.59952
G1 X131.551 Y94.849 E19.78659
G1 X131.021 Y100.182 E19.97375
G1 X130.793 Y105.561 E20.16177
G1 X130.772 Y112.991 E20.42125
G1 X130.73 Y113.658 E20.44459
G1 X130.609 Y114.316 E20.46796
G1 X130.41 Y114.955 E20.49133
G1 X130.137 Y115.566 E20.5147
G1 X129.792 Y116.139 E20.53806
G1 X129.382 Y116.668 E20.56143
G1 X128.912 Y117.143 E20.58477
G1 X128.388 Y117.56 E20.60816
G1 X127.818 Y117.91 E20.63152
G1 X127.211 Y118.191 E20.65488
G1 X126.574 Y118.397 E20.67826
G1 X125.918 Y118.525 E20.7016
G1 X125.171 Y118.575 E20.72774
G1 X94.825 Y118.571 E21.78752
G1 X94.157 Y118.531 E21.81089
G1 X93.499 Y118.412 E21.83424
G1 X92.86 Y118.214 E21.85761
G1 X92.249 Y117.943 E21.88095
G1 X91.674 Y117.6 E21.90433
G1 X91.145 Y117.191 E21.92768
G1 X90.668 Y116.722 E21.95105
G1 X90.25 Y116.199 E21.97443
G1 X89.898 Y115.63 E21.99779
G1 X89.616 Y115.023 E22.02117
G1 X89.408 Y114.387 E22.04454
G1 X89.278 Y113.731 E22.06789
G1 X89.231 Y113.202 E22.08644
G1 X89.098 Y109.977 E22.19916
G1 X88.638 Y104.627 E22.38669
G1 X87.881 Y99.346 E22.573
G1 X86.821 Y94.095 E22.76008
G1 X86.198 Y91.561 E22.85121
G1 X84.691 Y86.394 E23.03918
G1 X82.904 Y81.349 E23.22609
G1 X80.849 Y76.446 E23.41175
G1 X78.132 Y70.909 E23.62715
G1 X77.873 Y70.292 E23.65052
G1 X77.69 Y69.648 E23.6739
G1 X77.586 Y68.987 E23.69727
G1 X77.559 Y68.442 E23.71632
G1 X77.559 Y57.761 E24.08934
G1 X77.599 Y57.093 E24.11271
G1 X77.718 Y56.435 E24.13606
G1 X77.915 Y55.795 E24.15945
G1 X78.187 Y55.184 E24.1828
G1 X78.53 Y54.61 E24.20616
M204 S5000
M205 X30 Y30
G0 F7200 X78.928 Y54.738
M204 S500
M205 X20 Y20
G1 F900 X79.334 Y54.238 E24.22865
G1 X79.799 Y53.792 E24.25115
G1 X80.316 Y53.407 E24.27366
G1 X80.877 Y53.088 E24.2962
G1 X81.473 Y52.842 E24.31872
G1 X82.094 Y52.671 E24.34121
G1 X82.732 Y52.579 E24.36372
G1 X83.159 Y52.561 E24.37865
G1 X132.841 Y52.562 E26.1137
G1 X133.485 Y52.602 E26.13623
G1 X134.118 Y52.721 E26.15873
G1 X134.732 Y52.918 E26.18125
G1 X135.317 Y53.189 E26.20376
G1 X135.864 Y53.531 E26.22629
G1 X136.364 Y53.937 E26.24879
G1 X136.81 Y54.403 E26.27131
G1 X137.195 Y54.92 E26.29382
G1 X137.514 Y55.48 E26.31633
G1 X137.76 Y56.076 E26.33885
G1 X137.931 Y56.697 E26.36134
G1 X138.023 Y57.335 E26.38385
G1 X138.041 Y57.762 E26.39878
G1 X138.04 Y68.451 E26.77207
G1 X138 Y69.095 E26.79461
G1 X137.881 Y69.728 E26.8171
G1 X137.709 Y70.276 E26.83716
G1 X135.352 Y76.566 E27.07174
G1 X133.786 Y81.68 E27.25852
G1 X132.496 Y86.94 E27.44766
G1 X131.987 Y89.486 E27.53834
G1 X131.154 Y94.8 E27.72619
G1 X130.621 Y100.162 E27.91437
G1 X130.393 Y105.543 E28.10246
G1 X130.372 Y112.989 E28.3625
G1 X130.33 Y113.633 E28.38503
G1 X130.209 Y114.266 E28.40754
G1 X130.011 Y114.879 E28.43004
G1 X129.738 Y115.463 E28.45255
G1 X129.395 Y116.009 E28.47507
G1 X128.987 Y116.509 E28.49761
G1 X128.52 Y116.953 E28.52011
G1 X128.002 Y117.337 E28.54263
G1 X127.441 Y117.654 E28.56513
G1 X126.845 Y117.899 E28.58764
G1 X126.222 Y118.068 E28.61018
G1 X125.584 Y118.159 E28.63269
G1 X125.171 Y118.175 E28.64712
G1 X94.825 Y118.171 E29.7069
G1 X94.182 Y118.131 E29.7294
G1 X93.548 Y118.012 E29.75192
G1 X92.934 Y117.815 E29.77444
G1 X92.35 Y117.543 E29.79694
G1 X91.803 Y117.202 E29.81945
G1 X91.303 Y116.795 E29.84197
G1 X90.856 Y116.33 E29.86449
G1 X90.471 Y115.813 E29.88701
G1 X90.153 Y115.252 E29.90953
G1 X89.907 Y114.657 E29.93201
G1 X89.736 Y114.035 E29.95454
G1 X89.63 Y113.185 E29.98446
G1 X89.497 Y109.95 E30.09753
G1 X89.034 Y104.57 E30.28611
G1 X88.276 Y99.282 E30.47267
G1 X87.213 Y94.017 E30.66025
G1 X86.581 Y91.445 E30.75274
G1 X85.073 Y86.275 E30.94082
G1 X83.283 Y81.219 E31.12813
G1 X81.206 Y76.267 E31.31567
G1 X78.491 Y70.733 E31.53094
G1 X78.243 Y70.137 E31.55348
G1 X78.071 Y69.516 E31.57598
G1 X77.977 Y68.878 E31.59851
G1 X77.959 Y68.442 E31.61375
G1 X77.959 Y57.761 E31.98676
G1 X77.999 Y57.118 E32.00926
G1 X78.118 Y56.484 E32.03179
G1 X78.315 Y55.87 E32.05431
G1 X78.586 Y55.285 E32.07682
G1 X78.928 Y54.738 E32.09935
M204 S5000
M205 X30 Y30
G1 F2400 E27.59935
G0 F7200 X82.485 Y58.366
G0 X83.764 Y58.366
G0 X89.376 Y59.881
G0 X89.432 Y59.963
M204 S500
M205 X20 Y20
;TYPE:WALL-INNER
G1 F2400 E32.09935
G1 F900 X88.67 Y60.638 E32.1349
G1 X88.112 Y61.451 E32.16934
G1 X87.762 Y62.373 E32.20378
G1 X87.645 Y63.352 E32.23821
G1 X87.761 Y64.33 E32.27261
G1 X88.11 Y65.252 E32.30704
G1 X88.669 Y66.065 E32.34149
G1 X89.406 Y66.721 E32.37595
G1 X90.305 Y67.194 E32.41143
G1 X91.264 Y67.429 E32.44591
G1 X92.253 Y67.427 E32.48045
G1 X93.209 Y67.189 E32.51485
G1 X94.081 Y66.732 E32.54923
G1 X94.819 Y66.079 E32.58365
G1 X95.379 Y65.268 E32.61807
G1 X95.575 Y64.76 E32.63708
G1 X95.639 Y64.591 E32.64339
G1 X95.677 Y64.492 E32.6471
G1 X95.779 Y64.644 E32.64981
G1 X95.914 Y64.765 E32.65451
G1 X96 Y64.842 E32.65854
G1 X96.271 Y64.986 E32.66926
G1 X96.559 Y65.063 E32.67967
G1 X96.838 Y65.083 E32.68944
G1 X97.028 Y65.073 E32.69608
G1 X97.028 Y65.082 E32.6964
G1 X102.523 Y65.082 E32.8883
G1 X102.523 Y63.388 E32.94746
G1 X102.513 Y63.197 E32.95414
G1 X102.475 Y62.985 E32.96166
G1 X102.396 Y62.763 E32.96989
G1 X102.263 Y62.556 E32.97848
G1 X102.101 Y62.398 E32.98638
G1 X101.909 Y62.279 E32.99427
G1 X101.667 Y62.196 E33.00321
G1 X101.386 Y62.165 E33.01308
G1 X101.164 Y62.183 E33.02086
G1 X100.977 Y62.229 E33.02758
G1 X100.895 Y62.208 E33.03054
G1 X100.895 Y62.183
G1 X100.895 Y62.169
G1 X99.213 Y62.165 E33.08928
G1 X98.988 Y62.183 E33.09716
G1 X98.805 Y62.229 E33.10375
G1 X98.721 Y62.207 E33.10679
G1 X98.721 Y62.183
G1 X98.721 Y62.169
G1 X98.131 Y62.169 E33.12739
G1 X98.131 Y61.788 E33.1407
G1 X95.644 Y61.788 E33.22755
G1 X95.626 Y62.081 E33.2378
G1 X95.532 Y61.83 E33.23901
G1 X95.395 Y61.465 E33.25262
G1 X94.821 Y60.628 E33.28806
G1 X94.081 Y59.972 E33.3226
G1 X93.21 Y59.516 E33.35693
G1 X92.254 Y59.278 E33.39134
G1 X91.266 Y59.274 E33.42584
G1 X90.308 Y59.508 E33.46028
G1 X89.432 Y59.963 E33.49476
M204 S5000
M205 X30 Y30
G0 F7200 X89.66 Y60.295
M204 S500
M205 X20 Y20
;TYPE:WALL-OUTER
G1 F900 X88.972 Y60.905 E33.52687
G1 X88.469 Y61.638 E33.55792
G1 X88.153 Y62.469 E33.58896
G1 X88.048 Y63.352 E33.62002
G1 X88.152 Y64.234 E33.65103
G1 X88.467 Y65.065 E33.68207
G1 X88.971 Y65.799 E33.71316
G1 X89.635 Y66.39 E33.74421
G1 X90.448 Y66.817 E33.77628
G1 X91.312 Y67.029 E33.80735
G1 X92.203 Y67.027 E33.83846
G1 X93.066 Y66.812 E33.86952
G1 X93.852 Y66.4 E33.90052
G1 X94.518 Y65.812 E33.93154
G1 X95.023 Y65.08 E33.9626
G1 X95.341 Y64.251 E33.99361
G1 X95.414 Y63.658 E34.01447
G1 X95.425 Y63.564 E34.01778
G1 X95.45 Y63.368 E34.02468
G1 X95.35 Y62.485 E34.05571
G1 X95.038 Y61.651 E34.08681
G1 X94.519 Y60.895 E34.11884
G1 X93.852 Y60.304 E34.14996
G1 X93.067 Y59.893 E34.1809
G1 X92.204 Y59.678 E34.21196
G1 X91.313 Y59.674 E34.24308
G1 X90.45 Y59.885 E34.27411
G1 X89.66 Y60.295 E34.30519
M204 S5000
M205 X30 Y30
G0 F7200 X89.511 Y60.427
G0 X89.22 Y60.098
G0 X89.181 Y60.053
G0 X88.641 Y60.612
G0 X88.077 Y61.433
G0 X87.724 Y62.364
G0 X87.605 Y63.352
G0 X87.723 Y64.339
G0 X88.075 Y65.27
G0 X88.64 Y66.091
G0 X89.384 Y66.753
G0 X90.291 Y67.231
G0 X91.26 Y67.468
G0 X92.257 Y67.466
G0 X93.223 Y67.226
G0 X94.103 Y66.764
G0 X94.848 Y66.105
G0 X95.306 Y65.442
G0 X95.688 Y64.591
G0 X95.761 Y63.606
M204 S500
M205 X20 Y20
G1 F900 X95.773 Y63.641 E34.30621
G1 X95.804 Y63.73 E34.30933
G1 X95.971 Y64.213 E34.32718
G1 X96.083 Y64.379 E34.33417
G1 X96.231 Y64.512 E34.34112
G1 X96.418 Y64.611 E34.34851
G1 X96.626 Y64.667 E34.35603
G1 X96.841 Y64.682 E34.36356
G1 X97.023 Y64.672 E34.36992
G1 X97.198 Y64.634 E34.37618
G1 X97.376 Y64.56 E34.38291
G1 X97.388 Y64.554 E34.38338
G1 X97.428 Y64.525 E34.3851
G1 X97.428 Y64.554
G1 X97.428 Y64.634 E34.38524
G1 X97.428 Y64.682
G1 X102.123 Y64.682 E34.5492
G1 X102.123 Y63.398 E34.59405
G1 X102.115 Y63.243 E34.59947
G1 X102.087 Y63.088 E34.60497
G1 X102.035 Y62.941 E34.61041
G1 X101.951 Y62.811 E34.61582
G1 X101.853 Y62.715 E34.62061
G1 X101.737 Y62.643 E34.62538
G1 X101.579 Y62.589 E34.63121
G1 X101.38 Y62.567 E34.6382
G1 X101.228 Y62.579 E34.64352
G1 X101.082 Y62.615 E34.64878
G1 X100.98 Y62.665 E34.65274
G1 X100.873 Y62.615 E34.65687
G1 X100.732 Y62.579 E34.66195
G1 X100.578 Y62.569 E34.66734
G1 X100.495 Y62.574 E34.67024
G1 X100.495 Y62.569 E34.67042
G1 X99.586 Y62.569 E34.70216
G1 X99.586 Y62.586 E34.70276
G1 X99.587 Y62.642 E34.70471
G1 X99.588 Y62.659 E34.70531
G1 X99.562 Y62.643
G1 X99.404 Y62.589 E34.70863
G1 X99.206 Y62.567 E34.71454
G1 X99.053 Y62.579 E34.7199
G1 X98.909 Y62.615 E34.72508
G1 X98.806 Y62.664 E34.72906
G1 X98.699 Y62.615 E34.73317
G1 X98.558 Y62.579 E34.73826
G1 X98.404 Y62.569 E34.74365
G1 X98.321 Y62.574 E34.74655
G1 X98.321 Y62.569 E34.74672
G1 X97.731 Y62.569 E34.76733
G1 X97.731 Y62.188 E34.78063
G1 X96.02 Y62.188 E34.84039
G1 X95.933 Y63.587 E34.88934
G1 X95.761 Y63.606 E34.89284
M204 S5000
M205 X30 Y30
G0 F7200 X95.773 Y63.641
G0 X95.804 Y63.73
G0 X95.826 Y63.795
G0 X95.688 Y64.591
G0 X95.978 Y64.874
G0 X96.736 Y65.176
G0 X96.839 Y63.735
M204 S500
M205 X20 Y20
G1 F900 X96.862 Y63.73 E34.89367
G1 X96.895 Y63.735 E34.89483
G1 X96.895 Y63.749 E34.89487
G1 X96.892 Y63.786 E34.89617
G1 X96.87 Y63.789
G1 X96.85 Y63.792
G1 X96.807 Y63.787 E34.8967
G1 X96.802 Y63.773
G1 X96.796 Y63.758
G1 X96.79 Y63.743
G1 X96.839 Y63.735 E34.89743
M204 S5000
M205 X30 Y30
G0 F7200 X96.862 Y63.73
G0 X96.895 Y63.735
G0 X96.895 Y63.749
G0 X96.892 Y63.786
G0 X96.87 Y63.789
G0 X96.85 Y63.792
G0 X96.807 Y63.787
G0 X96.805 Y63.779
G0 X96.705 Y65.173
G0 X106.283 Y67.117
G0 X107.197 Y67.121
G0 X108.085 Y66.905
G0 X108.894 Y66.482
G0 X109.582 Y65.877
G0 X109.876 Y65.453
G0 X110.352 Y64.597
G0 X110.296 Y64.515
M204 S500
M205 X20 Y20
;TYPE:WALL-INNER
G1 F900 X110.749 Y64.515 E34.91325
G1 X110.749 Y64.932 E34.92781
G1 X116.973 Y64.932 E35.14518
G1 X116.973 Y63.238 E35.20434
G1 X116.963 Y63.047 E35.21102
