;FLAVOR:Marlin
;TIME:561
;Filament used: 0.514889m
;Layer height: 0.25
;Generated with Cura_SteamEngine 3.4.1
M190 S60
M104 S200
M109 S200
M82 ;absolute extrusion mode
; Pefix G-Code for most 200mm x 200mm 3D printers by www.DIY3DTech.com to clean nozzle
; Place as start G-Code in Slicer
; Use of this code is at your own risk (no warranties made or implied)
;
M117 Clean ; Indicate nozzle clean in progress on LCD
M107 ; Turn layer fan off
G21 ; Set to metric [change to G20 if you want Imperial]
G90                          ; Force coordinates to be absolute relative to the origin
G28                          ; Home X/Y/Z axis
G0 X1 Y0 Z0.15 F9000         ; Move in 1mm from edge and up [z] 0.15mm
G92 E0                       ; Set extruder to [0] zero
G1 Y190 E50 F500             ; Extrude 100mm filiment along Y axis 190mm long to prime and clean the nozzle
G92 E0                       ; Reset extruder to [0] zero end of cleaning run
G1 E-3 F500                  ; Retract filiment by 3 mm to reduce string effect
G1 X3 Y190 Z15 F9000      ; Move over and rise to safe Z height
G1 X3 Y0 Z15 F9000 ; Move back to front of bed at safe Z height to shear strings
;
; Ensure extruder is not reset by other code or it will be 3mm short [see next line also]
;G1 E3 F500 ; Uncomment if you believe exruder will be reset
; Recommend turning off SKIRT in the slicer to avoid strings pulled into first layer
M117 Printing ; Indicate printing on LCD
; Begin printing with sliced GCode after here
G92 E0
G1 F2400 E-5
;LAYER_COUNT:21
;LAYER:0
M107
M204 S5000
M205 X30 Y30
G0 F7200 X99.471 Y97.996 Z0.25
M204 S500
M205 X20 Y20
;TYPE:SKIRT
G1 F2400 E0
G1 F900 X100.003 Y97.517 E0.03125
G1 X100.585 Y97.102 E0.06245
G1 X101.21 Y96.753 E0.0937
G1 X101.87 Y96.477 E0.12493
G1 X102.556 Y96.276 E0.15614
G1 X103.261 Y96.153 E0.18738
G1 X104.009 Y96.109 E0.22009
G1 X125.991 Y96.11 E1.17969
G1 X126.705 Y96.15 E1.21091
G1 X127.411 Y96.269 E1.24216
G1 X128.098 Y96.467 E1.27337
G1 X128.759 Y96.74 E1.30459
G1 X129.386 Y97.085 E1.33583
G1 X129.97 Y97.497 E1.36703
G1 X130.505 Y97.973 E1.39829
G1 X130.983 Y98.505 E1.42951
G1 X131.398 Y99.087 E1.46072
G1 X131.747 Y99.711 E1.49193
G1 X132.023 Y100.371 E1.52316
G1 X132.224 Y101.058 E1.55441
G1 X132.347 Y101.762 E1.5856
G1 X132.391 Y102.51 E1.61831
G1 X132.391 Y137.491 E3.14537
G1 X132.351 Y138.205 E3.17659
G1 X132.232 Y138.91 E3.2078
G1 X132.034 Y139.598 E3.23905
G1 X131.761 Y140.259 E3.27027
G1 X131.417 Y140.886 E3.30149
G1 X131.004 Y141.47 E3.33272
G1 X130.529 Y142.004 E3.36392
G1 X129.997 Y142.483 E3.39517
G1 X129.415 Y142.898 E3.42637
G1 X128.79 Y143.247 E3.45762
G1 X128.13 Y143.523 E3.48885
G1 X127.444 Y143.724 E3.52006
G1 X126.739 Y143.847 E3.5513
G1 X125.991 Y143.891 E3.58401
G1 X104.009 Y143.891 E4.54361
G1 X103.295 Y143.851 E4.57483
G1 X102.59 Y143.732 E4.60604
G1 X101.902 Y143.534 E4.63729
G1 X101.241 Y143.261 E4.66851
G1 X100.614 Y142.917 E4.69973
G1 X100.03 Y142.504 E4.73095
G1 X99.496 Y142.029 E4.76215
G1 X99.017 Y141.497 E4.7934
G1 X98.602 Y140.915 E4.82461
G1 X98.253 Y140.29 E4.85586
G1 X97.977 Y139.63 E4.88709
G1 X97.776 Y138.944 E4.91829
G1 X97.653 Y138.239 E4.94953
G1 X97.609 Y137.491 E4.98224
G1 X97.609 Y102.509 E6.50934
G1 X97.649 Y101.795 E6.54056
G1 X97.768 Y101.09 E6.57177
G1 X97.966 Y100.402 E6.60303
G1 X98.239 Y99.741 E6.63424
G1 X98.583 Y99.114 E6.66546
G1 X98.996 Y98.53 E6.69669
G1 X99.471 Y97.996 E6.72789
M204 S5000
M205 X30 Y30
G0 F7200 X99.865 Y98.17
M204 S500
M205 X20 Y20
G1 F900 X100.393 Y97.721 E6.75814
G1 X100.968 Y97.336 E6.78835
G1 X101.585 Y97.021 E6.81859
G1 X102.233 Y96.778 E6.84881
G1 X102.906 Y96.611 E6.87908
G1 X103.592 Y96.523 E6.90927
G1 X104.009 Y96.509 E6.92748
G1 X125.991 Y96.51 E7.88708
G1 X126.683 Y96.55 E7.91734
G1 X127.365 Y96.669 E7.94756
G1 X128.029 Y96.867 E7.97781
G1 X128.665 Y97.139 E8.00801
G1 X129.266 Y97.483 E8.03824
G1 X129.824 Y97.894 E8.06849
G1 X130.33 Y98.366 E8.0987
G1 X130.779 Y98.894 E8.12895
G1 X131.164 Y99.47 E8.1592
G1 X131.48 Y100.086 E8.18942
G1 X131.722 Y100.735 E8.21966
G1 X131.889 Y101.407 E8.24989
G1 X131.977 Y102.094 E8.28012
G1 X131.991 Y102.51 E8.29829
G1 X131.991 Y137.491 E9.82535
G1 X131.951 Y138.182 E9.85556
G1 X131.832 Y138.865 E9.88583
G1 X131.634 Y139.528 E9.91603
G1 X131.362 Y140.165 E9.94627
G1 X131.018 Y140.766 E9.9765
G1 X130.607 Y141.324 E10.00675
G1 X130.135 Y141.83 E10.03696
G1 X129.607 Y142.279 E10.06722
G1 X129.032 Y142.664 E10.09743
G1 X128.415 Y142.979 E10.12767
G1 X127.767 Y143.222 E10.15788
G1 X127.094 Y143.389 E10.18815
G1 X126.408 Y143.477 E10.21834
G1 X125.991 Y143.491 E10.23656
G1 X104.009 Y143.491 E11.19616
G1 X103.318 Y143.451 E11.22637
G1 X102.635 Y143.332 E11.25664
G1 X101.972 Y143.134 E11.28684
G1 X101.335 Y142.862 E11.31708
G1 X100.734 Y142.518 E11.34731
G1 X100.176 Y142.107 E11.37756
G1 X99.67 Y141.635 E11.40777
G1 X99.221 Y141.107 E11.43802
G1 X98.836 Y140.532 E11.46823
G1 X98.521 Y139.915 E11.49847
G1 X98.278 Y139.267 E11.52869
G1 X98.111 Y138.594 E11.55896
G1 X98.023 Y137.908 E11.58915
G1 X98.009 Y137.491 E11.60736
G1 X98.009 Y102.509 E13.13446
G1 X98.049 Y101.818 E13.16468
G1 X98.168 Y101.135 E13.19494
G1 X98.366 Y100.472 E13.22515
G1 X98.638 Y99.835 E13.25539
G1 X98.982 Y99.234 E13.28562
G1 X99.393 Y98.676 E13.31587
G1 X99.865 Y98.17 E13.34608
M204 S5000
M205 X30 Y30
G0 F7200 X100.258 Y98.351
M204 S500
M205 X20 Y20
G1 F900 X100.78 Y97.933 E13.37527
G1 X101.349 Y97.581 E13.40448
G1 X101.956 Y97.299 E13.43369
G1 X102.592 Y97.091 E13.46291
G1 X103.248 Y96.961 E13.4921
G1 X104.009 Y96.909 E13.5254
G1 X125.991 Y96.91 E14.485
G1 X126.659 Y96.95 E14.51421
G1 X127.317 Y97.069 E14.5434
G1 X127.957 Y97.266 E14.57263
G1 X128.568 Y97.538 E14.60183
G1 X129.143 Y97.881 E14.63106
G1 X129.672 Y98.29 E14.66025
G1 X130.149 Y98.759 E14.68945
G1 X130.567 Y99.282 E14.71868
G1 X130.919 Y99.85 E14.74785
G1 X131.201 Y100.457 E14.77707
G1 X131.409 Y101.093 E14.80628
G1 X131.539 Y101.749 E14.83547
G1 X131.591 Y102.51 E14.86877
G1 X131.591 Y137.491 E16.39583
G1 X131.551 Y138.159 E16.42504
G1 X131.432 Y138.817 E16.45423
G1 X131.235 Y139.457 E16.48346
G1 X130.963 Y140.068 E16.51266
G1 X130.62 Y140.642 E16.54185
G1 X130.211 Y141.172 E16.57107
G1 X129.742 Y141.649 E16.60028
G1 X129.22 Y142.067 E16.62947
G1 X128.651 Y142.419 E16.65868
G1 X128.044 Y142.701 E16.68789
G1 X127.408 Y142.909 E16.7171
G1 X126.752 Y143.039 E16.7463
G1 X125.991 Y143.091 E16.7796
G1 X104.009 Y143.091 E17.7392
G1 X103.341 Y143.051 E17.76841
G1 X102.683 Y142.932 E17.7976
G1 X102.043 Y142.735 E17.82683
G1 X101.432 Y142.463 E17.85603
G1 X100.858 Y142.12 E17.88522
G1 X100.328 Y141.711 E17.91444
G1 X99.851 Y141.242 E17.94365
G1 X99.433 Y140.72 E17.97284
G1 X99.081 Y140.151 E18.00205
G1 X98.799 Y139.544 E18.03126
G1 X98.591 Y138.908 E18.06048
G1 X98.461 Y138.252 E18.08967
G1 X98.409 Y137.491 E18.12297
G1 X98.409 Y102.509 E19.65007
G1 X98.449 Y101.841 E19.67928
G1 X98.568 Y101.183 E19.70847
G1 X98.765 Y100.543 E19.7377
G1 X99.037 Y99.932 E19.7669
G1 X99.38 Y99.358 E19.79609
G1 X99.789 Y98.828 E19.82532
G1 X100.258 Y98.351 E19.85452
M204 S5000
M205 X30 Y30
G0 F7200 X100.184 Y98.986
M204 S500
M205 X20 Y20
G1 F900 X100.649 Y98.54 E19.88265
G1 X101.166 Y98.155 E19.91078
G1 X101.727 Y97.836 E19.93896
G1 X102.323 Y97.59 E19.9671
G1 X102.944 Y97.419 E19.99522
G1 X103.582 Y97.327 E20.02336
G1 X104.009 Y97.309 E20.04202
G1 X125.991 Y97.31 E21.00162
G1 X126.635 Y97.35 E21.02979
G1 X127.268 Y97.469 E21.0579
G1 X127.882 Y97.666 E21.08605
G1 X128.467 Y97.937 E21.1142
G1 X129.014 Y98.279 E21.14236
G1 X129.514 Y98.685 E21.17048
G1 X129.96 Y99.151 E21.19863
G1 X130.345 Y99.668 E21.22677
G1 X130.664 Y100.228 E21.25491
G1 X130.91 Y100.824 E21.28305
G1 X131.081 Y101.446 E21.31121
G1 X131.173 Y102.084 E21.33935
G1 X131.191 Y102.51 E21.35797
G1 X131.191 Y137.491 E22.88502
G1 X131.151 Y138.134 E22.91315
G1 X131.032 Y138.768 E22.94131
G1 X130.835 Y139.382 E22.96946
G1 X130.564 Y139.967 E22.9976
G1 X130.222 Y140.514 E23.02576
G1 X129.816 Y141.014 E23.05388
G1 X129.351 Y141.46 E23.08201
G1 X128.834 Y141.845 E23.11015
G1 X128.273 Y142.164 E23.13832
G1 X127.677 Y142.41 E23.16647
G1 X127.056 Y142.581 E23.19458
G1 X126.418 Y142.673 E23.22272
G1 X125.991 Y142.691 E23.24138
G1 X104.009 Y142.691 E24.20098
G1 X103.366 Y142.651 E24.2291
G1 X102.732 Y142.532 E24.25726
G1 X102.118 Y142.335 E24.28541
G1 X101.533 Y142.064 E24.31356
G1 X100.986 Y141.722 E24.34172
G1 X100.486 Y141.316 E24.36984
G1 X100.04 Y140.851 E24.39796
G1 X99.655 Y140.334 E24.4261
G1 X99.336 Y139.773 E24.45428
G1 X99.09 Y139.177 E24.48242
G1 X98.919 Y138.556 E24.51054
G1 X98.827 Y137.918 E24.53868
G1 X98.809 Y137.491 E24.55734
G1 X98.809 Y102.509 E26.08444
G1 X98.849 Y101.866 E26.11256
G1 X98.968 Y101.232 E26.14072
G1 X99.165 Y100.618 E26.16887
G1 X99.436 Y100.033 E26.19702
G1 X99.778 Y99.486 E26.22518
G1 X100.184 Y98.986 E26.25329
M204 S5000
M205 X30 Y30
G1 F2400 E21.25329
G0 F7200 X103.335 Y103.114
G0 X104.614 Y103.114
G0 X122.128 Y109.872
G0 X122.17 Y131.17
G0 X122.1 Y131.1
M204 S500
M205 X20 Y20
;TYPE:WALL-INNER
G1 F2400 E26.25329
G1 F900 X122.1 Y109.9 E27.17876
G1 X105.4 Y109.9 E27.90778
G1 X105.4 Y131.1 E28.83324
G1 X122.1 Y131.1 E29.56226
M204 S5000
M205 X30 Y30
G0 F7200 X121.7 Y130.7
M204 S500
M205 X20 Y20
;TYPE:WALL-OUTER
G1 F900 X121.7 Y110.3 E30.4528
G1 X105.8 Y110.3 E31.1469
G1 X105.8 Y130.7 E32.03744
G1 X121.7 Y130.7 E32.73154
M204 S5000
M205 X30 Y30
G0 F7200 X121.7 Y130.5
G0 X122.14 Y130.5
G0 X122.2 Y130.5
G0 X125.33 Y136.83
G0 X125.4 Y136.9
M204 S500
M205 X20 Y20
;TYPE:WALL-INNER
G1 F900 X104.6 Y136.9 E33.63954
G1 X104.6 Y103.1 E35.11504
G1 X125.4 Y103.1 E36.02304
G1 X125.4 Y136.9 E37.49855
M204 S5000
M205 X30 Y30
G0 F7200 X125.8 Y137.3
M204 S500
M205 X20 Y20
;TYPE:WALL-OUTER
G1 F900 X104.2 Y137.3 E38.44147
G1 X104.2 Y102.7 E39.9519
G1 X125.8 Y102.7 E40.89482
G1 X125.8 Y137.3 E42.40525
M204 S5000
M205 X30 Y30
G0 F7200 X125.6 Y137.3
G0 X125.36 Y136.86
G0 X125.01 Y136.51
M204 S500
M205 X20 Y20
;TYPE:SKIN
G1 F900 X104.99 Y136.51 E43.2792
G1 X104.99 Y103.49 E44.72065
G1 X125.01 Y103.49 E45.5946
G1 X125.01 Y136.51 E47.03606
M204 S5000
M205 X30 Y30
G0 F7200 X122.49 Y131.49
M204 S500
M205 X20 Y20
G1 F900 X122.49 Y109.51 E47.99557
G1 X105.01 Y109.51 E48.75864
G1 X105.01 Y131.49 E49.71815
G1 X122.49 Y131.49 E50.48122
M204 S5000
M205 X30 Y30
G0 F7200 X105.307 Y136.328
G0 X105.238 Y136.259
G1 F900 X105.521 Y135.977 E50.50712
M204 S500
M205 X20 Y20
G1 X105.943 Y136.398
M204 S5000
M205 X30 Y30
G0 F7200 X106.438 Y136.328
M204 S500
M205 X20 Y20
G1 F900 X105.17 Y135.06 E50.5854
G1 X105.1 Y134.99
M204 S5000
M205 X30 Y30
G0 F7200 X105.17 Y134.494
M204 S500
M205 X20 Y20
G1 F900 X107.004 Y136.328 E50.69863
G1 X107.074 Y136.398
M204 S5000
M205 X30 Y30
G0 F7200 X107.57 Y136.328
M204 S500
M205 X20 Y20
G1 F900 X105.17 Y133.928 E50.84679
G1 X105.1 Y133.858
M204 S5000
M205 X30 Y30
G0 F7200 X105.17 Y133.363
M204 S500
M205 X20 Y20
G1 F900 X108.135 Y136.328 E51.02984
G1 X108.205 Y136.398
M204 S5000
M205 X30 Y30
G0 F7200 X108.701 Y136.328
M204 S500
M205 X20 Y20
G1 F900 X105.17 Y132.797 E51.24783
G1 X105.1 Y132.727
M204 S5000
M205 X30 Y30
G0 F7200 X105.17 Y132.231
M204 S500
M205 X20 Y20
G1 F900 X109.267 Y136.328 E51.50076
G1 X109.337 Y136.398
M204 S5000
M205 X30 Y30
G0 F7200 X109.832 Y136.328
M204 S500
M205 X20 Y20
G1 F900 X105.172 Y131.669 E51.78842
G1 X105.102 Y131.599
M204 S5000
M205 X30 Y30
G0 F7200 X105.738 Y131.669
M204 S500
M205 X20 Y20
G1 F900 X110.398 Y136.328 E52.07608
G1 X110.468 Y136.398
M204 S5000
M205 X30 Y30
G0 F7200 X110.964 Y136.328
M204 S500
M205 X20 Y20
G1 F900 X106.304 Y131.669 E52.36374
G1 X106.234 Y131.599
M204 S5000
M205 X30 Y30
G0 F7200 X106.87 Y131.669
M204 S500
M205 X20 Y20
G1 F900 X111.529 Y136.328 E52.65137
G1 X111.599 Y136.398
M204 S5000
M205 X30 Y30
G0 F7200 X112.095 Y136.328
M204 S500
M205 X20 Y20
G1 F900 X107.435 Y131.669 E52.93903
G1 X107.365 Y131.599
M204 S5000
M205 X30 Y30
G0 F7200 X108.001 Y131.669
M204 S500
M205 X20 Y20
G1 F900 X112.661 Y136.328 E53.22668
G1 X112.731 Y136.398
M204 S5000
M205 X30 Y30
G0 F7200 X113.226 Y136.328
M204 S500
M205 X20 Y20
G1 F900 X108.567 Y131.669 E53.51431
G1 X108.497 Y131.599
M204 S5000
M205 X30 Y30
G0 F7200 X109.132 Y131.669
M204 S500
M205 X20 Y20
G1 F900 X113.792 Y136.328 E53.80197
G1 X113.862 Y136.398
M204 S5000
M205 X30 Y30
G0 F7200 X114.358 Y136.328
M204 S500
M205 X20 Y20
G1 F900 X109.698 Y131.669 E54.08963
G1 X109.628 Y131.599
M204 S5000
M205 X30 Y30
G0 F7200 X110.264 Y131.669
M204 S500
M205 X20 Y20
G1 F900 X114.923 Y136.328 E54.37726
G1 X114.993 Y136.398
M204 S5000
M205 X30 Y30
G0 F7200 X115.489 Y136.328
M204 S500
M205 X20 Y20
G1 F900 X110.829 Y131.669 E54.66492
G1 X110.759 Y131.599
M204 S5000
M205 X30 Y30
G0 F7200 X111.395 Y131.669
M204 S500
M205 X20 Y20
G1 F900 X116.055 Y136.328 E54.95258
G1 X116.125 Y136.398
M204 S5000
M205 X30 Y30
G0 F7200 X116.621 Y136.328
M204 S500
M205 X20 Y20
G1 F900 X111.961 Y131.669 E55.24023
G1 X111.891 Y131.599
M204 S5000
M205 X30 Y30
G0 F7200 X112.526 Y131.669
M204 S500
M205 X20 Y20
G1 F900 X117.186 Y136.328 E55.52789
G1 X117.256 Y136.398
M204 S5000
M205 X30 Y30
G0 F7200 X117.752 Y136.328
M204 S500
M205 X20 Y20
G1 F900 X113.092 Y131.669 E55.81555
G1 X113.022 Y131.599
M204 S5000
M205 X30 Y30
G0 F7200 X113.658 Y131.669
M204 S500
M205 X20 Y20
G1 F900 X118.318 Y136.328 E56.10321
G1 X118.388 Y136.398
M204 S5000
M205 X30 Y30
G0 F7200 X118.883 Y136.328
M204 S500
M205 X20 Y20
G1 F900 X114.223 Y131.669 E56.39087
G1 X114.153 Y131.599
M204 S5000
M205 X30 Y30
G0 F7200 X114.789 Y131.669
M204 S500
M205 X20 Y20
G1 F900 X119.449 Y136.328 E56.67853
G1 X119.519 Y136.398
M204 S5000
M205 X30 Y30
G0 F7200 X120.015 Y136.328
M204 S500
M205 X20 Y20
G1 F900 X115.355 Y131.669 E56.96619
G1 X115.285 Y131.599
M204 S5000
M205 X30 Y30
G0 F7200 X115.921 Y131.669
M204 S500
M205 X20 Y20
G1 F900 X120.58 Y136.328 E57.25382
G1 X120.65 Y136.398
M204 S5000
M205 X30 Y30
G0 F7200 X121.146 Y136.328
M204 S500
M205 X20 Y20
G1 F900 X116.486 Y131.669 E57.54147
G1 X116.416 Y131.599
M204 S5000
M205 X30 Y30
G0 F7200 X117.052 Y131.669
M204 S500
M205 X20 Y20
G1 F900 X121.712 Y136.328 E57.82913
G1 X121.782 Y136.398
M204 S5000
M205 X30 Y30
G0 F7200 X122.277 Y136.328
M204 S500
M205 X20 Y20
G1 F900 X117.618 Y131.669 E58.11676
G1 X117.548 Y131.599
M204 S5000
M205 X30 Y30
G0 F7200 X118.183 Y131.669
M204 S500
M205 X20 Y20
G1 F900 X122.843 Y136.328 E58.40442
G1 X122.913 Y136.398
M204 S5000
M205 X30 Y30
G0 F7200 X123.409 Y136.328
M204 S500
M205 X20 Y20
G1 F900 X118.749 Y131.669 E58.69208
G1 X118.679 Y131.599
M204 S5000
M205 X30 Y30
G0 F7200 X119.315 Y131.669
M204 S500
M205 X20 Y20
G1 F900 X123.974 Y136.328 E58.97971
G1 X124.044 Y136.398
M204 S5000
M205 X30 Y30
G0 F7200 X124.54 Y136.328
M204 S500
M205 X20 Y20
G1 F900 X119.88 Y131.669 E59.26737
G1 X119.81 Y131.599
M204 S5000
M205 X30 Y30
G0 F7200 X120.446 Y131.669
M204 S500
M205 X20 Y20
G1 F900 X124.829 Y136.052 E59.53795
G1 X124.899 Y136.122
M204 S5000
M205 X30 Y30
G0 F7200 X124.829 Y135.486
M204 S500
M205 X20 Y20
G1 F900 X121.012 Y131.669 E59.7736
G1 X120.942 Y131.599
M204 S5000
M205 X30 Y30
G0 F7200 X121.577 Y131.669
M204 S500
M205 X20 Y20
G1 F900 X124.829 Y134.921 E59.97437
G1 X124.899 Y134.991
M204 S5000
M205 X30 Y30
G0 F7200 X124.829 Y134.355
M204 S500
M205 X20 Y20
G1 F900 X122.143 Y131.669 E60.14019
G1 X122.073 Y131.599
M204 S5000
M205 X30 Y30
G0 F7200 X122.669 Y131.629
M204 S500
M205 X20 Y20
G1 F900 X124.829 Y133.789 E60.27354
G1 X124.899 Y133.859
M204 S5000
M205 X30 Y30
G0 F7200 X124.829 Y133.223
M204 S500
M205 X20 Y20
G1 F900 X122.669 Y131.063 E60.40689
G1 X122.599 Y130.993
M204 S5000
M205 X30 Y30
G0 F7200 X122.669 Y130.498
M204 S500
M205 X20 Y20
G1 F900 X124.829 Y132.658 E60.54024
G1 X124.899 Y132.728
M204 S5000
M205 X30 Y30
G0 F7200 X124.829 Y132.092
M204 S500
M205 X20 Y20
G1 F900 X122.669 Y129.932 E60.67359
G1 X122.599 Y129.862
M204 S5000
M205 X30 Y30
G0 F7200 X122.669 Y129.366
M204 S500
M205 X20 Y20
G1 F900 X124.829 Y131.526 E60.80694
G1 X124.899 Y131.596
M204 S5000
M205 X30 Y30
G0 F7200 X124.829 Y130.961
M204 S500
M205 X20 Y20
G1 F900 X122.669 Y128.801 E60.94029
G1 X122.599 Y128.731
M204 S5000
M205 X30 Y30
